clientes/genesneakers/tênis/05-filtros/gene-carbon.cube
# GENE · Carbon v1.0 · LUT 3D
# Gene Sneakers — sistema de filtros
# Compatible: CapCut, Premiere, DaVinci, Photoshop, Final Cut
#
TITLE "GENE Carbon v1.0"
LUT_3D_SIZE 33
DOMAIN_MIN 0.0 0.0 0.0
DOMAIN_MAX 1.0 1.0 1.0
0.000000 0.000000 0.000000
0.000000 0.000000 0.000000
0.000000 0.000000 0.000000
0.000000 0.000000 0.000000
0.010830 0.000000 0.000000
0.031141 0.000000 0.000000
0.051452 0.000000 0.000000
0.071764 0.000000 0.000000
0.092075 0.000000 0.000000
0.112387 0.000000 0.000000
0.132698 0.000000 0.000000
0.153009 0.000000 0.000000
0.173321 0.000000 0.000000
0.193632 0.000000 0.000000
0.213944 0.000000 0.000000
0.234255 0.000000 0.000000
0.254566 0.000000 0.000000
0.274878 0.000000 0.000000
0.359206 0.000000 0.000000
0.370352 0.000000 0.000000
0.381499 0.000000 0.000000
0.392645 0.000000 0.000000
0.403792 0.000000 0.000000
0.414938 0.000000 0.000000
0.426085 0.000000 0.000000
0.437231 0.000000 0.000000
0.448378 0.000000 0.000000
0.459524 0.000000 0.000000
0.470671 0.000000 0.000000
0.481817 0.000000 0.000000
0.492964 0.000000 0.000000
0.504110 0.000000 0.000000
0.515257 0.000000 0.000000
0.000000 0.000000 0.000000
0.000000 0.000000 0.000000
0.000000 0.000000 0.000000
0.000000 0.000000 0.000000
0.013712 0.000000 0.000000
0.034023 0.000000 0.000000
0.054334 0.000000 0.000000
0.074646 0.000000 0.000000
0.094957 0.000000 0.000000
0.115269 0.000000 0.000000
0.135580 0.000000 0.000000
0.155891 0.000000 0.000000
0.176203 0.000000 0.000000
0.196514 0.000000 0.000000
0.216826 0.000000 0.000000
0.237137 0.000000 0.000000
0.257448 0.000000 0.000000
0.277760 0.000000 0.000000
0.362088 0.000000 0.000000
0.373234 0.000000 0.000000
0.384381 0.000000 0.000000
0.395527 0.000000 0.000000
0.406674 0.000000 0.000000
0.417820 0.000000 0.000000
0.428967 0.000000 0.000000
0.440113 0.000000 0.000000
0.451260 0.000000 0.000000
0.462406 0.000000 0.000000
0.473553 0.000000 0.000000
0.484699 0.000000 0.000000
0.495846 0.000000 0.000000
0.506992 0.000000 0.000000
0.518139 0.000000 0.000000
0.000000 0.000000 0.000000
0.000000 0.000000 0.000000
0.000000 0.000000 0.000000
0.000000 0.000000 0.000000
0.016594 0.000000 0.000000
0.036905 0.000000 0.000000
0.057217 0.000000 0.000000
0.077528 0.000000 0.000000
0.097839 0.000000 0.000000
0.118151 0.000000 0.000000
0.138462 0.000000 0.000000
0.158773 0.000000 0.000000
0.179085 0.000000 0.000000
0.199396 0.000000 0.000000
0.219708 0.000000 0.000000
0.240019 0.000000 0.000000
0.260330 0.000000 0.000000
0.280642 0.000000 0.000000
0.364970 0.002313 0.000000
0.376116 0.003089 0.000000
0.387263 0.003864 0.000000
0.398409 0.004639 0.000000
0.409556 0.005414 0.000000
0.420702 0.006190 0.000000
0.431849 0.006965 0.000000
0.442995 0.007740 0.000000
0.454142 0.008515 0.000000
0.465288 0.009291 0.000000
0.476435 0.010066 0.000000
0.487581 0.010841 0.000000
0.498728 0.011616 0.000000
0.509874 0.012392 0.000000
0.521021 0.013167 0.000000
0.000000 0.000000 0.000000
0.000000 0.000000 0.000000
0.000000 0.000000 0.000000
0.000000 0.000000 0.000000
0.019476 0.000605 0.000000
0.039787 0.002017 0.000000
0.060099 0.003430 0.000000
0.080410 0.004843 0.000000
0.100721 0.006255 0.000000
0.121033 0.007668 0.000000
0.141344 0.009081 0.000000
0.161655 0.010493 0.000000
0.181967 0.011906 0.000000
0.202278 0.013319 0.000000
0.222590 0.014731 0.000000
0.242901 0.016144 0.000000
0.263212 0.017557 0.000000
0.283524 0.018969 0.000000
0.367852 0.024834 0.000000
0.378998 0.025610 0.000000
0.390145 0.026385 0.000000
0.401291 0.027160 0.000000
0.412438 0.027935 0.000000
0.423584 0.028711 0.000000
0.434731 0.029486 0.000000
0.445877 0.030261 0.000000
0.457024 0.031036 0.000000
0.468170 0.031812 0.000000
0.479317 0.032587 0.000000
0.490463 0.033362 0.000000
0.501610 0.034137 0.000000
0.512756 0.034913 0.000000
0.523903 0.035688 0.000000
0.004369 0.013106 0.004468
0.004722 0.014166 0.004829
0.005075 0.015225 0.005190
0.006451 0.016285 0.005552
0.018040 0.018500 0.004730
0.048387 0.026847 0.000000
0.071420 0.027429 0.000000
0.094453 0.028010 0.000000
0.117486 0.028592 0.000000
0.123915 0.030189 0.000000
0.144226 0.031602 0.000000
0.164537 0.033014 0.000000
0.184849 0.034427 0.000000
0.205160 0.035840 0.000000
0.225472 0.037252 0.000000
0.245783 0.038665 0.000000
0.266094 0.040078 0.000000
0.286406 0.041490 0.000000
0.370734 0.047356 0.000000
0.381880 0.048131 0.000000
0.393027 0.048906 0.000000
0.404173 0.049681 0.000000
0.415320 0.050457 0.000000
0.426466 0.051232 0.000000
0.437613 0.052007 0.000000
0.448759 0.052782 0.000000
0.459906 0.053558 0.000000
0.471052 0.054333 0.000000
0.482199 0.055108 0.000000
0.493345 0.055883 0.000000
0.504492 0.056659 0.000000
0.515638 0.057434 0.000000
0.526785 0.058209 0.000000
0.009999 0.029997 0.010226
0.010352 0.031057 0.010587
0.010705 0.032116 0.010949
0.013523 0.033176 0.011310
0.024032 0.034235 0.011671
0.036743 0.037648 0.009626
0.074688 0.054028 0.000000
0.097721 0.054610 0.000000
0.120754 0.055191 0.000000
0.143788 0.055773 0.000000
0.166821 0.056354 0.000000
0.189854 0.056935 0.000000
0.212887 0.057517 0.000000
0.235920 0.058098 0.000000
0.258953 0.058680 0.000000
0.248665 0.061186 0.000000
0.268976 0.062599 0.000000
0.289288 0.064012 0.000000
0.373616 0.069877 0.000000
0.384762 0.070652 0.000000
0.395909 0.071427 0.000000
0.407055 0.072202 0.000000
0.418202 0.072978 0.000000
0.429348 0.073753 0.000000
0.440495 0.074528 0.000000
0.451641 0.075303 0.000000
0.462788 0.076079 0.000000
0.473934 0.076854 0.000000
0.485081 0.077629 0.000000
0.496227 0.078404 0.000000
0.507374 0.079180 0.000000
0.518520 0.079955 0.000000
0.529667 0.080730 0.000000
0.015629 0.046888 0.015984
0.015982 0.047947 0.016346
0.016336 0.049007 0.016707
0.020594 0.050066 0.017068
0.031103 0.051126 0.017429
0.041612 0.052185 0.017790
0.055445 0.056795 0.014521
0.071245 0.061255 0.018216
0.124023 0.081791 0.000000
0.147056 0.082372 0.000000
0.170089 0.082953 0.000000
0.193122 0.083535 0.000000
0.216155 0.084116 0.000000
0.239188 0.084698 0.000000
0.262221 0.085279 0.000000
0.285254 0.085861 0.000000
0.308288 0.086442 0.000000
0.331321 0.087024 0.000000
0.376498 0.092398 0.000000
0.387644 0.093173 0.000000
0.398791 0.093948 0.000000
0.409937 0.094723 0.000000
0.421084 0.095499 0.000000
0.432230 0.096274 0.000000
0.443377 0.097049 0.000000
0.454523 0.097824 0.000000
0.465670 0.098600 0.000000
0.476816 0.099375 0.000000
0.487963 0.100150 0.000000
0.499109 0.100925 0.000000
0.510256 0.101701 0.000000
0.521402 0.102476 0.000000
0.532549 0.103251 0.000000
0.021260 0.063779 0.021743
0.021613 0.064838 0.022104
0.021966 0.065898 0.022465
0.027665 0.066957 0.022826
0.038174 0.068017 0.023188
0.048683 0.069076 0.023549
0.061679 0.074811 0.019128
0.074148 0.075942 0.019417
0.089800 0.080254 0.022960
0.150324 0.108971 0.000000
0.173357 0.109553 0.000000
0.196390 0.110134 0.000000
0.219423 0.110716 0.000000
0.242456 0.111297 0.000000
0.265490 0.111879 0.000000
0.288523 0.112460 0.000000
0.311556 0.113042 0.000000
0.334589 0.113623 0.000000
0.430217 0.116037 0.000000
0.442857 0.116356 0.000000
0.455497 0.116675 0.000000
0.468137 0.116994 0.000000
0.480777 0.117313 0.000000
0.493417 0.117632 0.000000
0.506058 0.117952 0.000000
0.518698 0.118271 0.000000
0.531338 0.118590 0.000000
0.543978 0.118909 0.000000
0.490845 0.122671 0.000000
0.501991 0.123447 0.000000
0.513138 0.124222 0.000000
0.524284 0.124997 0.000000
0.535431 0.125772 0.000000
0.026890 0.080669 0.027501
0.027243 0.081729 0.027862
0.027596 0.082788 0.028223
0.034737 0.083848 0.028585
0.045245 0.084908 0.028946
0.055754 0.085967 0.029307
0.066263 0.087027 0.029668
0.080382 0.093958 0.024023
0.092851 0.095089 0.024312
0.108354 0.099253 0.027704
0.124603 0.104162 0.031859
0.199658 0.136734 0.000000
0.222692 0.137315 0.000000
0.245725 0.137897 0.000000
0.268758 0.138478 0.000000
0.291791 0.139060 0.000000
0.314824 0.139641 0.000000
0.337857 0.140222 0.000000
0.433485 0.142636 0.000000
0.446125 0.142956 0.000000
0.458765 0.143275 0.000000
0.471405 0.143594 0.000000
0.484046 0.143913 0.000000
0.496686 0.144232 0.000000
0.509326 0.144551 0.000000
0.521966 0.144870 0.000000
0.534606 0.145189 0.000000
0.547246 0.145508 0.000000
0.559886 0.145827 0.000000
0.572526 0.146146 0.000000
0.585166 0.146466 0.000000
0.597807 0.146785 0.000000
0.693689 0.167163 0.000000
0.032520 0.097560 0.033259
0.032873 0.098620 0.033620
0.033226 0.099679 0.033982
0.041808 0.100739 0.034343
0.052317 0.101798 0.034704
0.062826 0.102858 0.035065
0.073334 0.103917 0.035426
0.083843 0.104977 0.035788
0.099084 0.113105 0.028919
0.111554 0.114236 0.029208
0.126909 0.118252 0.032448
0.143158 0.123161 0.036603
0.225960 0.163915 0.000000
0.248993 0.164496 0.000000
0.272026 0.165078 0.000000
0.295059 0.165659 0.000000
0.318092 0.166240 0.000000
0.341125 0.166822 0.000000
0.436753 0.169236 0.000000
0.449393 0.169555 0.000000
0.462034 0.169874 0.000000
0.474674 0.170193 0.000000
0.487314 0.170512 0.000000
0.499954 0.170831 0.000000
0.512594 0.171150 0.000000
0.525234 0.171470 0.000000
0.537874 0.171789 0.000000
0.550514 0.172108 0.000000
0.639948 0.195940 0.000000
0.654312 0.196302 0.000000
0.668676 0.196665 0.000000
0.683040 0.197027 0.000000
0.697403 0.197390 0.000000
0.038150 0.114451 0.039017
0.038504 0.115511 0.039379
0.038857 0.116570 0.039740
0.048879 0.117630 0.040101
0.059388 0.118689 0.040462
0.069897 0.119749 0.040823
0.080406 0.120808 0.041185
0.090915 0.121868 0.041546
0.101424 0.122927 0.041907
0.117787 0.132252 0.033815
0.130257 0.133383 0.034104
0.145464 0.137251 0.037192
0.161713 0.142160 0.041347
0.177962 0.147070 0.045502
0.275294 0.191677 0.000000
0.298327 0.192258 0.000000
0.321360 0.192840 0.000000
0.344394 0.193421 0.000000
0.440021 0.195835 0.000000
0.452662 0.196154 0.000000
0.465302 0.196474 0.000000
0.477942 0.196793 0.000000
0.490582 0.197112 0.000000
0.503222 0.197431 0.000000
0.586207 0.224716 0.000000
0.600571 0.225078 0.000000
0.614935 0.225441 0.000000
0.629298 0.225804 0.000000
0.643662 0.226166 0.000000
0.658026 0.226529 0.000000
0.672390 0.226891 0.000000
0.686753 0.227254 0.000000
0.701117 0.227617 0.000000
0.043781 0.131342 0.044776
0.044134 0.132401 0.045137
0.045442 0.133461 0.045498
0.055950 0.134520 0.045859
0.066459 0.135580 0.046220
0.076968 0.136639 0.046582
0.087477 0.137699 0.046943
0.097986 0.138758 0.047304
0.108495 0.139818 0.047665
0.124021 0.150269 0.038421
0.136490 0.151399 0.038710
0.148959 0.152530 0.038999
0.164018 0.156249 0.041937
0.180268 0.161159 0.046091
0.196517 0.166069 0.050246
0.301596 0.218858 0.000000
0.324629 0.219439 0.000000
0.347662 0.220021 0.000000
0.443290 0.222435 0.000000
0.518102 0.253129 0.000000
0.532466 0.253492 0.000000
0.546830 0.253855 0.000000
0.561193 0.254217 0.000000
0.575557 0.254580 0.000000
0.589921 0.254942 0.000000
0.604285 0.255305 0.000000
0.618648 0.255668 0.000000
0.633012 0.256030 0.000000
0.647376 0.256393 0.000000
0.661740 0.256755 0.000000
0.676104 0.257118 0.000000
0.690467 0.257481 0.000000
0.704831 0.257843 0.000000
0.049411 0.148233 0.050534
0.049764 0.149292 0.050895
0.052513 0.150352 0.051256
0.063022 0.151411 0.051617
0.073531 0.152471 0.051979
0.084040 0.153530 0.052340
0.094548 0.154590 0.052701
0.105057 0.155649 0.053062
0.115566 0.156709 0.053423
0.126075 0.157768 0.053785
0.142724 0.169416 0.043317
0.155193 0.170547 0.043606
0.167662 0.171677 0.043895
0.182573 0.175248 0.046681
0.198822 0.180158 0.050835
0.215071 0.185068 0.054990
0.231321 0.189978 0.059144
0.350930 0.246620 0.000000
0.507452 0.282993 0.000000
0.521816 0.283356 0.000000
0.536180 0.283719 0.000000
0.550544 0.284081 0.000000
0.564907 0.284444 0.000000
0.579271 0.284806 0.000000
0.593635 0.285169 0.000000
0.607999 0.285532 0.000000
0.622362 0.285894 0.000000
0.636726 0.286257 0.000000
0.651090 0.286619 0.000000
0.665454 0.286982 0.000000
0.679817 0.287345 0.000000
0.694141 0.287666 0.000000
0.708457 0.287982 0.000000
0.055041 0.165124 0.056292
0.055394 0.166183 0.056653
0.059584 0.167243 0.057015
0.070093 0.168302 0.057376
0.080602 0.169362 0.057737
0.091111 0.170421 0.058098
0.101620 0.171481 0.058459
0.112129 0.172540 0.058821
0.122637 0.173600 0.059182
0.133146 0.174659 0.059543
0.143655 0.175719 0.059904
0.161426 0.188563 0.048212
0.173896 0.189694 0.048501
0.186365 0.190824 0.048790
0.201128 0.194247 0.051425
0.217377 0.199157 0.055579
0.233626 0.204067 0.059734
0.249875 0.208977 0.063889
0.511166 0.313220 0.000000
0.525530 0.313583 0.000000
0.539894 0.313945 0.000000
0.554257 0.314308 0.000000
0.568621 0.314670 0.000000
0.582985 0.315033 0.000000
0.597349 0.315396 0.000000
0.611713 0.315758 0.000000
0.626076 0.316121 0.000000
0.640413 0.316456 0.000000
0.654729 0.316771 0.000000
0.669045 0.317086 0.000000
0.683361 0.317401 0.000000
0.697678 0.317716 0.000000
0.711994 0.318031 0.000000
0.060671 0.182014 0.062050
0.061025 0.183074 0.062412
0.066656 0.184133 0.062773
0.077164 0.185193 0.063134
0.087673 0.186252 0.063495
0.098182 0.187312 0.063856
0.108691 0.188371 0.064218
0.119200 0.189431 0.064579
0.129709 0.190490 0.064940
0.140218 0.191550 0.065301
0.150726 0.192609 0.065662
0.161235 0.193669 0.066024
0.180129 0.207710 0.053108
0.192598 0.208841 0.053397
0.205068 0.209971 0.053686
0.219683 0.213246 0.056169
0.235932 0.218156 0.060323
0.252181 0.223066 0.064478
0.514880 0.343447 0.000000
0.529244 0.343809 0.000000
0.543608 0.344172 0.000000
0.557971 0.344534 0.000000
0.572335 0.344897 0.000000
0.586685 0.345246 0.000000
0.601001 0.345561 0.000000
0.615317 0.345876 0.000000
0.629634 0.346191 0.000000
0.643950 0.346506 0.000000
0.658266 0.346821 0.000000
0.672582 0.347136 0.000000
0.686898 0.347451 0.000000
0.701215 0.347766 0.000000
0.715531 0.348081 0.000000
0.066302 0.198905 0.067809
0.066655 0.199965 0.068170
0.073727 0.201024 0.068531
0.084236 0.202084 0.068892
0.094745 0.203143 0.069253
0.105253 0.204203 0.069615
0.115762 0.205262 0.069976
0.126271 0.206322 0.070337
0.136780 0.207381 0.070698
0.147289 0.208441 0.071059
0.157798 0.209500 0.071421
0.168307 0.210560 0.071782
0.186363 0.225727 0.057714
0.198832 0.226857 0.058003
0.211301 0.227988 0.058292
0.223771 0.229118 0.058581
0.238237 0.232245 0.060913
0.254487 0.237155 0.065068
0.518594 0.373673 0.000000
0.532957 0.374036 0.000000
0.547273 0.374351 0.000000
0.561590 0.374666 0.000000
0.575906 0.374981 0.000000
0.590222 0.375296 0.000000
0.604538 0.375611 0.000000
0.618854 0.375926 0.000000
0.633171 0.376241 0.000000
0.647487 0.376556 0.000000
0.661803 0.376871 0.000000
0.676119 0.377186 0.000000
0.690435 0.377501 0.000000
0.704752 0.377816 0.000000
0.719068 0.378131 0.000000
0.071932 0.215796 0.073567
0.072285 0.216856 0.073928
0.080798 0.217915 0.074289
0.091307 0.218975 0.074650
0.101816 0.220034 0.075012
0.112325 0.221094 0.075373
0.122834 0.222153 0.075734
0.133342 0.223213 0.076095
0.143851 0.224272 0.076456
0.154360 0.225332 0.076818
0.164869 0.226391 0.077179
0.175378 0.227451 0.077540
0.185887 0.228510 0.077901
0.205065 0.244874 0.062610
0.217535 0.246004 0.062899
0.230004 0.247135 0.063188
0.242473 0.248265 0.063477
0.256792 0.251244 0.065657
0.368951 0.309150 0.094039
0.379261 0.312388 0.097277
0.550810 0.404400 0.000000
0.565127 0.404715 0.000000
0.579443 0.405030 0.000000
0.593759 0.405345 0.000000
0.608075 0.405660 0.000000
0.622391 0.405975 0.000000
0.636708 0.406290 0.000000
0.651024 0.406605 0.000000
0.665340 0.406921 0.000000
0.679656 0.407236 0.000000
0.693972 0.407551 0.000000
0.708289 0.407866 0.000000
0.722605 0.408181 0.000000
0.077562 0.232687 0.079325
0.077915 0.233746 0.079686
0.087869 0.234806 0.080047
0.098378 0.235865 0.080409
0.108887 0.236925 0.080770
0.119396 0.237984 0.081131
0.129905 0.239044 0.081492
0.140414 0.240103 0.081853
0.150923 0.241163 0.082215
0.161431 0.242222 0.082576
0.171940 0.243282 0.082937
0.182449 0.244341 0.083298
0.192958 0.245401 0.083659
0.203467 0.246460 0.084021
0.223768 0.264021 0.067505
0.236238 0.265151 0.067794
0.248707 0.266282 0.068083
0.261176 0.267412 0.068372
0.372227 0.325815 0.097314
0.382536 0.329053 0.100552
0.392845 0.332291 0.103790
0.403155 0.335529 0.107029
0.413464 0.338767 0.110267
0.597296 0.435395 0.000000
0.611612 0.435710 0.000000
0.625929 0.436025 0.000000
0.640245 0.436340 0.000000
0.654561 0.436655 0.000000
0.668877 0.436970 0.000000
0.683193 0.437285 0.000000
0.697510 0.437600 0.000000
0.711826 0.437915 0.000000
0.726142 0.438230 0.000000
0.100938 0.302814 0.103232
0.106719 0.303873 0.103593
0.117228 0.304933 0.103954
0.127737 0.305992 0.104315
0.138245 0.307052 0.104677
0.148754 0.308111 0.105038
0.159263 0.309171 0.105399
0.169772 0.310230 0.105760
0.180281 0.311290 0.106121
0.190790 0.312349 0.106483
0.201600 0.313710 0.107770
0.212462 0.315123 0.109215
0.253778 0.359700 0.122955
0.266121 0.361305 0.124560
0.278464 0.362910 0.126166
0.290807 0.364516 0.127771
0.303151 0.366121 0.129376
0.328722 0.391401 0.107307
0.388884 0.398066 0.113972
0.396836 0.398947 0.114853
0.406442 0.401481 0.117388
0.416752 0.404719 0.120626
0.427061 0.407958 0.123864
0.437371 0.411196 0.127102
0.447680 0.414434 0.130340
0.457989 0.417672 0.133578
0.468299 0.420910 0.136816
0.478608 0.424148 0.140054
0.488917 0.427386 0.143292
0.499227 0.430624 0.146530
0.509536 0.433862 0.149768
0.519845 0.437100 0.153006
0.530155 0.440338 0.156244
0.104028 0.312083 0.106392
0.110599 0.313142 0.106753
0.121108 0.314202 0.107114
0.131617 0.315261 0.107475
0.142126 0.316321 0.107837
0.152635 0.317380 0.108198
0.163144 0.318440 0.108559
0.173653 0.319499 0.108920
0.184161 0.320559 0.109281
0.195014 0.321963 0.110698
0.205876 0.323375 0.112143
0.246294 0.369077 0.126209
0.258637 0.370682 0.127814
0.270980 0.372288 0.129419
0.283323 0.373893 0.131025
0.295667 0.375498 0.132630
0.308010 0.377104 0.134235
0.332969 0.402996 0.111554
0.393131 0.409661 0.118219
0.401083 0.410542 0.119100
0.409035 0.411423 0.119981
0.418549 0.413865 0.122423
0.428858 0.417103 0.125661
0.439168 0.420341 0.128899
0.449477 0.423579 0.132137
0.459787 0.426817 0.135375
0.470096 0.430055 0.138613
0.480405 0.433293 0.141851
0.490715 0.436531 0.145089
0.501024 0.439770 0.148327
0.511333 0.443008 0.151566
0.521643 0.446246 0.154804
0.531952 0.449484 0.158042
0.107117 0.321352 0.109552
0.114480 0.322412 0.109913
0.124989 0.323471 0.110274
0.135498 0.324531 0.110635
0.146007 0.325590 0.110997
0.156515 0.326650 0.111358
0.167024 0.327709 0.111719
0.177566 0.328802 0.112182
0.188428 0.330215 0.113627
0.226466 0.376849 0.127857
0.238810 0.378455 0.129463
0.251153 0.380060 0.131068
0.263496 0.381665 0.132673
0.275839 0.383270 0.134278
0.288182 0.384876 0.135884
0.300526 0.386481 0.137489
0.312869 0.388086 0.139094
0.325212 0.389692 0.140700
0.397378 0.421256 0.122465
0.405330 0.422137 0.123346
0.413282 0.423018 0.124227
0.421234 0.423899 0.125108
0.430656 0.426249 0.127458
0.440965 0.429487 0.130696
0.451274 0.432725 0.133934
0.461584 0.435963 0.137172
0.471893 0.439201 0.140411
0.482203 0.442439 0.143649
0.492512 0.445677 0.146887
0.502821 0.448915 0.150125
0.513131 0.452153 0.153363
0.523440 0.455391 0.156601
0.533749 0.458629 0.159839
0.110207 0.330622 0.112712
0.118361 0.331681 0.113073
0.128869 0.332741 0.113434
0.139378 0.333800 0.113796
0.149887 0.334860 0.114157
0.160396 0.335919 0.114518
0.170980 0.337054 0.115110
0.206639 0.384621 0.129506
0.218982 0.386227 0.131111
0.231325 0.387832 0.132716
0.243669 0.389437 0.134322
0.256012 0.391043 0.135927
0.268355 0.392648 0.137532
0.280698 0.394253 0.139138
0.293041 0.395858 0.140743
0.305385 0.397464 0.142348
0.317728 0.399069 0.143954
0.330071 0.400674 0.145559
0.401624 0.432851 0.126712
0.409577 0.433732 0.127593
0.417529 0.434613 0.128474
0.425481 0.435494 0.129355
0.433433 0.436375 0.130236
0.442762 0.438632 0.132494
0.453072 0.441870 0.135732
0.463381 0.445108 0.138970
0.473690 0.448347 0.142208
0.484000 0.451585 0.145446
0.494309 0.454823 0.148684
0.504619 0.458061 0.151922
0.514928 0.461299 0.155160
0.525237 0.464537 0.158398
0.535547 0.467775 0.161636
0.113297 0.339891 0.115872
0.122241 0.340950 0.116233
0.132750 0.342010 0.116594
0.143259 0.343069 0.116956
0.153768 0.344129 0.117317
0.186812 0.392393 0.131154
0.199155 0.393999 0.132759
0.211498 0.395604 0.134365
0.223841 0.397209 0.135970
0.236184 0.398815 0.137575
0.248528 0.400420 0.139181
0.260871 0.402025 0.140786
0.273214 0.403631 0.142391
0.285557 0.405236 0.143997
0.297901 0.406841 0.145602
0.310244 0.408446 0.147207
0.322587 0.410052 0.148813
0.334930 0.411657 0.150418
0.405871 0.444446 0.130959
0.413823 0.445327 0.131840
0.421776 0.446208 0.132721
0.429728 0.447089 0.133602
0.437680 0.447970 0.134483
0.445632 0.448851 0.135364
0.454869 0.451016 0.137529
0.465178 0.454254 0.140767
0.475488 0.457492 0.144005
0.485797 0.460730 0.147243
0.496106 0.463968 0.150481
0.506416 0.467206 0.153719
0.516725 0.470444 0.156957
0.527035 0.473682 0.160195
0.537344 0.476921 0.163434
0.116387 0.349160 0.119032
0.126122 0.350220 0.119393
0.136631 0.351279 0.119754
0.167204 0.400385 0.133462
0.179327 0.401771 0.134408
0.191671 0.403376 0.136013
0.204014 0.404981 0.137618
0.216357 0.406587 0.139224
0.228700 0.408192 0.140829
0.241044 0.409797 0.142434
0.253387 0.411403 0.144040
0.265730 0.413008 0.145645
0.278073 0.414613 0.147250
0.290416 0.416219 0.148856
0.302760 0.417824 0.150461
0.315103 0.419429 0.152066
0.327446 0.421034 0.153672
0.339789 0.422640 0.155277
0.410118 0.456041 0.135206
0.418070 0.456922 0.136087
0.426022 0.457803 0.136968
0.433975 0.458684 0.137848
0.441927 0.459565 0.138729
0.449879 0.460446 0.139610
0.457831 0.461327 0.140491
0.466976 0.463400 0.142564
0.477285 0.466638 0.145802
0.487594 0.469876 0.149040
0.497904 0.473114 0.152279
0.508213 0.476352 0.155517
0.518522 0.479590 0.158755
0.528832 0.482828 0.161993
0.539141 0.486066 0.165231
0.119493 0.358430 0.122192
0.130002 0.359489 0.122553
0.159672 0.409714 0.136571
0.171843 0.411148 0.137662
0.184187 0.412753 0.139267
0.196530 0.414359 0.140872
0.208873 0.415964 0.142478
0.221216 0.417569 0.144083
0.233559 0.419175 0.145688
0.245903 0.420780 0.147294
0.258246 0.422385 0.148899
0.270589 0.423991 0.150504
0.282932 0.425596 0.152109
0.295275 0.427201 0.153715
0.307619 0.428806 0.155320
0.319962 0.430412 0.156925
0.332305 0.432017 0.158531
0.344648 0.433622 0.160136
0.414364 0.467636 0.139452
0.422317 0.468517 0.140333
0.430269 0.469398 0.141214
0.438221 0.470279 0.142095
0.446174 0.471160 0.142976
0.454126 0.472041 0.143857
0.462078 0.472922 0.144738
0.470030 0.473803 0.145619
0.479082 0.475783 0.147600
0.489392 0.479021 0.150838
0.499701 0.482259 0.154076
0.510010 0.485498 0.157314
0.520320 0.488736 0.160552
0.530629 0.491974 0.163790
0.540938 0.495212 0.167028
0.140198 0.417840 0.139280
0.152140 0.419044 0.139681
0.164359 0.420525 0.140915
0.176702 0.422131 0.142521
0.189046 0.423736 0.144126
0.201389 0.425341 0.145731
0.213732 0.426947 0.147337
0.226075 0.428552 0.148942
0.238418 0.430157 0.150547
0.250762 0.431763 0.152153
0.263105 0.433368 0.153758
0.275448 0.434973 0.155363
0.287791 0.436579 0.156969
0.300135 0.438184 0.158574
0.312478 0.439789 0.160179
0.324821 0.441394 0.161784
0.337164 0.443000 0.163390
0.349507 0.444605 0.164995
0.418611 0.479231 0.143699
0.426563 0.480112 0.144580
0.434516 0.480993 0.145461
0.442468 0.481874 0.146342
0.450420 0.482755 0.147223
0.458373 0.483636 0.148104
0.466325 0.484517 0.148985
0.474277 0.485398 0.149866
0.482229 0.486279 0.150747
0.491189 0.488167 0.152635
0.501498 0.491405 0.155873
0.511808 0.494643 0.159111
0.522117 0.497881 0.162349
0.532426 0.501119 0.165587
0.542736 0.504357 0.168825
0.144608 0.428373 0.142791
0.156875 0.429903 0.144169
0.169218 0.431508 0.145774
0.181561 0.433113 0.147380
0.193905 0.434719 0.148985
0.206248 0.436324 0.150590
0.218591 0.437929 0.152196
0.230934 0.439535 0.153801
0.243278 0.441140 0.155406
0.255621 0.442745 0.157012
0.267964 0.444351 0.158617
0.280307 0.445956 0.160222
0.292650 0.447561 0.161828
0.304994 0.449167 0.163433
0.317337 0.450772 0.165038
0.329680 0.452377 0.166644
0.342023 0.453982 0.168249
0.354367 0.455588 0.169854
0.422858 0.490826 0.147946
0.430810 0.491707 0.148827
0.438762 0.492588 0.149708
0.446715 0.493469 0.150589
