clientes/genesneakers/tênis/05-filtros/gene-carbon.cube
# GENE · Carbon v1.0 · LUT 3D
# Gene Sneakers — sistema de filtros
# Compatible: CapCut, Premiere, DaVinci, Photoshop, Final Cut
#
TITLE "GENE Carbon v1.0"
LUT_3D_SIZE 9
DOMAIN_MIN 0.0 0.0 0.0
DOMAIN_MAX 1.0 1.0 1.0
0.000000 0.000000 0.000000
0.010830 0.000000 0.000000
0.092075 0.000000 0.000000
0.173321 0.000000 0.000000
0.254566 0.000000 0.000000
0.381499 0.000000 0.000000
0.426085 0.000000 0.000000
0.470671 0.000000 0.000000
0.515257 0.000000 0.000000
0.004369 0.013106 0.004468
0.018040 0.018500 0.004730
0.117486 0.028592 0.000000
0.184849 0.034427 0.000000
0.266094 0.040078 0.000000
0.393027 0.048906 0.000000
0.437613 0.052007 0.000000
0.482199 0.055108 0.000000
0.526785 0.058209 0.000000
0.026890 0.080669 0.027501
0.045245 0.084908 0.028946
0.092851 0.095089 0.024312
0.222692 0.137315 0.000000
0.314824 0.139641 0.000000
0.458765 0.143275 0.000000
0.509326 0.144551 0.000000
0.559886 0.145827 0.000000
0.693689 0.167163 0.000000
0.049411 0.148233 0.050534
0.073531 0.152471 0.051979
0.115566 0.156709 0.053423
0.167662 0.171677 0.043895
0.231321 0.189978 0.059144
0.536180 0.283719 0.000000
0.593635 0.285169 0.000000
0.651090 0.286619 0.000000
0.708457 0.287982 0.000000
0.071932 0.215796 0.073567
0.101816 0.220034 0.075012
0.143851 0.224272 0.076456
0.185887 0.228510 0.077901
0.242473 0.248265 0.063477
0.550810 0.404400 0.000000
0.608075 0.405660 0.000000
0.665340 0.406921 0.000000
0.722605 0.408181 0.000000
0.107117 0.321352 0.109552
0.146007 0.325590 0.110997
0.188428 0.330215 0.113627
0.263496 0.381665 0.132673
0.312869 0.388086 0.139094
0.413282 0.423018 0.124227
0.451274 0.432725 0.133934
0.492512 0.445677 0.146887
0.533749 0.458629 0.159839
0.119493 0.358430 0.122192
0.184187 0.412753 0.139267
0.233559 0.419175 0.145688
0.282932 0.425596 0.152109
0.332305 0.432017 0.158531
0.430269 0.469398 0.141214
0.462078 0.472922 0.144738
0.499701 0.482259 0.154076
0.540938 0.495212 0.167028
0.154250 0.450263 0.152282
0.203623 0.456684 0.158703
0.252996 0.463105 0.165125
0.302369 0.469527 0.171546
0.351741 0.475948 0.177967
0.447256 0.515778 0.158201
0.479065 0.519302 0.161725
0.510874 0.522826 0.165249
0.548128 0.531794 0.174217
0.173686 0.494193 0.171718
0.223059 0.500615 0.178140
0.272432 0.507036 0.184561
0.321805 0.513457 0.190982
0.371178 0.519879 0.197403
0.448314 0.529911 0.207435
0.496052 0.565682 0.178712
0.527861 0.569206 0.182236
0.559670 0.572730 0.185760
0.001198 0.001198 0.006941
0.013117 0.000000 0.014655
0.094363 0.000000 0.020435
0.175608 0.000000 0.026214
0.256854 0.000000 0.031993
0.383786 0.000000 0.041022
0.428372 0.000000 0.044193
0.472958 0.000000 0.047365
0.517544 0.000000 0.050536
0.005052 0.014933 0.015500
0.022841 0.023336 0.024159
0.105891 0.031064 0.032225
0.187137 0.036715 0.038004
0.268382 0.042365 0.043783
0.395315 0.051194 0.052812
0.439900 0.054295 0.055983
0.484486 0.057396 0.059155
0.529072 0.060497 0.062326
0.027462 0.082385 0.044314
0.056005 0.095667 0.057897
0.103289 0.105526 0.059992
0.222657 0.137280 0.045495
0.314484 0.139301 0.047561
0.406843 0.141278 0.064602
0.451429 0.144379 0.067773
0.496015 0.147480 0.070945
0.540601 0.150581 0.074116
0.049983 0.149949 0.073242
0.087172 0.166112 0.089773
0.130923 0.172066 0.095862
0.181536 0.185550 0.093630
0.326934 0.245076 0.060295
0.534544 0.282083 0.070581
0.591809 0.283343 0.071841
0.649074 0.284603 0.073102
0.706339 0.285863 0.074362
0.072504 0.217512 0.102170
0.118339 0.236557 0.121649
0.162090 0.242511 0.127738
0.205538 0.248162 0.133517
0.259783 0.265574 0.127267
0.548692 0.402282 0.084729
0.605957 0.403542 0.085990
0.663222 0.404802 0.087250
0.720487 0.406063 0.088510
0.107689 0.323068 0.147365
0.189810 0.393882 0.190499
0.239527 0.400648 0.197264
0.288900 0.407069 0.203685
0.338273 0.413490 0.210107
0.434125 0.443861 0.199800
0.472117 0.453568 0.209508
0.513355 0.466520 0.222460
0.554592 0.479472 0.235412
0.138397 0.409916 0.182038
0.209246 0.437813 0.209935
0.258963 0.444578 0.216700
0.308336 0.451000 0.223122
0.357709 0.457421 0.229543
0.451112 0.490241 0.216787
0.482921 0.493765 0.220311
0.520544 0.503103 0.229649
0.561782 0.516055 0.242601
0.157834 0.453846 0.201474
0.228682 0.481744 0.229371
0.278400 0.488509 0.236137
0.327772 0.494930 0.242558
0.377145 0.501352 0.248979
0.468099 0.536621 0.233774
0.499908 0.540145 0.237298
0.531717 0.543669 0.240822
0.568971 0.552637 0.249790
0.177270 0.497777 0.220910
0.248119 0.525674 0.248807
0.297836 0.532440 0.255573
0.347209 0.538861 0.261994
0.396582 0.545282 0.268416
0.473718 0.555315 0.278448
0.516895 0.586525 0.254285
0.548704 0.590049 0.257809
0.580513 0.593573 0.261333
0.012591 0.012591 0.072969
0.023291 0.013371 0.077489
0.096651 0.000000 0.104869
0.177896 0.000000 0.110648
0.259142 0.000000 0.116428
0.386074 0.000000 0.125457
0.430660 0.000000 0.128628
0.475246 0.000000 0.131799
0.519832 0.000000 0.134971
0.014182 0.028382 0.082189
0.036023 0.036518 0.090510
0.108179 0.033352 0.116659
0.189424 0.039002 0.122439
0.270670 0.044653 0.128218
0.397602 0.053481 0.137247
0.442188 0.056582 0.140418
0.486774 0.059683 0.143590
0.531360 0.062784 0.146761
0.028573 0.084641 0.087669
0.058832 0.098494 0.101837
0.110943 0.113345 0.117343
0.200952 0.129087 0.134229
0.282198 0.134738 0.140008
0.409130 0.143566 0.149037
0.453716 0.146667 0.152208
0.498302 0.149768 0.155380
0.616918 0.173715 0.176168
0.050555 0.151664 0.116044
0.089460 0.168400 0.133160
0.151806 0.192949 0.158268
0.199877 0.203892 0.161646
0.325070 0.243212 0.155917
0.532426 0.279965 0.176829
0.589691 0.281225 0.178089
0.579353 0.272559 0.185744
0.630019 0.276083 0.189268
0.073076 0.219228 0.144972
0.120627 0.238845 0.165036
0.182974 0.263394 0.190143
0.227894 0.270517 0.197428
0.316050 0.322631 0.216981
0.546574 0.400164 0.190977
0.603839 0.401424 0.192237
0.661104 0.402684 0.193497
0.718369 0.403945 0.194757
0.108261 0.324784 0.190168
0.192409 0.396482 0.238707
0.263258 0.424379 0.266604
0.314304 0.432473 0.274698
0.363677 0.438894 0.281119
0.454968 0.464704 0.275374
0.492961 0.474411 0.285081
0.534198 0.487363 0.298033
0.740473 0.591735 0.216861
0.140997 0.412515 0.230246
0.211846 0.440412 0.258143
0.282694 0.468310 0.286040
0.333740 0.476404 0.294134
0.383113 0.482825 0.300555
0.471955 0.511084 0.292360
0.503764 0.514608 0.295884
0.541387 0.523946 0.305222
0.582625 0.536898 0.318174
0.160433 0.456446 0.249682
0.231282 0.484343 0.277579
0.302131 0.512240 0.305476
0.353176 0.520334 0.313570
0.402549 0.526756 0.319992
0.479686 0.536788 0.330024
0.520751 0.560988 0.312871
0.552560 0.564512 0.316395
0.589814 0.573480 0.325363
0.179870 0.500377 0.269118
0.250718 0.528274 0.297016
0.321567 0.556171 0.324913
0.372613 0.564265 0.333007
0.421986 0.570686 0.339428
0.499122 0.580718 0.349460
0.526217 0.584242 0.352984
0.569547 0.610892 0.333382
0.601356 0.614416 0.336906
0.023984 0.023984 0.138997
0.036158 0.024764 0.143517
0.098938 0.000000 0.189304
0.180184 0.000000 0.195083
0.261429 0.000000 0.200862
0.388362 0.000000 0.209891
0.432948 0.000000 0.213063
0.477534 0.000000 0.216234
0.522120 0.000000 0.219406
0.025575 0.041248 0.148217
0.049205 0.049700 0.156861
0.110467 0.035639 0.201094
0.191712 0.041290 0.206873
0.272958 0.046941 0.212653
0.399890 0.055769 0.221682
0.444476 0.058870 0.224853
0.489062 0.061971 0.228024
0.533648 0.065072 0.231196
0.027166 0.100854 0.157437
0.059811 0.110896 0.167708
0.124125 0.126527 0.183694
0.203240 0.131375 0.218664
0.284486 0.137025 0.224443
0.411418 0.145854 0.233472
0.456004 0.148955 0.236643
0.568852 0.172790 0.266461
0.619518 0.176314 0.269985
0.052095 0.154349 0.159837
0.092716 0.171656 0.177538
0.155063 0.196205 0.202645
0.199045 0.203353 0.210526
0.296014 0.227110 0.236233
0.480621 0.268111 0.272513
0.531287 0.271635 0.276037
0.581952 0.275159 0.279561
0.632618 0.278683 0.283085
0.073648 0.220943 0.187775
0.122915 0.241133 0.208423
0.185261 0.265682 0.233530
0.281373 0.329809 0.287375
0.336893 0.343474 0.292554
0.544456 0.398046 0.297224
0.601721 0.399306 0.298485
0.658986 0.400566 0.299745
0.645718 0.381052 0.296185
0.109261 0.326642 0.233116
0.195009 0.399081 0.286915
0.265858 0.426979 0.314812
0.336706 0.454876 0.342709
0.389080 0.464298 0.352131
0.475811 0.485547 0.350947
0.513804 0.495254 0.360654
0.680037 0.587848 0.322901
0.714310 0.582798 0.347154
0.143597 0.415115 0.278454
0.214445 0.443012 0.306351
0.285294 0.470909 0.334248
0.356143 0.498806 0.362145
0.408517 0.508229 0.371568
0.492798 0.531927 0.367934
0.524607 0.535451 0.371457
0.562230 0.544789 0.380795
0.603468 0.557741 0.393747
0.163033 0.459046 0.297890
0.233882 0.486943 0.325787
0.304730 0.514840 0.353684
0.375579 0.542737 0.381581
0.427953 0.552159 0.391004
0.505090 0.562192 0.401036
0.541594 0.581831 0.388444
0.573403 0.585355 0.391968
0.610657 0.594323 0.400937
0.182469 0.502977 0.317327
0.253318 0.530874 0.345224
0.324167 0.558771 0.373121
0.395015 0.586668 0.401018
0.447389 0.596090 0.410440
0.524526 0.606122 0.420472
0.551621 0.609646 0.423996
0.590390 0.631735 0.408955
0.622199 0.635259 0.412479
0.035377 0.035377 0.205025
0.049024 0.036157 0.209545
0.101226 0.000000 0.273739
0.182472 0.000000 0.279518
0.263717 0.000000 0.285297
0.390650 0.000000 0.294326
0.435235 0.000000 0.297498
0.479821 0.000000 0.300669
0.524407 0.000000 0.303841
0.036968 0.054115 0.214245
0.062387 0.062882 0.223212
0.116375 0.068186 0.228637
0.194000 0.043578 0.291308
0.275245 0.049229 0.297087
0.402178 0.058057 0.306116
0.446764 0.061158 0.309288
0.491350 0.064259 0.312459
0.535936 0.067360 0.315631
0.038559 0.113720 0.223465
0.072993 0.124078 0.234058
0.137307 0.139709 0.250044
0.205528 0.133662 0.303098
0.286773 0.139313 0.308878
0.413706 0.148141 0.317906
0.458292 0.151242 0.321078
0.571452 0.175390 0.360277
0.622118 0.178914 0.363801
0.072735 0.176132 0.223163
0.083599 0.185274 0.244905
0.147913 0.200905 0.260891
0.212227 0.216536 0.276877
0.298302 0.229397 0.320668
0.483220 0.270711 0.366330
0.533886 0.274235 0.369853
0.584552 0.277759 0.373377
0.635218 0.281283 0.376901
0.075617 0.224056 0.232006
0.126599 0.244818 0.253239
0.188946 0.269367 0.278346
0.285560 0.333996 0.337171
0.326303 0.333366 0.337456
0.496321 0.373080 0.379430
0.546986 0.376603 0.382954
0.597652 0.380127 0.386477
0.648318 0.383651 0.390001
0.111549 0.328930 0.276503
0.197609 0.401681 0.335123
0.268457 0.429578 0.363020
0.339306 0.457475 0.390917
0.410155 0.485372 0.418814
0.496654 0.506390 0.426520
0.534647 0.516097 0.436227
0.659911 0.581269 0.447157
0.711548 0.586743 0.454045
0.146196 0.417715 0.326662
0.217045 0.445612 0.354559
0.287894 0.473509 0.382456
0.358742 0.501406 0.410353
0.429591 0.529303 0.438250
0.511057 0.543665 0.452612
0.545450 0.556294 0.447031
0.583073 0.565632 0.456368
0.718921 0.643181 0.462201
0.165633 0.461645 0.346098
0.236481 0.489543 0.373995
0.307330 0.517440 0.401892
0.378179 0.545337 0.429789
0.449027 0.573234 0.457687
0.530494 0.587595 0.472048
0.557589 0.591119 0.475572
0.594246 0.606198 0.467541
0.631500 0.615166 0.476510
0.185069 0.505576 0.365535
0.255918 0.533473 0.393432
0.326766 0.561370 0.421329
0.397615 0.589267 0.449226
0.468464 0.617164 0.477123
0.549930 0.631526 0.491485
0.577025 0.635050 0.495008
0.611233 0.652578 0.484528
0.643042 0.656102 0.488052
0.053177 0.053177 0.308183
0.069126 0.053956 0.312702
0.122228 0.054736 0.317222
0.186046 0.000000 0.411433
0.267291 0.000000 0.417212
0.394224 0.000000 0.426241
0.438810 0.000000 0.429413
0.483396 0.000000 0.432584
0.527982 0.000000 0.435756
0.054768 0.074216 0.317403
0.082982 0.083477 0.326874
0.136970 0.088781 0.332299
0.197574 0.047152 0.423223
0.278819 0.052803 0.429003
0.405752 0.061631 0.438031
0.450338 0.064732 0.441203
0.494924 0.067833 0.444374
0.539510 0.070934 0.447546
0.056358 0.133822 0.326623
0.093588 0.144673 0.337721
0.157902 0.160303 0.353707
0.212298 0.166017 0.359550
0.290348 0.142887 0.440793
0.417280 0.151715 0.449822
0.524848 0.175928 0.503326
0.575514 0.179452 0.506850
0.626179 0.182976 0.510373
0.057949 0.193427 0.335843
0.104194 0.205869 0.348567
0.168508 0.221500 0.364553
0.232822 0.237130 0.380539
0.326848 0.276423 0.429778
0.487282 0.274773 0.512902
0.537948 0.278296 0.516426
0.588614 0.281820 0.519950
0.639280 0.285344 0.523474
0.107863 0.258089 0.330942
0.114800 0.267065 0.359414
0.179114 0.282696 0.375400
0.276622 0.339007 0.434874
0.349706 0.356770 0.452636
0.500382 0.377141 0.526002
0.551048 0.380665 0.529526
0.601714 0.384189 0.533050
0.652380 0.387713 0.536574
0.133170 0.380194 0.384891
0.204019 0.408091 0.412788
0.274867 0.435988 0.440685
0.345716 0.463885 0.468582
0.416565 0.491782 0.496479
0.481526 0.493484 0.500407
0.571515 0.540599 0.549993
0.622181 0.544123 0.553517
0.672846 0.547646 0.557040
0.150258 0.421776 0.401979
0.221107 0.449673 0.429876
0.291955 0.477570 0.457773
0.362804 0.505468 0.485670
0.433653 0.533365 0.513567
0.544342 0.576949 0.557152
0.577842 0.586878 0.567081
0.675967 0.647749 0.609315
0.727207 0.654417 0.616599
0.169694 0.465707 0.421415
0.240543 0.493604 0.449312
0.311392 0.521501 0.477209
0.382240 0.549398 0.505106
0.453089 0.577295 0.533004
0.563778 0.620880 0.576588
0.597278 0.630809 0.586517
0.626810 0.638762 0.585611
0.664063 0.647730 0.594580
0.189131 0.509638 0.440852
0.259979 0.537535 0.468749
0.330828 0.565432 0.496646
0.401677 0.593329 0.524543
0.472525 0.621226 0.552440
0.583214 0.664810 0.596024
0.616714 0.674739 0.605953
0.643809 0.678263 0.609477
0.675606 0.688666 0.606122
0.059429 0.059429 0.344418
0.076187 0.060209 0.348937
0.129288 0.060989 0.353456
0.187301 0.000000 0.457769
0.268547 0.000000 0.463549
0.395479 0.000000 0.472578
0.440065 0.000000 0.475749
0.484651 0.000000 0.478920
0.529237 0.000000 0.482092
0.061020 0.081277 0.353638
0.090216 0.090711 0.363286
0.144204 0.096015 0.368711
0.198829 0.048408 0.469560
0.280075 0.054058 0.475339
0.407007 0.062887 0.484368
0.451593 0.065988 0.487539
0.496179 0.069089 0.490711
0.540765 0.072190 0.493882
0.062611 0.140882 0.362858
0.100822 0.151907 0.374133
0.165136 0.167538 0.390119
0.219532 0.173251 0.395962
0.291603 0.144143 0.487129
0.475608 0.173831 0.551286
0.526274 0.177354 0.554810
0.576940 0.180878 0.558334
0.627606 0.184402 0.561858
0.064202 0.200488 0.372078
0.111428 0.213103 0.384980
0.175742 0.228734 0.400966
0.240056 0.244364 0.416951
0.335069 0.284644 0.470236
0.488709 0.276199 0.564387
0.539374 0.279723 0.567910
0.590040 0.283247 0.571434
0.640706 0.286771 0.574958
0.065792 0.260093 0.381297
0.122034 0.274299 0.395826
0.211759 0.329466 0.457569
0.284843 0.347228 0.475332
0.357926 0.364990 0.493094
0.501809 0.378568 0.577487
0.552475 0.382092 0.581011
0.603140 0.385616 0.584534
0.653806 0.389139 0.588058
0.147111 0.394135 0.423861
0.217960 0.422032 0.451758
0.288809 0.449929 0.479655
0.359657 0.477826 0.507552
0.430506 0.505724 0.535450
0.486120 0.498635 0.544491
0.572941 0.542025 0.601477
0.623607 0.545549 0.605001
0.674273 0.549073 0.608525
0.154300 0.425819 0.431050
0.225149 0.453716 0.458947
0.295998 0.481613 0.486845
0.366846 0.509510 0.514742
0.437695 0.537407 0.542639
0.548384 0.580991 0.586223
0.535688 0.549822 0.558005
0.630796 0.601727 0.612190
0.681462 0.605251 0.615714
0.171121 0.467134 0.447871
0.241970 0.495031 0.475768
0.312818 0.522928 0.503665
0.383667 0.550825 0.531562
0.454516 0.578722 0.559459
0.565205 0.622306 0.603044
0.604085 0.637616 0.618353
0.638314 0.648274 0.629011
0.738890 0.713509 0.677589
0.190557 0.511064 0.467307
0.261406 0.538961 0.495204
0.332255 0.566859 0.523101
0.403103 0.594756 0.550998
0.473952 0.622653 0.578895
0.584641 0.666237 0.622480
0.623521 0.681546 0.637789
0.657750 0.692204 0.648447
0.687044 0.700104 0.647595
0.065681 0.065681 0.380653
0.083247 0.066461 0.385172
0.136349 0.067241 0.389691
0.188557 0.000000 0.504106
0.269802 0.000000 0.509885
0.396735 0.000000 0.518914
0.441321 0.000000 0.522085
0.485907 0.000000 0.525257
0.530492 0.000000 0.528428
0.067272 0.088338 0.389873
0.097450 0.097945 0.399698
0.151438 0.103249 0.405123
0.205320 0.108448 0.410440
0.281330 0.055314 0.521675
0.408263 0.064142 0.530704
0.452849 0.067243 0.533875
0.497435 0.070344 0.537047
0.615933 0.083460 0.600243
0.068863 0.147943 0.399093
0.108056 0.159141 0.410545
0.172370 0.174772 0.426531
0.226766 0.180485 0.432374
0.292858 0.145398 0.533465
0.477035 0.175257 0.602771
0.527701 0.178781 0.606295
0.578367 0.182305 0.609819
0.629033 0.185829 0.613343
0.070454 0.207548 0.408312
0.118662 0.220337 0.421392
0.182976 0.235968 0.437378
0.281011 0.285907 0.503737
0.343289 0.292864 0.510694
0.490135 0.277626 0.615871
0.540801 0.281150 0.619395
0.591467 0.284674 0.622919
0.642133 0.288197 0.626443
0.072045 0.267154 0.417532
0.129268 0.281533 0.432239
0.219979 0.337686 0.498027
0.293063 0.355448 0.515789
0.366147 0.373211 0.533552
0.503235 0.379994 0.628971
0.553901 0.383518 0.632495
0.604567 0.387042 0.636019
0.655233 0.390566 0.639543
0.161052 0.408076 0.462831
0.231901 0.435974 0.490729
0.302750 0.463871 0.518626
0.373598 0.491768 0.546523
0.381757 0.482363 0.555600
0.490642 0.503289 0.588647
0.531676 0.507457 0.593244
0.625034 0.546976 0.656486
0.675700 0.550500 0.660010
0.168242 0.439760 0.470021
0.239090 0.467657 0.497918
0.309939 0.495554 0.525815
0.380788 0.523451 0.553712
0.451636 0.551348 0.581609
0.497105 0.548093 0.595412
0.540074 0.554383 0.602297
0.632223 0.603154 0.663675
0.682889 0.606678 0.667199
0.175431 0.471443 0.477210
0.246279 0.499341 0.505107
0.317128 0.527238 0.533004
0.387977 0.555135 0.560901
0.458825 0.583032 0.588798
0.569514 0.626616 0.632382
0.608395 0.641926 0.647692
0.590046 0.606109 0.615408
0.690078 0.662856 0.674388
0.191984 0.512491 0.493763
0.262833 0.540388 0.521660
0.333681 0.568285 0.549557
0.404530 0.596182 0.577454
0.475379 0.624079 0.605351
0.586068 0.667664 0.648936
0.624948 0.682973 0.664245
0.663828 0.698282 0.679554
0.698786 0.709669 0.690941
0.071934 0.071934 0.416888
0.090308 0.072713 0.421407
0.143410 0.073493 0.425926
0.189812 0.000000 0.550442
0.271058 0.000000 0.556221
0.397990 0.000000 0.565250
0.442576 0.000000 0.568421
0.487162 0.000000 0.571593
0.531748 0.000000 0.574764
0.073524 0.095399 0.426108
0.104684 0.105179 0.436110
0.158672 0.110483 0.441535
0.212554 0.115682 0.446852
0.282586 0.056569 0.568011
0.409518 0.065397 0.577040
0.454104 0.068498 0.580212
0.498690 0.071599 0.583383
0.617359 0.084887 0.651727
0.075115 0.155004 0.435327
0.115290 0.166375 0.446957
0.179604 0.182006 0.462943
0.234000 0.187719 0.468786
0.294114 0.146654 0.579801
0.478462 0.176684 0.654256
0.529128 0.180208 0.657780
0.579793 0.183732 0.661303
0.630459 0.187255 0.664827
0.076706 0.214609 0.444547
0.125896 0.227571 0.457804
0.190210 0.243202 0.473790
0.289231 0.294128 0.544195
0.351510 0.301085 0.551152
0.491562 0.279053 0.667356
0.542228 0.282576 0.670880
0.592894 0.286100 0.674404
0.643559 0.289624 0.677927
0.078297 0.274214 0.453767
0.136502 0.288767 0.468651
0.228200 0.345907 0.538485
0.301284 0.363669 0.556247
0.368014 0.375527 0.580363
0.504662 0.381421 0.680456
0.555328 0.384945 0.683980
0.605994 0.388469 0.687504
0.656660 0.391993 0.691028
0.174994 0.422018 0.501802
0.245842 0.449915 0.529699
0.316691 0.477812 0.557596
0.320113 0.472315 0.575077
0.377759 0.489622 0.608277
0.494658 0.507456 0.633309
0.535928 0.511405 0.637974
0.626461 0.548403 0.707971
0.677126 0.551926 0.711494
0.182183 0.453701 0.508991
0.253031 0.481598 0.536888
0.323880 0.509495 0.564785
0.394729 0.537392 0.592682
0.380989 0.533634 0.618275
0.501031 0.552646 0.640164
0.543885 0.558394 0.647165
0.585877 0.562371 0.651790
0.684315 0.608104 0.718683
0.189372 0.485385 0.516180
0.260220 0.513282 0.544077
0.331069 0.541179 0.571974
0.401918 0.569076 0.599871
0.472766 0.596973 0.627768
0.507395 0.598107 0.647028
0.550287 0.604344 0.653991
0.593652 0.609984 0.660480
0.691505 0.664282 0.725873
0.196561 0.517068 0.523369
0.267410 0.544965 0.551266
0.338258 0.572862 0.579163
0.409107 0.600759 0.607060
0.479956 0.628656 0.634957
0.590645 0.672241 0.678542
0.629525 0.687550 0.693851
0.668405 0.702860 0.709160
0.644154 0.662462 0.673061
