clientes/genesneakers/tênis/05-filtros/gene-daylight.xmp
<x:xmpmeta xmlns:x="adobe:ns:meta/" x:xmptk="Adobe XMP Core 5.6-c140 79.160451, 2017/05/06-01:08:21">
 <rdf:RDF xmlns:rdf="http://www.w3.org/1999/02/22-rdf-syntax-ns#">
  <rdf:Description rdf:about=""
    xmlns:crs="http://ns.adobe.com/camera-raw-settings/1.0/"
   crs:PresetType="Normal"
   crs:Cluster=""
   crs:UUID="GENE-DAYLIGHT-V1-0-2026042100000000"
   crs:SupportsAmount="False"
   crs:SupportsColor="True"
   crs:SupportsMonochrome="True"
   crs:SupportsHighDynamicRange="True"
   crs:SupportsNormalDynamicRange="True"
   crs:SupportsSceneReferred="True"
   crs:SupportsOutputReferred="True"
   crs:CameraModelRestriction=""
   crs:Copyright="Gene Sneakers 2026"
   crs:ContactInfo=""
   crs:Version="15.0"
   crs:ProcessVersion="11.0"
   crs:WhiteBalance="Custom"
   crs:Temperature="+8"
   crs:Tint="+3"
   crs:Exposure2012="+0.15"
   crs:Contrast2012="-10"
   crs:Highlights2012="-25"
   crs:Shadows2012="+15"
   crs:Whites2012="+8"
   crs:Blacks2012="-12"
   crs:Clarity2012="0"
   crs:Dehaze="0"
   crs:Vibrance="-5"
   crs:Saturation="-12"
   crs:ParametricShadows="0"
   crs:ParametricDarks="0"
   crs:ParametricLights="0"
   crs:ParametricHighlights="0"
   crs:ParametricShadowSplit="25"
   crs:ParametricMidtoneSplit="50"
   crs:ParametricHighlightSplit="75"
   crs:ToneCurveName2012="Medium Contrast"
   crs:HueAdjustmentRed="0"
   crs:HueAdjustmentOrange="-5"
   crs:HueAdjustmentYellow="-8"
   crs:HueAdjustmentGreen="+10"
   crs:HueAdjustmentAqua="+15"
   crs:HueAdjustmentBlue="-8"
   crs:HueAdjustmentPurple="0"
   crs:HueAdjustmentMagenta="0"
   crs:SaturationAdjustmentRed="-8"
   crs:SaturationAdjustmentOrange="-15"
   crs:SaturationAdjustmentYellow="-20"
   crs:SaturationAdjustmentGreen="-30"
   crs:SaturationAdjustmentAqua="-25"
   crs:SaturationAdjustmentBlue="-10"
   crs:SaturationAdjustmentPurple="-15"
   crs:SaturationAdjustmentMagenta="-10"
   crs:LuminanceAdjustmentRed="+4"
   crs:LuminanceAdjustmentOrange="+8"
   crs:LuminanceAdjustmentYellow="+5"
   crs:LuminanceAdjustmentGreen="0"
   crs:LuminanceAdjustmentAqua="-5"
   crs:LuminanceAdjustmentBlue="-10"
   crs:LuminanceAdjustmentPurple="0"
   crs:LuminanceAdjustmentMagenta="0"
   crs:SplitToningShadowHue="0"
   crs:SplitToningShadowSaturation="0"
   crs:SplitToningHighlightHue="0"
   crs:SplitToningHighlightSaturation="0"
   crs:SplitToningBalance="0"
   crs:ColorGradeMidtoneHue="30"
   crs:ColorGradeMidtoneSat="8"
   crs:ColorGradeShadowLum="0"
   crs:ColorGradeMidtoneLum="0"
   crs:ColorGradeHighlightLum="0"
   crs:ColorGradeBlending="50"
   crs:ColorGradeGlobalHue="0"
   crs:ColorGradeGlobalSat="0"
   crs:ColorGradeGlobalLum="0"
   crs:AutoLateralCA="0"
   crs:LensProfileEnable="0"
   crs:LensManualDistortionAmount="0"
   crs:PerspectiveUpright="0"
   crs:PerspectiveVertical="0"
   crs:PerspectiveHorizontal="0"
   crs:PerspectiveRotate="0.0"
   crs:PerspectiveScale="100"
   crs:PerspectiveAspect="0"
   crs:PerspectiveX="0.00"
   crs:PerspectiveY="0.00"
   crs:GrainAmount="20"
   crs:GrainSize="25"
   crs:GrainFrequency="50"
   crs:PostCropVignetteAmount="-8"
   crs:PostCropVignetteMidpoint="60"
   crs:PostCropVignetteFeather="70"
   crs:PostCropVignetteRoundness="0"
   crs:PostCropVignetteStyle="1"
   crs:PostCropVignetteHighlightContrast="0"
   crs:ShadowTint="+3"
   crs:RedHue="0"
   crs:RedSaturation="-4"
   crs:GreenHue="0"
   crs:GreenSaturation="0"
   crs:BlueHue="-5"
   crs:BlueSaturation="0"
   crs:OverrideLookVignette="False"
   crs:ToneCurvePV2012="0, 0, 64, 72, 128, 128, 192, 186, 255, 250"
   crs:ToneCurvePV2012Red="0, 5, 255, 250"
   crs:ToneCurvePV2012Green="0, 0, 255, 255"
   crs:ToneCurvePV2012Blue="0, 0, 255, 251"
   crs:CameraProfile="Adobe Color"
   crs:CameraProfileDigest="AC2EF500A5C3730F05FE49A7B4D0A3F8"
   crs:HasSettings="True"
   crs:HasCrop="False"
   crs:AlreadyApplied="False"
   crs:Name="GENE · Daylight v1.0"
   crs:ShortName="GENE Daylight"
   crs:SortName="GENE Daylight"
   crs:Group="Gene Sneakers">
   <crs:Look>
    <rdf:Description
     crs:Name="GENE · Daylight v1.0"
     crs:Amount="1"
     crs:UUID="GENE-DAYLIGHT-V1-0-2026042100000000"
     crs:SupportsAmount="false"
     crs:SupportsMonochrome="false"
     crs:SupportsOutputReferred="false"
     crs:Stubbed="true"/>
   </crs:Look>
  </rdf:Description>
 </rdf:RDF>
</x:xmpmeta>
