clientes/genesneakers/tênis/05-filtros/gene-acid.cube
# GENE · Acid v1.0 · LUT 3D
# Gene Sneakers — sistema de filtros
# Compatible: CapCut, Premiere, DaVinci, Photoshop, Final Cut
#
TITLE "GENE Acid v1.0"
LUT_3D_SIZE 9
DOMAIN_MIN 0.0 0.0 0.0
DOMAIN_MAX 1.0 1.0 1.0
0.000000 0.000000 0.000000
0.075587 0.000000 0.000000
0.251306 0.000000 0.000000
0.427024 0.000000 0.000000
0.602743 0.000000 0.000000
0.778462 0.000000 0.000000
0.954181 0.000000 0.000000
1.000000 0.000000 0.000000
1.000000 0.000000 0.000000
0.000000 0.067910 0.000000
0.067977 0.066857 0.000000
0.237516 0.053648 0.000000
0.413235 0.046517 0.000000
0.588953 0.039386 0.000000
0.764672 0.032254 0.000000
0.940391 0.025123 0.000000
1.000000 0.017992 0.000000
1.000000 0.010861 0.000000
0.000000 0.234228 0.000000
0.048007 0.227096 0.000000
0.246098 0.241962 0.000000
0.399445 0.212834 0.000000
0.575163 0.205703 0.000000
0.750882 0.198572 0.000000
0.926601 0.191441 0.000000
1.000000 0.184309 0.000000
1.000000 0.177178 0.000000
0.000000 0.400545 0.000000
0.034217 0.393414 0.000000
0.230929 0.424911 0.000000
0.424220 0.417067 0.000000
0.561373 0.372020 0.000000
0.737092 0.364889 0.000000
0.912811 0.357758 0.000000
1.000000 0.350627 0.000000
1.000000 0.343496 0.000000
0.000000 0.566862 0.000000
0.020427 0.559731 0.000000
0.196146 0.552600 0.000000
0.409051 0.600016 0.000000
0.602342 0.592171 0.000000
0.723302 0.531206 0.000000
0.899021 0.524075 0.000000
1.000000 0.516944 0.000000
1.000000 0.509813 0.000000
0.000000 0.733179 0.000000
0.006637 0.726048 0.000000
0.182356 0.718917 0.000000
0.393882 0.782965 0.000000
0.587173 0.775120 0.000000
0.780464 0.767276 0.000000
0.973754 0.759432 0.000000
1.000000 0.683261 0.000000
1.000000 0.676130 0.000000
0.000000 0.899497 0.000000
0.000000 0.892366 0.000000
0.168566 0.885234 0.000000
0.344285 0.878103 0.000000
0.572004 0.958069 0.000000
0.765295 0.950225 0.000000
0.958585 0.942381 0.000000
1.000000 0.864621 0.100000
1.000000 0.858203 0.100000
0.000000 1.000000 0.000000
0.000000 1.000000 0.000000
0.154776 1.000000 0.000000
0.330495 1.000000 0.000000
0.555592 1.000000 0.100000
0.713739 1.000000 0.100000
0.871886 1.000000 0.100000
1.000000 1.000000 0.100000
1.000000 1.000000 0.100000
0.000000 1.000000 0.000000
0.000000 1.000000 0.000000
0.140986 1.000000 0.000000
0.316705 1.000000 0.000000
0.492424 1.000000 0.000000
0.701328 1.000000 0.100000
0.859475 1.000000 0.100000
1.000000 1.000000 0.100000
1.000000 1.000000 0.100000
0.000000 0.000000 0.079999
0.072868 0.000000 0.072868
0.248587 0.000000 0.065737
0.424306 0.000000 0.058606
0.600024 0.000000 0.051474
0.775743 0.000000 0.044343
0.951462 0.000000 0.037212
1.000000 0.000000 0.030081
1.000000 0.000000 0.022950
0.000000 0.065191 0.066209
0.059078 0.058060 0.059078
0.234797 0.050929 0.051947
0.410516 0.043798 0.044816
0.586234 0.036667 0.037684
0.761953 0.029536 0.030553
0.937672 0.022404 0.023422
1.000000 0.015273 0.016291
1.000000 0.008142 0.009160
0.000000 0.231509 0.052419
0.031856 0.237809 0.031856
0.273278 0.267900 0.011802
0.396726 0.210115 0.031026
0.572445 0.202984 0.023895
0.748163 0.195853 0.016763
0.923882 0.188722 0.009632
1.000000 0.181591 0.002501
1.000000 0.174459 0.000000
0.000000 0.397826 0.038629
0.004558 0.417635 0.004558
0.228424 0.448724 0.000000
0.440189 0.432361 0.000000
0.558655 0.369301 0.010105
0.734373 0.362170 0.002973
0.910092 0.355039 0.000000
1.000000 0.347908 0.000000
1.000000 0.340777 0.000000
0.000000 0.564143 0.024839
0.000000 0.574720 0.000000
0.190022 0.560458 0.000000
0.407410 0.600815 0.000000
0.599351 0.589180 0.000000
0.720583 0.528487 0.000000
0.896302 0.521356 0.000000
1.000000 0.514225 0.000000
1.000000 0.507094 0.000000
0.000000 0.730461 0.011049
0.000000 0.727247 0.000000
0.179637 0.716198 0.000000
0.390891 0.779974 0.000000
0.584182 0.772130 0.000000
0.777473 0.764285 0.000000
0.970764 0.756441 0.000000
1.000000 0.680542 0.000000
1.000000 0.673411 0.000000
0.000000 0.896778 0.000000
0.000000 0.889647 0.000000
0.165847 0.882516 0.000000
0.341566 0.875384 0.000000
0.569013 0.955079 0.000000
0.762304 0.947234 0.000000
0.955595 0.939390 0.000000
1.000000 0.862174 0.100000
1.000000 0.855756 0.100000
0.000000 1.000000 0.000000
0.000000 1.000000 0.000000
0.152057 1.000000 0.000000
0.327776 1.000000 0.000000
0.553145 1.000000 0.100000
0.711292 1.000000 0.100000
0.869439 1.000000 0.100000
1.000000 1.000000 0.100000
1.000000 1.000000 0.100000
0.000000 1.000000 0.000000
0.000000 1.000000 0.000000
0.138267 1.000000 0.000000
0.313986 1.000000 0.000000
0.489705 1.000000 0.000000
0.698881 1.000000 0.100000
0.857028 1.000000 0.100000
1.000000 1.000000 0.100000
1.000000 1.000000 0.100000
0.000000 0.000000 0.260130
0.070149 0.000000 0.252999
0.245868 0.000000 0.245868
0.421587 0.000000 0.238737
0.597306 0.000000 0.231606
0.773024 0.000000 0.224474
0.948743 0.000000 0.217343
1.000000 0.000000 0.210212
1.000000 0.000000 0.203081
0.000000 0.062472 0.246340
0.056359 0.055341 0.239209
0.232078 0.048210 0.232078
0.407797 0.041079 0.224947
0.583516 0.033948 0.217816
0.759234 0.026817 0.210684
0.934953 0.019686 0.203553
1.000000 0.012554 0.196422
1.000000 0.005423 0.189291
0.000000 0.228790 0.232550
0.042569 0.221659 0.225419
0.218288 0.214527 0.218288
0.394007 0.207396 0.211157
0.569726 0.200265 0.204026
0.745444 0.193134 0.196894
0.921163 0.186003 0.189763
1.000000 0.178872 0.182632
1.000000 0.171741 0.175501
0.000000 0.395107 0.218760
0.028779 0.387976 0.211629
0.191272 0.394071 0.191272
0.448409 0.439109 0.186933
0.555936 0.366582 0.190236
0.731655 0.359451 0.183105
0.907373 0.352320 0.175973
1.000000 0.345189 0.168842
1.000000 0.338058 0.161711
0.000000 0.561424 0.204970
0.000000 0.569282 0.193014
0.163974 0.573896 0.163974
0.404595 0.652849 0.143120
0.656701 0.643479 0.133750
0.717865 0.525769 0.169315
0.893583 0.518637 0.162183
1.000000 0.511506 0.155052
1.000000 0.504375 0.147921
0.000000 0.727742 0.191180
0.000000 0.721810 0.183460
0.136676 0.753721 0.136676
0.339822 0.746590 0.129545
0.613340 0.857671 0.090389
0.864993 0.847849 0.080566
0.879793 0.684955 0.148393
1.000000 0.677824 0.141262
1.000000 0.670692 0.134131
0.000000 0.894059 0.177390
0.000000 0.886928 0.170259
0.109378 0.933547 0.109378
0.312524 0.926416 0.102247
0.566510 0.975810 0.140030
0.772621 0.969314 0.130838
0.978145 0.960912 0.122523
1.000000 0.864281 0.240220
1.000000 0.857768 0.232375
0.000000 1.000000 0.163600
0.000000 1.000000 0.156469
0.149338 1.000000 0.149338
0.325057 1.000000 0.142207
0.500776 1.000000 0.135076
0.718338 1.000000 0.240739
0.871054 1.000000 0.232895
1.000000 1.000000 0.225051
1.000000 1.000000 0.217206
0.000000 1.000000 0.149811
0.000000 1.000000 0.142679
0.135548 1.000000 0.135548
0.311267 1.000000 0.128417
0.486986 1.000000 0.121286
0.705127 1.000000 0.225570
0.858454 1.000000 0.217726
1.000000 1.000000 0.209882
1.000000 1.000000 0.202037
0.000000 0.000000 0.440261
0.067430 0.000000 0.433130
0.243149 0.000000 0.425999
0.418868 0.000000 0.418868
0.594587 0.000000 0.411737
0.770305 0.000000 0.404605
0.946024 0.000000 0.397474
1.000000 0.000000 0.390343
1.000000 0.000000 0.383212
0.000000 0.059754 0.426471
0.053640 0.052622 0.419340
0.229359 0.045491 0.412209
0.405078 0.038360 0.405078
0.580797 0.031229 0.397947
0.756516 0.024098 0.390816
0.932234 0.016967 0.383684
1.000000 0.009835 0.376553
1.000000 0.002704 0.369422
0.000000 0.226071 0.412681
0.039850 0.218940 0.405550
0.215569 0.211809 0.398419
0.391288 0.204677 0.391288
0.567007 0.197546 0.384157
0.742726 0.190415 0.377026
0.918444 0.183284 0.369894
1.000000 0.176153 0.362763
1.000000 0.169022 0.355632
0.000000 0.392388 0.398891
0.026060 0.385257 0.391760
0.201779 0.378126 0.384629
0.377498 0.370995 0.377498
0.553217 0.363864 0.370367
0.728936 0.356732 0.363236
0.904654 0.349601 0.356104
1.000000 0.342470 0.348973
1.000000 0.335339 0.341842
0.000000 0.558705 0.385101
0.012270 0.551574 0.377970
0.187989 0.544443 0.370839
0.350688 0.550332 0.350688
0.623540 0.610318 0.362064
0.715146 0.523050 0.349446
0.890865 0.515919 0.342315
1.000000 0.508787 0.335183
1.000000 0.501656 0.328052
0.000000 0.725023 0.371311
0.000000 0.717892 0.364180
0.133957 0.751003 0.344235
0.323390 0.730158 0.323390
0.578556 0.776648 0.366566
0.782464 0.768557 0.358249
0.877075 0.682236 0.328525
1.000000 0.675105 0.321393
1.000000 0.667974 0.314262
0.000000 0.891340 0.357522
0.000000 0.884209 0.350390
0.106659 0.930828 0.316937
0.296092 0.909983 0.296092
0.499238 0.902852 0.288961
0.757693 0.944955 0.350350
0.953368 0.936962 0.342453
1.000000 0.871370 0.438364
1.000000 0.865097 0.430520
0.000000 1.000000 0.343732
0.000000 1.000000 0.336600
0.146619 1.000000 0.329469
0.322338 1.000000 0.322338
0.498057 1.000000 0.315207
0.735448 1.000000 0.438883
0.877504 1.000000 0.431039
1.000000 1.000000 0.423195
1.000000 1.000000 0.415351
0.000000 1.000000 0.329942
0.000000 1.000000 0.322810
0.132829 1.000000 0.315679
0.308548 1.000000 0.308548
0.484267 1.000000 0.301417
0.722345 1.000000 0.423714
0.865371 1.000000 0.415870
1.000000 1.000000 0.408026
1.000000 1.000000 0.400182
0.000000 0.000000 0.620392
0.064711 0.000000 0.613261
0.240430 0.000000 0.606130
0.416149 0.000000 0.598999
0.591868 0.000000 0.591868
0.767587 0.000000 0.584737
0.943305 0.000000 0.577605
1.000000 0.000000 0.570474
1.000000 0.000000 0.563343
0.000000 0.057035 0.606602
0.050921 0.049903 0.599471
0.226640 0.042772 0.592340
0.402359 0.035641 0.585209
0.578078 0.028510 0.578078
0.753797 0.021379 0.570947
0.929515 0.014248 0.563815
1.000000 0.007117 0.556684
1.000000 0.000000 0.549553
0.000000 0.223352 0.592812
0.037131 0.216221 0.585681
0.212850 0.209090 0.578550
0.388569 0.201958 0.571419
0.564288 0.194827 0.564288
0.740007 0.187696 0.557157
0.915726 0.180565 0.550026
1.000000 0.173434 0.542894
1.000000 0.166303 0.535763
0.000000 0.389669 0.579022
0.023341 0.382538 0.571891
0.199060 0.375407 0.564760
0.374779 0.368276 0.557629
0.550498 0.361145 0.550498
0.726217 0.354013 0.543367
0.901936 0.346882 0.536236
1.000000 0.339751 0.529104
1.000000 0.332620 0.521973
0.000000 0.555987 0.565233
0.009551 0.548855 0.558101
0.185270 0.541724 0.550970
0.360989 0.534593 0.543839
0.536708 0.527462 0.536708
0.712427 0.520331 0.529577
0.888146 0.513200 0.522446
1.000000 0.506068 0.515314
1.000000 0.498937 0.508183
0.000000 0.722304 0.551443
0.000000 0.715173 0.544311
0.171480 0.708042 0.537180
0.347199 0.700910 0.530049
0.510103 0.706594 0.510103
0.768412 0.755236 0.567454
0.874356 0.679517 0.508656
1.000000 0.672386 0.501525
1.000000 0.665255 0.494393
0.000000 0.888621 0.537653
0.000000 0.881490 0.530521
0.157690 0.874359 0.523390
0.293373 0.907264 0.503650
0.482805 0.886419 0.482805
0.752793 0.925438 0.565020
0.933206 0.918083 0.557768
1.000000 0.838703 0.487735
1.000000 0.831572 0.480603
0.000000 1.000000 0.523863
0.000000 1.000000 0.516732
0.143900 1.000000 0.509600
0.319619 1.000000 0.502469
0.495338 1.000000 0.495338
0.671057 1.000000 0.488207
0.890508 1.000000 0.629183
1.000000 1.000000 0.621339
1.000000 0.998470 0.613495
0.000000 1.000000 0.510073
0.000000 1.000000 0.502942
0.130110 1.000000 0.495810
0.305829 1.000000 0.488679
0.481548 1.000000 0.481548
0.657267 1.000000 0.474417
0.878988 1.000000 0.614014
1.000000 1.000000 0.606170
1.000000 1.000000 0.598326
0.000000 0.000000 0.800523
0.061992 0.000000 0.793392
0.237711 0.000000 0.786261
0.413430 0.000000 0.779130
0.589149 0.000000 0.771999
0.764868 0.000000 0.764868
0.940587 0.000000 0.757737
1.000000 0.000000 0.750605
1.000000 0.000000 0.743474
0.000000 0.054316 0.786733
0.048202 0.047185 0.779602
0.223921 0.040053 0.772471
0.399640 0.032922 0.765340
0.575359 0.025791 0.758209
0.751078 0.018660 0.751078
0.926797 0.011529 0.743947
1.000000 0.004398 0.736815
1.000000 0.000000 0.729684
0.000000 0.220633 0.772944
0.034412 0.213502 0.765812
0.210131 0.206371 0.758681
0.385850 0.199240 0.751550
0.561569 0.192108 0.744419
0.737288 0.184977 0.737288
0.913007 0.177846 0.730157
1.000000 0.170715 0.723025
1.000000 0.163584 0.715894
0.000000 0.386950 0.759154
0.020622 0.379819 0.752022
0.196341 0.372688 0.744891
0.372060 0.365557 0.737760
0.547779 0.358426 0.730629
0.723498 0.351295 0.723498
0.899217 0.344163 0.716367
1.000000 0.337032 0.709236
1.000000 0.329901 0.702104
0.000000 0.553268 0.745364
0.006832 0.546136 0.738232
0.182551 0.539005 0.731101
0.358270 0.531874 0.723970
0.533989 0.524743 0.716839
0.709708 0.517612 0.709708
0.885427 0.510481 0.702577
1.000000 0.503350 0.695446
1.000000 0.496218 0.688314
0.000000 0.719585 0.731574
0.000000 0.712454 0.724443
0.168761 0.705323 0.717311
0.344480 0.698191 0.710180
0.520199 0.691060 0.703049
0.695918 0.683929 0.695918
0.871637 0.676798 0.688787
1.000000 0.669667 0.681656
1.000000 0.662536 0.674524
0.000000 0.885902 0.717784
0.000000 0.878771 0.710653
0.154971 0.871640 0.703521
0.330690 0.864509 0.696390
0.506409 0.857378 0.689259
0.669519 0.862855 0.669519
0.922918 0.910051 0.763210
1.000000 0.835984 0.667866
1.000000 0.828853 0.660735
0.000000 1.000000 0.703994
0.000000 1.000000 0.696863
0.141181 1.000000 0.689731
0.316900 1.000000 0.682600
0.492619 1.000000 0.675469
0.668338 1.000000 0.668338
0.920521 1.000000 0.827328
1.000000 1.000000 0.819483
1.000000 0.997423 0.811639
0.000000 1.000000 0.690204
0.000000 1.000000 0.683073
0.127392 1.000000 0.675942
0.303110 1.000000 0.668810
0.478829 1.000000 0.661679
0.654548 1.000000 0.654548
0.909573 1.000000 0.812159
1.000000 1.000000 0.804314
1.000000 1.000000 0.796470
0.000000 0.000000 0.980655
0.059273 0.000000 0.973523
0.234992 0.000000 0.966392
0.410711 0.000000 0.959261
0.586430 0.000000 0.952130
0.762149 0.000000 0.944999
0.937868 0.000000 0.937868
1.000000 0.000000 0.930736
1.000000 0.000000 0.923605
0.000000 0.051597 0.966865
0.045483 0.044466 0.959733
0.221202 0.037335 0.952602
0.396921 0.030203 0.945471
0.572640 0.023072 0.938340
0.748359 0.015941 0.931209
0.924078 0.008810 0.924078
1.000000 0.001679 0.916947
1.000000 0.000000 0.909815
0.000000 0.217914 0.953075
0.031693 0.210783 0.945943
0.207412 0.203652 0.938812
0.383131 0.196521 0.931681
0.558850 0.189390 0.924550
0.734569 0.182258 0.917419
0.910288 0.175127 0.910288
1.000000 0.167996 0.903157
1.000000 0.160865 0.896025
0.000000 0.384231 0.939285
0.017904 0.377100 0.932154
0.193622 0.369969 0.925022
0.369341 0.362838 0.917891
0.545060 0.355707 0.910760
0.720779 0.348576 0.903629
0.896498 0.341445 0.896498
1.000000 0.334313 0.889367
1.000000 0.327182 0.882235
0.000000 0.550549 0.925495
0.004114 0.543418 0.918364
0.179832 0.536286 0.911232
0.355551 0.529155 0.904101
0.531270 0.522024 0.896970
0.706989 0.514893 0.889839
0.882708 0.507762 0.882708
1.000000 0.500631 0.875577
1.000000 0.493500 0.868446
0.000000 0.716866 0.911705
0.000000 0.709735 0.904574
0.166042 0.702604 0.897442
0.341761 0.695473 0.890311
0.517480 0.688341 0.883180
0.693199 0.681210 0.876049
0.868918 0.674079 0.868918
1.000000 0.666948 0.861787
1.000000 0.659817 0.854656
0.000000 0.883183 0.897915
0.000000 0.876052 0.890784
0.152253 0.868921 0.883653
0.327971 0.861790 0.876521
0.503690 0.854659 0.869390
0.679409 0.847528 0.862259
0.855128 0.840396 0.855128
1.000000 0.833265 0.847997
1.000000 0.826134 0.840866
0.000000 1.000000 0.884125
0.000000 1.000000 0.876994
0.138463 1.000000 0.869863
0.314181 1.000000 0.862731
0.489900 1.000000 0.855600
0.665619 1.000000 0.848469
0.841338 1.000000 0.841338
1.000000 1.000000 1.000000
1.000000 1.000000 1.000000
0.000000 1.000000 0.870335
0.000000 1.000000 0.863204
0.124673 1.000000 0.856073
0.300391 1.000000 0.848941
0.476110 1.000000 0.841810
0.651829 1.000000 0.834679
0.827548 1.000000 0.827548
1.000000 1.000000 1.000000
1.000000 1.000000 0.994614
0.000000 0.000000 1.000000
0.056554 0.000000 1.000000
0.232273 0.000000 1.000000
0.407992 0.000000 1.000000
0.583711 0.000000 1.000000
0.759430 0.000000 1.000000
0.935149 0.000000 1.000000
1.000000 0.000000 1.000000
1.000000 0.000000 1.000000
0.000000 0.048878 1.000000
0.042765 0.041747 1.000000
0.218483 0.034616 1.000000
0.394202 0.027484 1.000000
0.569921 0.020353 1.000000
0.745640 0.013222 1.000000
0.921359 0.006091 1.000000
1.000000 0.000000 1.000000
1.000000 0.000000 1.000000
0.000000 0.215195 1.000000
0.028975 0.208064 1.000000
0.204693 0.200933 1.000000
0.380412 0.193802 1.000000
0.556131 0.186671 1.000000
0.731850 0.179539 1.000000
0.907569 0.172408 1.000000
1.000000 0.165277 1.000000
1.000000 0.158146 1.000000
0.000000 0.381513 1.000000
0.015185 0.374381 1.000000
0.190903 0.367250 1.000000
0.366622 0.360119 1.000000
0.542341 0.352988 1.000000
0.718060 0.345857 1.000000
0.893779 0.338726 1.000000
1.000000 0.331594 1.000000
1.000000 0.324463 1.000000
0.000000 0.547830 1.000000
0.001395 0.540699 1.000000
0.177114 0.533568 1.000000
0.352832 0.526436 1.000000
0.528551 0.519305 1.000000
0.704270 0.512174 1.000000
0.879989 0.505043 1.000000
1.000000 0.497912 1.000000
1.000000 0.490781 1.000000
0.000000 0.714147 1.000000
0.000000 0.707016 1.000000
0.163324 0.699885 1.000000
0.339042 0.692754 1.000000
0.514761 0.685623 1.000000
0.690480 0.678491 1.000000
0.866199 0.671360 1.000000
1.000000 0.664229 1.000000
1.000000 0.657098 1.000000
0.000000 0.880464 1.000000
0.000000 0.873333 1.000000
0.149534 0.866202 1.000000
0.325252 0.859071 1.000000
0.500971 0.851940 1.000000
0.676690 0.844809 1.000000
0.852409 0.837678 1.000000
1.000000 0.830546 1.000000
1.000000 0.823415 1.000000
0.000000 1.000000 1.000000
0.000000 1.000000 1.000000
0.135744 1.000000 1.000000
0.311463 1.000000 1.000000
0.487181 1.000000 1.000000
0.662900 1.000000 1.000000
0.838619 1.000000 1.000000
1.000000 0.996864 1.000000
1.000000 0.989733 1.000000
0.000000 1.000000 1.000000
0.000000 1.000000 1.000000
0.121954 1.000000 1.000000
0.297673 1.000000 1.000000
0.473391 1.000000 1.000000
0.649110 1.000000 1.000000
0.824829 1.000000 1.000000
1.000000 1.000000 1.000000
1.000000 1.000000 1.000000
0.000000 0.000000 1.000000
0.053836 0.000000 1.000000
0.229554 0.000000 1.000000
0.405273 0.000000 1.000000
0.580992 0.000000 1.000000
0.756711 0.000000 1.000000
0.932430 0.000000 1.000000
1.000000 0.000000 1.000000
1.000000 0.000000 1.000000
0.000000 0.046159 1.000000
0.040046 0.039028 1.000000
0.215764 0.031897 1.000000
0.391483 0.024766 1.000000
0.567202 0.017634 1.000000
0.742921 0.010503 1.000000
0.918640 0.003372 1.000000
1.000000 0.000000 1.000000
1.000000 0.000000 1.000000
0.000000 0.212476 1.000000
0.026256 0.205345 1.000000
0.201975 0.198214 1.000000
0.377693 0.191083 1.000000
0.553412 0.183952 1.000000
0.729131 0.176821 1.000000
0.904850 0.169689 1.000000
1.000000 0.162558 1.000000
1.000000 0.155427 1.000000
0.000000 0.378794 1.000000
0.012466 0.371662 1.000000
0.188185 0.364531 1.000000
0.363903 0.357400 1.000000
0.539622 0.350269 1.000000
0.715341 0.343138 1.000000
0.891060 0.336007 1.000000
1.000000 0.328876 1.000000
1.000000 0.321744 1.000000
0.000000 0.545111 1.000000
0.000000 0.537980 1.000000
0.174395 0.530849 1.000000
0.350113 0.523717 1.000000
0.525832 0.516586 1.000000
0.701551 0.509455 1.000000
0.877270 0.502324 1.000000
1.000000 0.495193 1.000000
1.000000 0.488062 1.000000
0.000000 0.711428 1.000000
0.000000 0.704297 1.000000
0.160605 0.697166 1.000000
0.336324 0.690035 1.000000
0.512042 0.682904 1.000000
0.687761 0.675772 1.000000
0.863480 0.668641 1.000000
1.000000 0.661510 1.000000
1.000000 0.654379 1.000000
0.000000 0.877746 1.000000
0.000000 0.870614 1.000000
0.146815 0.863483 1.000000
0.322534 0.856352 1.000000
0.498252 0.849221 1.000000
0.673971 0.842090 1.000000
0.849690 0.834959 1.000000
1.000000 0.827827 1.000000
1.000000 0.820696 1.000000
0.000000 1.000000 1.000000
0.000000 1.000000 1.000000
0.133025 1.000000 1.000000
0.308744 1.000000 1.000000
0.484462 1.000000 1.000000
0.660181 1.000000 1.000000
0.835900 1.000000 1.000000
1.000000 0.994145 1.000000
1.000000 0.987014 1.000000
0.000000 1.000000 1.000000
0.000000 1.000000 1.000000
0.119235 1.000000 1.000000
0.294954 1.000000 1.000000
0.470673 1.000000 1.000000
0.646391 1.000000 1.000000
0.822110 1.000000 1.000000
0.997829 1.000000 1.000000
1.000000 1.000000 1.000000
