clientes/genesneakers/tênis/05-filtros/gene-acid.cube
# GENE · Acid v1.0 · LUT 3D
# Gene Sneakers — sistema de filtros
# Compatible: CapCut, Premiere, DaVinci, Photoshop, Final Cut
#
TITLE "GENE Acid v1.0"
LUT_3D_SIZE 33
DOMAIN_MIN 0.0 0.0 0.0
DOMAIN_MAX 1.0 1.0 1.0
0.000000 0.000000 0.000000
0.000000 0.000000 0.000000
0.000000 0.000000 0.000000
0.031657 0.000000 0.000000
0.075587 0.000000 0.000000
0.119516 0.000000 0.000000
0.163446 0.000000 0.000000
0.207376 0.000000 0.000000
0.251306 0.000000 0.000000
0.295235 0.000000 0.000000
0.339165 0.000000 0.000000
0.383095 0.000000 0.000000
0.427024 0.000000 0.000000
0.470954 0.000000 0.000000
0.514884 0.000000 0.000000
0.558814 0.000000 0.000000
0.602743 0.000000 0.000000
0.646673 0.000000 0.000000
0.690603 0.000000 0.000000
0.734532 0.000000 0.000000
0.778462 0.000000 0.000000
0.822392 0.000000 0.000000
0.866322 0.000000 0.000000
0.910251 0.000000 0.000000
0.954181 0.000000 0.000000
0.998111 0.000000 0.000000
1.000000 0.000000 0.000000
1.000000 0.000000 0.000000
1.000000 0.000000 0.000000
1.000000 0.000000 0.000000
1.000000 0.000000 0.000000
1.000000 0.000000 0.000000
1.000000 0.000000 0.000000
0.000000 0.000000 0.000000
0.000000 0.000000 0.000000
0.000000 0.000000 0.000000
0.028210 0.000000 0.000000
0.072139 0.000000 0.000000
0.116069 0.000000 0.000000
0.159999 0.000000 0.000000
0.203928 0.000000 0.000000
0.247858 0.000000 0.000000
0.291788 0.000000 0.000000
0.335718 0.000000 0.000000
0.379647 0.000000 0.000000
0.423577 0.000000 0.000000
0.467507 0.000000 0.000000
0.511436 0.000000 0.000000
0.555366 0.000000 0.000000
0.599296 0.000000 0.000000
0.643226 0.000000 0.000000
0.687155 0.000000 0.000000
0.731085 0.000000 0.000000
0.775015 0.000000 0.000000
0.818944 0.000000 0.000000
0.862874 0.000000 0.000000
0.906804 0.000000 0.000000
0.950734 0.000000 0.000000
0.994663 0.000000 0.000000
1.000000 0.000000 0.000000
1.000000 0.000000 0.000000
1.000000 0.000000 0.000000
1.000000 0.000000 0.000000
1.000000 0.000000 0.000000
1.000000 0.000000 0.000000
1.000000 0.000000 0.000000
0.000000 0.000000 0.000000
0.000000 0.000000 0.000000
0.000000 0.000000 0.000000
0.024762 0.000000 0.000000
0.068692 0.000000 0.000000
0.112622 0.000000 0.000000
0.156551 0.000000 0.000000
0.200481 0.000000 0.000000
0.244411 0.000000 0.000000
0.288340 0.000000 0.000000
0.332270 0.000000 0.000000
0.376200 0.000000 0.000000
0.420129 0.000000 0.000000
0.464059 0.000000 0.000000
0.507989 0.000000 0.000000
0.551919 0.000000 0.000000
0.595848 0.000000 0.000000
0.639778 0.000000 0.000000
0.683708 0.000000 0.000000
0.727637 0.000000 0.000000
0.771567 0.000000 0.000000
0.815497 0.000000 0.000000
0.859427 0.000000 0.000000
0.903356 0.000000 0.000000
0.947286 0.000000 0.000000
0.991216 0.000000 0.000000
1.000000 0.000000 0.000000
1.000000 0.000000 0.000000
1.000000 0.000000 0.000000
1.000000 0.000000 0.000000
1.000000 0.000000 0.000000
1.000000 0.000000 0.000000
1.000000 0.000000 0.000000
0.000000 0.026331 0.000000
0.000000 0.024548 0.000000
0.000000 0.022765 0.000000
0.023446 0.023081 0.000000
0.065244 0.019200 0.000000
0.109174 0.017417 0.000000
0.153104 0.015634 0.000000
0.197033 0.013851 0.000000
0.240963 0.012069 0.000000
0.284893 0.010286 0.000000
0.328823 0.008503 0.000000
0.372752 0.006720 0.000000
0.416682 0.004937 0.000000
0.460612 0.003155 0.000000
0.504541 0.001372 0.000000
0.548471 0.000000 0.000000
0.592401 0.000000 0.000000
0.636331 0.000000 0.000000
0.680260 0.000000 0.000000
0.724190 0.000000 0.000000
0.768120 0.000000 0.000000
0.812049 0.000000 0.000000
0.855979 0.000000 0.000000
0.899909 0.000000 0.000000
0.943839 0.000000 0.000000
0.987768 0.000000 0.000000
1.000000 0.000000 0.000000
1.000000 0.000000 0.000000
1.000000 0.000000 0.000000
1.000000 0.000000 0.000000
1.000000 0.000000 0.000000
1.000000 0.000000 0.000000
1.000000 0.000000 0.000000
0.000000 0.067910 0.000000
0.000000 0.066127 0.000000
0.000000 0.064345 0.000000
0.017867 0.062562 0.000000
0.067977 0.066857 0.000000
0.105727 0.058996 0.000000
0.149656 0.057213 0.000000
0.193586 0.055431 0.000000
0.237516 0.053648 0.000000
0.281445 0.051865 0.000000
0.325375 0.050082 0.000000
0.369305 0.048300 0.000000
0.413235 0.046517 0.000000
0.457164 0.044734 0.000000
0.501094 0.042951 0.000000
0.545024 0.041168 0.000000
0.588953 0.039386 0.000000
0.632883 0.037603 0.000000
0.676813 0.035820 0.000000
0.720743 0.034037 0.000000
0.764672 0.032254 0.000000
0.808602 0.030472 0.000000
0.852532 0.028689 0.000000
0.896461 0.026906 0.000000
0.940391 0.025123 0.000000
0.984321 0.023341 0.000000
1.000000 0.021558 0.000000
1.000000 0.019775 0.000000
1.000000 0.017992 0.000000
1.000000 0.016209 0.000000
1.000000 0.014427 0.000000
1.000000 0.012644 0.000000
1.000000 0.010861 0.000000
0.000000 0.109490 0.000000
0.000000 0.107707 0.000000
0.000000 0.105924 0.000000
0.014420 0.104141 0.000000
0.064184 0.112594 0.000000
0.112507 0.110633 0.000000
0.146209 0.098793 0.000000
0.190138 0.097010 0.000000
0.234068 0.095227 0.000000
0.277998 0.093444 0.000000
0.321928 0.091662 0.000000
0.365857 0.089879 0.000000
0.409787 0.088096 0.000000
0.453717 0.086313 0.000000
0.497646 0.084531 0.000000
0.541576 0.082748 0.000000
0.585506 0.080965 0.000000
0.629436 0.079182 0.000000
0.673365 0.077399 0.000000
0.717295 0.075617 0.000000
0.761225 0.073834 0.000000
0.805154 0.072051 0.000000
0.849084 0.070268 0.000000
0.893014 0.068485 0.000000
0.936944 0.066703 0.000000
0.980873 0.064920 0.000000
1.000000 0.063137 0.000000
1.000000 0.061354 0.000000
1.000000 0.059571 0.000000
1.000000 0.057789 0.000000
1.000000 0.056006 0.000000
1.000000 0.054223 0.000000
1.000000 0.052440 0.000000
0.000000 0.151069 0.000000
0.000000 0.149286 0.000000
0.000000 0.147503 0.000000
0.010972 0.145721 0.000000
0.054902 0.143938 0.000000
0.108715 0.156370 0.000000
0.157037 0.154409 0.000000
0.186691 0.138589 0.000000
0.230621 0.136807 0.000000
0.274550 0.135024 0.000000
0.318480 0.133241 0.000000
0.362410 0.131458 0.000000
0.406340 0.129675 0.000000
0.450269 0.127893 0.000000
0.494199 0.126110 0.000000
0.538129 0.124327 0.000000
0.582058 0.122544 0.000000
0.625988 0.120761 0.000000
0.669918 0.118979 0.000000
0.713848 0.117196 0.000000
0.757777 0.115413 0.000000
0.801707 0.113630 0.000000
0.845637 0.111848 0.000000
0.889566 0.110065 0.000000
0.933496 0.108282 0.000000
0.977426 0.106499 0.000000
1.000000 0.104716 0.000000
1.000000 0.102934 0.000000
1.000000 0.101151 0.000000
1.000000 0.099368 0.000000
1.000000 0.097585 0.000000
1.000000 0.095802 0.000000
1.000000 0.094020 0.000000
0.000000 0.192648 0.000000
0.000000 0.190865 0.000000
0.000000 0.189083 0.000000
0.007525 0.187300 0.000000
0.051454 0.185517 0.000000
0.104922 0.202108 0.000000
0.153245 0.200147 0.000000
0.201568 0.198186 0.000000
0.249891 0.196224 0.000000
0.271103 0.176603 0.000000
0.315033 0.174820 0.000000
0.358962 0.173038 0.000000
0.402892 0.171255 0.000000
0.446822 0.169472 0.000000
0.490751 0.167689 0.000000
0.534681 0.165906 0.000000
0.578611 0.164124 0.000000
0.622541 0.162341 0.000000
0.666470 0.160558 0.000000
0.710400 0.158775 0.000000
0.754330 0.156992 0.000000
0.798259 0.155210 0.000000
0.842189 0.153427 0.000000
0.886119 0.151644 0.000000
0.930049 0.149861 0.000000
0.973978 0.148079 0.000000
1.000000 0.146296 0.000000
1.000000 0.144513 0.000000
1.000000 0.142730 0.000000
1.000000 0.140947 0.000000
1.000000 0.139165 0.000000
1.000000 0.137382 0.000000
1.000000 0.135599 0.000000
0.000000 0.234228 0.000000
0.000000 0.232445 0.000000
0.000000 0.230662 0.000000
0.004077 0.228879 0.000000
0.048007 0.227096 0.000000
0.091937 0.225314 0.000000
0.149453 0.245884 0.000000
0.197776 0.243923 0.000000
0.246098 0.241962 0.000000
0.294421 0.240001 0.000000
0.311585 0.216400 0.000000
0.355515 0.214617 0.000000
0.399445 0.212834 0.000000
0.443374 0.211051 0.000000
0.487304 0.209268 0.000000
0.531234 0.207486 0.000000
0.575163 0.205703 0.000000
0.619093 0.203920 0.000000
0.663023 0.202137 0.000000
0.706953 0.200355 0.000000
0.750882 0.198572 0.000000
0.794812 0.196789 0.000000
0.838742 0.195006 0.000000
0.882671 0.193223 0.000000
0.926601 0.191441 0.000000
0.970531 0.189658 0.000000
1.000000 0.187875 0.000000
1.000000 0.186092 0.000000
1.000000 0.184309 0.000000
1.000000 0.182527 0.000000
1.000000 0.180744 0.000000
1.000000 0.178961 0.000000
1.000000 0.177178 0.000000
0.000000 0.275807 0.000000
0.000000 0.274024 0.000000
0.000000 0.272241 0.000000
0.000630 0.270458 0.000000
0.044559 0.268676 0.000000
0.088489 0.266893 0.000000
0.132419 0.265110 0.000000
0.193983 0.289660 0.000000
0.242306 0.287699 0.000000
0.290629 0.285738 0.000000
0.338951 0.283777 0.000000
0.352067 0.256196 0.000000
0.395997 0.254413 0.000000
0.439927 0.252631 0.000000
0.483857 0.250848 0.000000
0.527786 0.249065 0.000000
0.571716 0.247282 0.000000
0.615646 0.245499 0.000000
0.659575 0.243717 0.000000
0.703505 0.241934 0.000000
0.747435 0.240151 0.000000
0.791364 0.238368 0.000000
0.835294 0.236586 0.000000
0.879224 0.234803 0.000000
0.923154 0.233020 0.000000
0.967083 0.231237 0.000000
1.000000 0.229454 0.000000
1.000000 0.227672 0.000000
1.000000 0.225889 0.000000
1.000000 0.224106 0.000000
1.000000 0.222323 0.000000
1.000000 0.220540 0.000000
1.000000 0.218758 0.000000
0.000000 0.317386 0.000000
0.000000 0.315603 0.000000
0.000000 0.313821 0.000000
0.000000 0.312038 0.000000
0.041112 0.310255 0.000000
0.085042 0.308472 0.000000
0.128971 0.306689 0.000000
0.190191 0.335397 0.000000
0.238514 0.333436 0.000000
0.286837 0.331475 0.000000
0.335159 0.329514 0.000000
0.383482 0.327553 0.000000
0.431805 0.325592 0.000000
0.436479 0.294210 0.000000
0.480409 0.292427 0.000000
0.524339 0.290644 0.000000
0.568268 0.288862 0.000000
0.612198 0.287079 0.000000
0.656128 0.285296 0.000000
0.700058 0.283513 0.000000
0.743987 0.281730 0.000000
0.787917 0.279948 0.000000
0.831847 0.278165 0.000000
0.875776 0.276382 0.000000
0.919706 0.274599 0.000000
0.963636 0.272816 0.000000
1.000000 0.271034 0.000000
1.000000 0.269251 0.000000
1.000000 0.267468 0.000000
1.000000 0.265685 0.000000
1.000000 0.263903 0.000000
1.000000 0.262120 0.000000
1.000000 0.260337 0.000000
0.000000 0.358965 0.000000
0.000000 0.357183 0.000000
0.000000 0.355400 0.000000
0.000000 0.353617 0.000000
0.037664 0.351834 0.000000
0.081594 0.350052 0.000000
0.125524 0.348269 0.000000
0.169454 0.346486 0.000000
0.234722 0.379174 0.000000
0.283044 0.377212 0.000000
0.331367 0.375251 0.000000
0.379690 0.373290 0.000000
0.428012 0.371329 0.000000
0.476335 0.369368 0.000000
0.476962 0.334006 0.000000
0.520891 0.332224 0.000000
0.564821 0.330441 0.000000
0.608751 0.328658 0.000000
0.652680 0.326875 0.000000
0.696610 0.325093 0.000000
0.740540 0.323310 0.000000
0.784470 0.321527 0.000000
0.828399 0.319744 0.000000
0.872329 0.317961 0.000000
0.916259 0.316179 0.000000
0.960188 0.314396 0.000000
1.000000 0.312613 0.000000
1.000000 0.310830 0.000000
1.000000 0.309047 0.000000
1.000000 0.307265 0.000000
1.000000 0.305482 0.000000
1.000000 0.303699 0.000000
1.000000 0.301916 0.000000
0.000000 0.400545 0.000000
0.000000 0.398762 0.000000
0.000000 0.396979 0.000000
0.000000 0.395196 0.000000
0.034217 0.393414 0.000000
0.078147 0.391631 0.000000
0.122076 0.389848 0.000000
0.166006 0.388065 0.000000
0.230929 0.424911 0.000000
0.279252 0.422950 0.000000
0.327575 0.420989 0.000000
0.375897 0.419028 0.000000
0.424220 0.417067 0.000000
0.472543 0.415105 0.000000
0.520865 0.413144 0.000000
0.517444 0.373803 0.000000
0.561373 0.372020 0.000000
0.605303 0.370237 0.000000
0.649233 0.368455 0.000000
0.693163 0.366672 0.000000
0.737092 0.364889 0.000000
0.781022 0.363106 0.000000
0.824952 0.361323 0.000000
0.868881 0.359541 0.000000
0.912811 0.357758 0.000000
0.956741 0.355975 0.000000
1.000000 0.354192 0.000000
1.000000 0.352410 0.000000
1.000000 0.350627 0.000000
1.000000 0.348844 0.000000
1.000000 0.347061 0.000000
1.000000 0.345278 0.000000
1.000000 0.343496 0.000000
0.000000 0.442124 0.000000
0.000000 0.440341 0.000000
0.000000 0.438559 0.000000
0.000000 0.436776 0.000000
0.030769 0.434993 0.000000
0.074699 0.433210 0.000000
0.118629 0.431427 0.000000
0.162559 0.429645 0.000000
0.206488 0.427862 0.000000
0.275460 0.468687 0.000000
0.323782 0.466726 0.000000
0.372105 0.464765 0.000000
0.420428 0.462804 0.000000
0.468751 0.460843 0.000000
0.517073 0.458882 0.000000
0.565396 0.456921 0.000000
0.557926 0.413600 0.000000
0.601856 0.411817 0.000000
0.645785 0.410034 0.000000
0.689715 0.408251 0.000000
0.733645 0.406468 0.000000
0.777575 0.404686 0.000000
0.821504 0.402903 0.000000
0.865434 0.401120 0.000000
0.909364 0.399337 0.000000
0.953293 0.397554 0.000000
0.997223 0.395772 0.000000
1.000000 0.393989 0.000000
1.000000 0.392206 0.000000
1.000000 0.390423 0.000000
1.000000 0.388641 0.000000
1.000000 0.386858 0.000000
1.000000 0.385075 0.000000
0.000000 0.483703 0.000000
0.000000 0.481921 0.000000
0.000000 0.480138 0.000000
0.000000 0.478355 0.000000
0.027322 0.476572 0.000000
0.071252 0.474790 0.000000
0.115181 0.473007 0.000000
0.159111 0.471224 0.000000
0.203041 0.469441 0.000000
0.271668 0.514424 0.000000
0.319990 0.512463 0.000000
0.368313 0.510502 0.000000
0.416636 0.508541 0.000000
0.464958 0.506580 0.000000
0.513281 0.504619 0.000000
0.561604 0.502658 0.000000
0.609926 0.500697 0.000000
0.658249 0.498736 0.000000
0.642338 0.451613 0.000000
0.686268 0.449831 0.000000
0.730197 0.448048 0.000000
0.774127 0.446265 0.000000
0.818057 0.444482 0.000000
0.861986 0.442699 0.000000
0.905916 0.440917 0.000000
0.949846 0.439134 0.000000
0.993776 0.437351 0.000000
1.000000 0.435568 0.000000
1.000000 0.433785 0.000000
1.000000 0.432003 0.000000
1.000000 0.430220 0.000000
1.000000 0.428437 0.000000
1.000000 0.426654 0.000000
0.000000 0.525283 0.000000
0.000000 0.523500 0.000000
0.000000 0.521717 0.000000
0.000000 0.519934 0.000000
0.023874 0.518152 0.000000
0.067804 0.516369 0.000000
0.111734 0.514586 0.000000
0.155664 0.512803 0.000000
0.199593 0.511020 0.000000
0.243523 0.509238 0.000000
0.316198 0.558200 0.000000
0.364521 0.556239 0.000000
0.412843 0.554278 0.000000
0.461166 0.552317 0.000000
0.509489 0.550356 0.000000
0.557811 0.548395 0.000000
0.606134 0.546434 0.000000
0.654457 0.544473 0.000000
0.702779 0.542512 0.000000
0.682820 0.491410 0.000000
0.726750 0.489627 0.000000
0.770680 0.487844 0.000000
0.814609 0.486061 0.000000
0.858539 0.484279 0.000000
0.902469 0.482496 0.000000
0.946398 0.480713 0.000000
0.990328 0.478930 0.000000
1.000000 0.477148 0.000000
1.000000 0.475365 0.000000
1.000000 0.473582 0.000000
1.000000 0.471799 0.000000
1.000000 0.470016 0.000000
1.000000 0.468234 0.000000
0.000000 0.566862 0.000000
0.000000 0.565079 0.000000
0.000000 0.563297 0.000000
0.000000 0.561514 0.000000
0.020427 0.559731 0.000000
0.064357 0.557948 0.000000
0.108286 0.556165 0.000000
0.152216 0.554383 0.000000
0.196146 0.552600 0.000000
0.240076 0.550817 0.000000
0.312406 0.603938 0.000000
0.360728 0.601977 0.000000
0.409051 0.600016 0.000000
0.457374 0.598054 0.000000
0.505697 0.596093 0.000000
0.554019 0.594132 0.000000
0.602342 0.592171 0.000000
0.650665 0.590210 0.000000
0.698987 0.588249 0.000000
0.747310 0.586288 0.000000
0.723302 0.531206 0.000000
0.767232 0.529424 0.000000
0.811162 0.527641 0.000000
0.855092 0.525858 0.000000
0.899021 0.524075 0.000000
0.942951 0.522292 0.000000
0.986881 0.520510 0.000000
1.000000 0.518727 0.000000
1.000000 0.516944 0.000000
1.000000 0.515161 0.000000
1.000000 0.513378 0.000000
1.000000 0.511596 0.000000
1.000000 0.509813 0.000000
0.000000 0.608441 0.000000
0.000000 0.606659 0.000000
0.000000 0.604876 0.000000
0.000000 0.603093 0.000000
0.016979 0.601310 0.000000
0.060909 0.599528 0.000000
0.104839 0.597745 0.000000
0.148769 0.595962 0.000000
0.192698 0.594179 0.000000
0.236628 0.592396 0.000000
0.280558 0.590614 0.000000
0.356936 0.647714 0.000000
0.405259 0.645753 0.000000
0.453582 0.643792 0.000000
0.501904 0.641831 0.000000
0.550227 0.639870 0.000000
0.598550 0.637909 0.000000
0.646872 0.635947 0.000000
0.695195 0.633986 0.000000
0.743518 0.632025 0.000000
0.791840 0.630064 0.000000
0.763785 0.571003 0.000000
0.807714 0.569220 0.000000
0.851644 0.567437 0.000000
0.895574 0.565655 0.000000
0.939503 0.563872 0.000000
0.983433 0.562089 0.000000
1.000000 0.560306 0.000000
1.000000 0.558523 0.000000
1.000000 0.556741 0.000000
1.000000 0.554958 0.000000
1.000000 0.553175 0.000000
1.000000 0.551392 0.000000
0.000000 0.650021 0.000000
0.000000 0.648238 0.000000
0.000000 0.646455 0.000000
0.000000 0.644672 0.000000
0.013532 0.642890 0.000000
0.057462 0.641107 0.000000
0.101391 0.639324 0.000000
0.145321 0.637541 0.000000
0.189251 0.635758 0.000000
0.233181 0.633976 0.000000
0.277110 0.632193 0.000000
0.353144 0.693451 0.000000
0.401467 0.691490 0.000000
0.449789 0.689529 0.000000
0.498112 0.687568 0.000000
0.546435 0.685607 0.000000
0.594757 0.683646 0.000000
0.643080 0.681685 0.000000
0.691403 0.679724 0.000000
0.739725 0.677763 0.000000
0.788048 0.675802 0.000000
0.836371 0.673840 0.000000
0.884694 0.671879 0.000000
0.848197 0.609017 0.000000
0.892126 0.607234 0.000000
0.936056 0.605451 0.000000
0.979986 0.603668 0.000000
1.000000 0.601886 0.000000
1.000000 0.600103 0.000000
1.000000 0.598320 0.000000
1.000000 0.596537 0.000000
1.000000 0.594754 0.000000
1.000000 0.592972 0.000000
0.000000 0.691600 0.000000
0.000000 0.689817 0.000000
0.000000 0.688035 0.000000
0.000000 0.686252 0.000000
0.010085 0.684469 0.000000
0.054014 0.682686 0.000000
0.097944 0.680903 0.000000
0.141874 0.679121 0.000000
0.185803 0.677338 0.000000
0.229733 0.675555 0.000000
0.273663 0.673772 0.000000
0.317592 0.671989 0.000000
0.397674 0.737227 0.000000
0.445997 0.735266 0.000000
0.494320 0.733305 0.000000
0.542642 0.731344 0.000000
0.590965 0.729383 0.000000
0.639288 0.727422 0.000000
0.687611 0.725461 0.000000
0.735933 0.723500 0.000000
0.784256 0.721539 0.000000
0.832579 0.719578 0.000000
0.880901 0.717617 0.000000
0.929224 0.715656 0.000000
0.888679 0.648813 0.000000
0.932608 0.647030 0.000000
0.976538 0.645248 0.000000
1.000000 0.643465 0.000000
1.000000 0.641682 0.000000
1.000000 0.639899 0.000000
1.000000 0.638116 0.000000
1.000000 0.636334 0.000000
1.000000 0.634551 0.000000
0.000000 0.733179 0.000000
0.000000 0.731397 0.000000
0.000000 0.729614 0.000000
0.000000 0.727831 0.000000
0.006637 0.726048 0.000000
0.050567 0.724265 0.000000
0.094496 0.722483 0.000000
0.138426 0.720700 0.000000
0.182356 0.718917 0.000000
0.226286 0.717134 0.000000
0.270215 0.715352 0.000000
0.314145 0.713569 0.000000
0.393882 0.782965 0.000000
0.442205 0.781004 0.000000
0.490528 0.779042 0.000000
0.538850 0.777081 0.000000
0.587173 0.775120 0.000000
0.635496 0.773159 0.000000
0.683818 0.771198 0.000000
0.732141 0.769237 0.000000
0.780464 0.767276 0.000000
0.828786 0.765315 0.000000
0.877109 0.763354 0.000000
0.925432 0.761393 0.000000
0.973754 0.759432 0.000000
0.929161 0.688610 0.000000
0.973091 0.686827 0.000000
1.000000 0.685044 0.000000
1.000000 0.683261 0.000000
1.000000 0.681479 0.000000
1.000000 0.679696 0.000000
1.000000 0.677913 0.000000
1.000000 0.676130 0.000000
0.000000 0.774759 0.000000
0.000000 0.772976 0.000000
0.000000 0.771193 0.000000
0.000000 0.769410 0.000000
0.003190 0.767628 0.000000
0.047119 0.765845 0.000000
0.091049 0.764062 0.000000
0.134979 0.762279 0.000000
0.178908 0.760496 0.000000
0.222838 0.758714 0.000000
0.266768 0.756931 0.000000
0.310698 0.755148 0.000000
0.354627 0.753365 0.000000
0.438413 0.826741 0.000000
0.486735 0.824780 0.000000
0.535058 0.822819 0.000000
0.583381 0.820858 0.000000
0.631703 0.818896 0.000000
0.680026 0.816935 0.000000
0.728349 0.814974 0.000000
0.776671 0.813013 0.000000
0.824994 0.811052 0.000000
0.873317 0.809091 0.000000
0.921639 0.807130 0.000000
0.969962 0.805169 0.000000
1.000000 0.792647 0.018285
1.000000 0.767782 0.066608
1.000000 0.726623 0.000000
1.000000 0.724841 0.000000
1.000000 0.723058 0.000000
1.000000 0.721275 0.000000
1.000000 0.719492 0.000000
1.000000 0.717710 0.000000
0.000000 0.816338 0.000000
0.000000 0.814555 0.000000
0.000000 0.812772 0.000000
0.000000 0.810990 0.000000
0.000000 0.809207 0.000000
0.043672 0.807424 0.000000
0.087601 0.805641 0.000000
0.131531 0.803859 0.000000
0.175461 0.802076 0.000000
0.219391 0.800293 0.000000
0.263320 0.798510 0.000000
0.307250 0.796727 0.000000
0.351180 0.794945 0.000000
0.395109 0.793162 0.000000
0.482943 0.870517 0.000000
0.531266 0.868556 0.000000
0.579588 0.866595 0.000000
0.627911 0.864634 0.000000
0.676234 0.862673 0.000000
0.724557 0.860712 0.000000
0.772879 0.858751 0.000000
0.821202 0.856789 0.000000
0.869525 0.854828 0.000000
0.917847 0.852867 0.000000
0.966170 0.850906 0.000000
1.000000 0.839182 0.014493
1.000000 0.809681 0.062815
1.000000 0.791383 0.100000
1.000000 0.789778 0.100000
1.000000 0.788174 0.100000
1.000000 0.786569 0.100000
1.000000 0.784964 0.100000
1.000000 0.783360 0.100000
0.000000 0.857917 0.000000
0.000000 0.856135 0.000000
0.000000 0.854352 0.000000
0.000000 0.852569 0.000000
0.000000 0.850786 0.000000
0.040224 0.849003 0.000000
0.084154 0.847221 0.000000
0.128084 0.845438 0.000000
0.172013 0.843655 0.000000
0.215943 0.841872 0.000000
0.259873 0.840090 0.000000
0.303803 0.838307 0.000000
0.347732 0.836524 0.000000
0.391662 0.834741 0.000000
0.479151 0.916254 0.000000
0.527474 0.914293 0.000000
0.575796 0.912332 0.000000
0.624119 0.910371 0.000000
0.672442 0.908410 0.000000
0.720764 0.906449 0.000000
0.769087 0.904488 0.000000
0.817410 0.902527 0.000000
0.865732 0.900566 0.000000
0.914055 0.898605 0.000000
0.962378 0.896644 0.000000
1.000000 0.886439 0.010700
1.000000 0.852235 0.059023
1.000000 0.828804 0.100000
1.000000 0.827199 0.100000
1.000000 0.825595 0.100000
1.000000 0.823990 0.100000
1.000000 0.822386 0.100000
1.000000 0.820781 0.100000
0.000000 0.899497 0.000000
0.000000 0.897714 0.000000
0.000000 0.895931 0.000000
0.000000 0.894148 0.000000
0.000000 0.892366 0.000000
0.036777 0.890583 0.000000
0.080706 0.888800 0.000000
0.124636 0.887017 0.000000
0.168566 0.885234 0.000000
0.212496 0.883452 0.000000
0.256425 0.881669 0.000000
0.300355 0.879886 0.000000
0.344285 0.878103 0.000000
0.388214 0.876320 0.000000
0.432144 0.874538 0.000000
0.523681 0.960030 0.000000
0.572004 0.958069 0.000000
0.620327 0.956108 0.000000
0.668649 0.954147 0.000000
0.716972 0.952186 0.000000
0.765295 0.950225 0.000000
0.813617 0.948264 0.000000
0.861940 0.946303 0.000000
0.910263 0.944342 0.000000
0.958585 0.942381 0.000000
1.000000 0.934424 0.006908
1.000000 0.895452 0.055231
1.000000 0.866225 0.100000
1.000000 0.864621 0.100000
1.000000 0.863016 0.100000
1.000000 0.861412 0.100000
1.000000 0.859807 0.100000
1.000000 0.858203 0.100000
0.000000 0.941076 0.000000
0.000000 0.939293 0.000000
0.000000 0.937510 0.000000
0.000000 0.935728 0.000000
0.000000 0.933945 0.000000
0.033329 0.932162 0.000000
0.077259 0.930379 0.000000
0.121189 0.928597 0.000000
0.165118 0.926814 0.000000
0.209048 0.925031 0.000000
0.252978 0.923248 0.000000
0.296908 0.921465 0.000000
0.340837 0.919683 0.000000
0.384767 0.917900 0.000000
0.428697 0.916117 0.000000
0.519694 1.000000 0.005768
0.567709 1.000000 0.003807
0.616108 1.000000 0.001846
0.664857 0.999884 0.000000
0.713180 0.997923 0.000000
0.761502 0.995962 0.000000
0.809825 0.994001 0.000000
0.858148 0.992040 0.000000
0.906471 0.990079 0.000000
0.954793 0.988118 0.000000
1.000000 0.983146 0.003116
1.000000 0.939337 0.051439
1.000000 0.903796 0.099761
1.000000 0.902042 0.100000
1.000000 0.900438 0.100000
1.000000 0.898833 0.100000
1.000000 0.897229 0.100000
1.000000 0.895624 0.100000
0.000000 0.982655 0.000000
0.000000 0.980873 0.000000
0.000000 0.979090 0.000000
0.000000 0.977307 0.000000
0.000000 0.975524 0.000000
0.029882 0.973741 0.000000
0.073812 0.971959 0.000000
0.117741 0.970176 0.000000
0.161671 0.968393 0.000000
0.205601 0.966610 0.000000
0.249530 0.964827 0.000000
0.293460 0.963045 0.000000
0.337390 0.961262 0.000000
0.381320 0.959479 0.000000
0.425249 0.957696 0.000000
0.469179 0.955914 0.000000
0.560676 1.000000 0.049544
0.604662 1.000000 0.047583
0.649001 1.000000 0.045622
0.693695 1.000000 0.043661
0.738747 1.000000 0.041700
0.784159 1.000000 0.039739
0.829932 1.000000 0.037777
