clientes/genesneakers/tênis/05-filtros/gene-acid.xmp
<x:xmpmeta xmlns:x="adobe:ns:meta/" x:xmptk="Adobe XMP Core 5.6-c140 79.160451, 2017/05/06-01:08:21">
 <rdf:RDF xmlns:rdf="http://www.w3.org/1999/02/22-rdf-syntax-ns#">
  <rdf:Description rdf:about=""
    xmlns:crs="http://ns.adobe.com/camera-raw-settings/1.0/"
   crs:PresetType="Normal"
   crs:Cluster=""
   crs:UUID="GENE-ACID-V1-0-2026042100000000"
   crs:SupportsAmount="False"
   crs:SupportsColor="True"
   crs:SupportsMonochrome="True"
   crs:SupportsHighDynamicRange="True"
   crs:SupportsNormalDynamicRange="True"
   crs:SupportsSceneReferred="True"
   crs:SupportsOutputReferred="True"
   crs:CameraModelRestriction=""
   crs:Copyright="Gene Sneakers 2026"
   crs:ContactInfo=""
   crs:Version="15.0"
   crs:ProcessVersion="11.0"
   crs:WhiteBalance="Custom"
   crs:Temperature="+2"
   crs:Tint="-8"
   crs:Exposure2012="+0.20"
   crs:Contrast2012="+20"
   crs:Highlights2012="-5"
   crs:Shadows2012="+5"
   crs:Whites2012="+10"
   crs:Blacks2012="-5"
   crs:Clarity2012="+10"
   crs:Dehaze="+5"
   crs:Vibrance="+15"
   crs:Saturation="+15"
   crs:ToneCurveName2012="Strong Contrast"
   crs:HueAdjustmentRed="0"
   crs:HueAdjustmentOrange="-5"
   crs:HueAdjustmentYellow="-15"
   crs:HueAdjustmentGreen="-20"
   crs:HueAdjustmentAqua="-10"
   crs:HueAdjustmentBlue="0"
   crs:HueAdjustmentPurple="0"
   crs:HueAdjustmentMagenta="0"
   crs:SaturationAdjustmentRed="+5"
   crs:SaturationAdjustmentOrange="0"
   crs:SaturationAdjustmentYellow="+35"
   crs:SaturationAdjustmentGreen="+40"
   crs:SaturationAdjustmentAqua="+10"
   crs:SaturationAdjustmentBlue="0"
   crs:SaturationAdjustmentPurple="-10"
   crs:SaturationAdjustmentMagenta="-5"
   crs:LuminanceAdjustmentRed="0"
   crs:LuminanceAdjustmentOrange="+3"
   crs:LuminanceAdjustmentYellow="+15"
   crs:LuminanceAdjustmentGreen="+20"
   crs:LuminanceAdjustmentAqua="+5"
   crs:LuminanceAdjustmentBlue="-5"
   crs:LuminanceAdjustmentPurple="-5"
   crs:LuminanceAdjustmentMagenta="0"
   crs:SplitToningShadowHue="80"
   crs:SplitToningShadowSaturation="10"
   crs:SplitToningHighlightHue="75"
   crs:SplitToningHighlightSaturation="15"
   crs:SplitToningBalance="+20"
   crs:ColorGradeMidtoneHue="75"
   crs:ColorGradeMidtoneSat="12"
   crs:ColorGradeShadowHue="85"
   crs:ColorGradeShadowSat="5"
   crs:ColorGradeHighlightHue="70"
   crs:ColorGradeHighlightSat="15"
   crs:ColorGradeShadowLum="0"
   crs:ColorGradeMidtoneLum="+2"
   crs:ColorGradeHighlightLum="+5"
   crs:ColorGradeBlending="50"
   crs:ColorGradeGlobalHue="75"
   crs:ColorGradeGlobalSat="+5"
   crs:ColorGradeGlobalLum="+2"
   crs:GrainAmount="10"
   crs:GrainSize="18"
   crs:GrainFrequency="40"
   crs:PostCropVignetteAmount="0"
   crs:PostCropVignetteMidpoint="70"
   crs:PostCropVignetteFeather="75"
   crs:PostCropVignetteRoundness="0"
   crs:PostCropVignetteStyle="1"
   crs:ShadowTint="+2"
   crs:ToneCurvePV2012="0, 0, 48, 38, 128, 135, 208, 220, 255, 252"
   crs:ToneCurvePV2012Red="0, 0, 255, 255"
   crs:ToneCurvePV2012Green="0, 5, 255, 255"
   crs:ToneCurvePV2012Blue="0, 0, 255, 248"
   crs:CameraProfile="Adobe Color"
   crs:HasSettings="True"
   crs:HasCrop="False"
   crs:AlreadyApplied="False"
   crs:Name="GENE · Acid v1.0"
   crs:ShortName="GENE Acid"
   crs:SortName="GENE Acid"
   crs:Group="Gene Sneakers">
   <crs:Look>
    <rdf:Description
     crs:Name="GENE · Acid v1.0"
     crs:Amount="1"
     crs:UUID="GENE-ACID-V1-0-2026042100000000"
     crs:SupportsAmount="false"
     crs:SupportsMonochrome="false"
     crs:SupportsOutputReferred="false"
     crs:Stubbed="true"/>
   </crs:Look>
  </rdf:Description>
 </rdf:RDF>
</x:xmpmeta>
