clientes/genesneakers/tênis/05-filtros/gene-carbon.cube
# GENE · Carbon v1.0 · LUT 3D
# Gene Sneakers — sistema de filtros
# Compatible: CapCut, Premiere, DaVinci, Photoshop, Final Cut
#
TITLE "GENE Carbon v1.0"
LUT_3D_SIZE 5
DOMAIN_MIN 0.0 0.0 0.0
DOMAIN_MAX 1.0 1.0 1.0
0.000000 0.000000 0.000000
0.092075 0.000000 0.000000
0.254566 0.000000 0.000000
0.426085 0.000000 0.000000
0.515257 0.000000 0.000000
0.026890 0.080669 0.027501
0.092851 0.095089 0.024312
0.314824 0.139641 0.000000
0.509326 0.144551 0.000000
0.693689 0.167163 0.000000
0.071932 0.215796 0.073567
0.143851 0.224272 0.076456
0.242473 0.248265 0.063477
0.608075 0.405660 0.000000
0.722605 0.408181 0.000000
0.119493 0.358430 0.122192
0.233559 0.419175 0.145688
0.332305 0.432017 0.158531
0.462078 0.472922 0.144738
0.540938 0.495212 0.167028
0.173686 0.494193 0.171718
0.272432 0.507036 0.184561
0.371178 0.519879 0.197403
0.496052 0.565682 0.178712
0.559670 0.572730 0.185760
0.012591 0.012591 0.072969
0.096651 0.000000 0.104869
0.259142 0.000000 0.116428
0.430660 0.000000 0.128628
0.519832 0.000000 0.134971
0.028573 0.084641 0.087669
0.110943 0.113345 0.117343
0.282198 0.134738 0.140008
0.453716 0.146667 0.152208
0.616918 0.173715 0.176168
0.073076 0.219228 0.144972
0.182974 0.263394 0.190143
0.316050 0.322631 0.216981
0.603839 0.401424 0.192237
0.718369 0.403945 0.194757
0.140997 0.412515 0.230246
0.282694 0.468310 0.286040
0.383113 0.482825 0.300555
0.503764 0.514608 0.295884
0.582625 0.536898 0.318174
0.179870 0.500377 0.269118
0.321567 0.556171 0.324913
0.421986 0.570686 0.339428
0.526217 0.584242 0.352984
0.601356 0.614416 0.336906
0.035377 0.035377 0.205025
0.101226 0.000000 0.273739
0.263717 0.000000 0.285297
0.435235 0.000000 0.297498
0.524407 0.000000 0.303841
0.038559 0.113720 0.223465
0.137307 0.139709 0.250044
0.286773 0.139313 0.308878
0.458292 0.151242 0.321078
0.622118 0.178914 0.363801
0.075617 0.224056 0.232006
0.188946 0.269367 0.278346
0.326303 0.333366 0.337456
0.546986 0.376603 0.382954
0.648318 0.383651 0.390001
0.146196 0.417715 0.326662
0.287894 0.473509 0.382456
0.429591 0.529303 0.438250
0.545450 0.556294 0.447031
0.718921 0.643181 0.462201
0.185069 0.505576 0.365535
0.326766 0.561370 0.421329
0.468464 0.617164 0.477123
0.577025 0.635050 0.495008
0.643042 0.656102 0.488052
0.059429 0.059429 0.344418
0.129288 0.060989 0.353456
0.268547 0.000000 0.463549
0.440065 0.000000 0.475749
0.529237 0.000000 0.482092
0.062611 0.140882 0.362858
0.165136 0.167538 0.390119
0.291603 0.144143 0.487129
0.526274 0.177354 0.554810
0.627606 0.184402 0.561858
0.065792 0.260093 0.381297
0.211759 0.329466 0.457569
0.357926 0.364990 0.493094
0.552475 0.382092 0.581011
0.653806 0.389139 0.588058
0.154300 0.425819 0.431050
0.295998 0.481613 0.486845
0.437695 0.537407 0.542639
0.535688 0.549822 0.558005
0.681462 0.605251 0.615714
0.190557 0.511064 0.467307
0.332255 0.566859 0.523101
0.473952 0.622653 0.578895
0.623521 0.681546 0.637789
0.687044 0.700104 0.647595
0.071934 0.071934 0.416888
0.143410 0.073493 0.425926
0.271058 0.000000 0.556221
0.442576 0.000000 0.568421
0.531748 0.000000 0.574764
0.075115 0.155004 0.435327
0.179604 0.182006 0.462943
0.294114 0.146654 0.579801
0.529128 0.180208 0.657780
0.630459 0.187255 0.664827
0.078297 0.274214 0.453767
0.228200 0.345907 0.538485
0.368014 0.375527 0.580363
0.555328 0.384945 0.683980
0.656660 0.391993 0.691028
0.182183 0.453701 0.508991
0.323880 0.509495 0.564785
0.380989 0.533634 0.618275
0.543885 0.558394 0.647165
0.684315 0.608104 0.718683
0.196561 0.517068 0.523369
0.338258 0.572862 0.579163
0.479956 0.628656 0.634957
0.629525 0.687550 0.693851
0.644154 0.662462 0.673061
