clientes/genesneakers/tênis/05-filtros/gene-acid.cube
# GENE · Acid v1.0 · LUT 3D
# Gene Sneakers — sistema de filtros
# Compatible: CapCut, Premiere, DaVinci, Photoshop, Final Cut
#
TITLE "GENE Acid v1.0"
LUT_3D_SIZE 5
DOMAIN_MIN 0.0 0.0 0.0
DOMAIN_MAX 1.0 1.0 1.0
0.000000 0.000000 0.000000
0.251306 0.000000 0.000000
0.602743 0.000000 0.000000
0.954181 0.000000 0.000000
1.000000 0.000000 0.000000
0.000000 0.234228 0.000000
0.246098 0.241962 0.000000
0.575163 0.205703 0.000000
0.926601 0.191441 0.000000
1.000000 0.177178 0.000000
0.000000 0.566862 0.000000
0.196146 0.552600 0.000000
0.602342 0.592171 0.000000
0.899021 0.524075 0.000000
1.000000 0.509813 0.000000
0.000000 0.899497 0.000000
0.168566 0.885234 0.000000
0.572004 0.958069 0.000000
0.958585 0.942381 0.000000
1.000000 0.858203 0.100000
0.000000 1.000000 0.000000
0.140986 1.000000 0.000000
0.492424 1.000000 0.000000
0.859475 1.000000 0.100000
1.000000 1.000000 0.100000
0.000000 0.000000 0.260130
0.245868 0.000000 0.245868
0.597306 0.000000 0.231606
0.948743 0.000000 0.217343
1.000000 0.000000 0.203081
0.000000 0.228790 0.232550
0.218288 0.214527 0.218288
0.569726 0.200265 0.204026
0.921163 0.186003 0.189763
1.000000 0.171741 0.175501
0.000000 0.561424 0.204970
0.163974 0.573896 0.163974
0.656701 0.643479 0.133750
0.893583 0.518637 0.162183
1.000000 0.504375 0.147921
0.000000 0.894059 0.177390
0.109378 0.933547 0.109378
0.566510 0.975810 0.140030
0.978145 0.960912 0.122523
1.000000 0.857768 0.232375
0.000000 1.000000 0.149811
0.135548 1.000000 0.135548
0.486986 1.000000 0.121286
0.858454 1.000000 0.217726
1.000000 1.000000 0.202037
0.000000 0.000000 0.620392
0.240430 0.000000 0.606130
0.591868 0.000000 0.591868
0.943305 0.000000 0.577605
1.000000 0.000000 0.563343
0.000000 0.223352 0.592812
0.212850 0.209090 0.578550
0.564288 0.194827 0.564288
0.915726 0.180565 0.550026
1.000000 0.166303 0.535763
0.000000 0.555987 0.565233
0.185270 0.541724 0.550970
0.536708 0.527462 0.536708
0.888146 0.513200 0.522446
1.000000 0.498937 0.508183
0.000000 0.888621 0.537653
0.157690 0.874359 0.523390
0.482805 0.886419 0.482805
0.933206 0.918083 0.557768
1.000000 0.831572 0.480603
0.000000 1.000000 0.510073
0.130110 1.000000 0.495810
0.481548 1.000000 0.481548
0.878988 1.000000 0.614014
1.000000 1.000000 0.598326
0.000000 0.000000 0.980655
0.234992 0.000000 0.966392
0.586430 0.000000 0.952130
0.937868 0.000000 0.937868
1.000000 0.000000 0.923605
0.000000 0.217914 0.953075
0.207412 0.203652 0.938812
0.558850 0.189390 0.924550
0.910288 0.175127 0.910288
1.000000 0.160865 0.896025
0.000000 0.550549 0.925495
0.179832 0.536286 0.911232
0.531270 0.522024 0.896970
0.882708 0.507762 0.882708
1.000000 0.493500 0.868446
0.000000 0.883183 0.897915
0.152253 0.868921 0.883653
0.503690 0.854659 0.869390
0.855128 0.840396 0.855128
1.000000 0.826134 0.840866
0.000000 1.000000 0.870335
0.124673 1.000000 0.856073
0.476110 1.000000 0.841810
0.827548 1.000000 0.827548
1.000000 1.000000 0.994614
0.000000 0.000000 1.000000
0.229554 0.000000 1.000000
0.580992 0.000000 1.000000
0.932430 0.000000 1.000000
1.000000 0.000000 1.000000
0.000000 0.212476 1.000000
0.201975 0.198214 1.000000
0.553412 0.183952 1.000000
0.904850 0.169689 1.000000
1.000000 0.155427 1.000000
0.000000 0.545111 1.000000
0.174395 0.530849 1.000000
0.525832 0.516586 1.000000
0.877270 0.502324 1.000000
1.000000 0.488062 1.000000
0.000000 0.877746 1.000000
0.146815 0.863483 1.000000
0.498252 0.849221 1.000000
0.849690 0.834959 1.000000
1.000000 0.820696 1.000000
0.000000 1.000000 1.000000
0.119235 1.000000 1.000000
0.470673 1.000000 1.000000
0.822110 1.000000 1.000000
1.000000 1.000000 1.000000
