clientes/tênis/05-filtros/gene-chrome.cube
# GENE · Chrome v1.0 · LUT 3D
# Gene Sneakers — sistema de filtros
# Compatible: CapCut, Premiere, DaVinci, Photoshop, Final Cut
#
TITLE "GENE Chrome v1.0"
LUT_3D_SIZE 5
DOMAIN_MIN 0.0 0.0 0.0
DOMAIN_MAX 1.0 1.0 1.0
0.000000 0.000000 0.000000
0.125918 0.041973 0.041973
0.276462 0.105589 0.105096
0.421306 0.168292 0.168011
0.562714 0.229508 0.229433
0.023129 0.207529 0.021457
0.213549 0.229591 0.043952
0.305532 0.243250 0.169170
0.446851 0.312318 0.234574
0.582368 0.378185 0.301397
0.069707 0.443892 0.069899
0.255331 0.471092 0.078498
0.455621 0.481346 0.094969
0.487125 0.428240 0.273689
0.623512 0.497092 0.342542
0.098350 0.668060 0.095728
0.294687 0.687166 0.114834
0.494976 0.706656 0.134325
0.686558 0.725300 0.152968
0.866146 0.742246 0.197168
0.136772 0.888027 0.134150
0.333109 0.907133 0.153256
0.542432 0.916932 0.198954
0.728241 0.938038 0.220060
0.909643 0.958643 0.240665
0.000000 0.000000 0.187788
0.177467 0.007661 0.210282
0.371721 0.030167 0.233230
0.557530 0.051694 0.255179
0.738932 0.072711 0.276609
0.032705 0.217297 0.235273
0.219662 0.239141 0.261232
0.382037 0.300238 0.309981
0.530477 0.362395 0.372325
0.673941 0.418712 0.425636
0.067454 0.460233 0.281475
0.263791 0.479721 0.301345
0.464080 0.489805 0.309245
0.557330 0.498445 0.426220
0.693717 0.567297 0.495073
0.106809 0.676519 0.310004
0.303146 0.695625 0.329110
0.503436 0.715116 0.348601
0.695017 0.733759 0.367244
0.733834 0.684274 0.544649
0.145231 0.896486 0.348426
0.341568 0.915592 0.367532
0.552009 0.926509 0.404547
0.737817 0.947614 0.425652
0.919219 0.968219 0.446257
0.000000 0.000000 0.405908
0.187236 0.017626 0.428403
0.381491 0.040132 0.451350
0.567299 0.061659 0.473300
0.769853 0.070201 0.502531
0.001383 0.223127 0.494486
0.208596 0.228310 0.500188
0.431566 0.268141 0.506159
0.623147 0.281527 0.505334
0.810185 0.299728 0.523535
0.076084 0.469035 0.508808
0.272421 0.478945 0.508345
0.467198 0.498068 0.533348
0.627488 0.553882 0.568582
0.772317 0.614292 0.628992
0.115439 0.685149 0.528594
0.311776 0.704255 0.547700
0.512066 0.723746 0.567191
0.704090 0.740987 0.591887
0.803592 0.754032 0.694392
0.153861 0.905116 0.567016
0.367524 0.914214 0.592214
0.561779 0.936279 0.614279
0.747587 0.957384 0.635384
0.928989 0.977989 0.655989
0.001083 0.000000 0.619641
0.184512 0.000000 0.664198
0.390836 0.049663 0.659988
0.576644 0.071191 0.681938
0.778107 0.078621 0.719980
0.000000 0.216390 0.713851
0.198012 0.217950 0.728754
0.439820 0.276561 0.723608
0.631402 0.289781 0.714420
0.818440 0.307982 0.732621
0.020146 0.491886 0.790449
0.237000 0.484828 0.761106
0.455369 0.486239 0.762517
0.672546 0.525333 0.755564
0.859584 0.543534 0.773765
0.123694 0.693404 0.737680
0.320031 0.712510 0.756786
0.520320 0.732000 0.776277
0.705529 0.749805 0.800407
0.894837 0.770937 0.813105
0.162116 0.913371 0.776102
0.376869 0.923558 0.792826
0.571123 0.945623 0.814891
0.756932 0.966729 0.835997
0.938334 0.987334 0.856602
0.000914 0.000000 0.832636
0.184587 0.000000 0.877193
0.399959 0.058969 0.863677
0.599128 0.068276 0.913344
0.786166 0.086841 0.932273
0.000000 0.213199 0.926664
0.180786 0.201558 0.982434
0.419545 0.217126 0.961975
0.639461 0.297840 0.918547
0.826499 0.316041 0.936749
0.011392 0.471897 0.983457
0.225452 0.473280 0.984840
0.443821 0.474691 0.986251
0.680605 0.533392 0.959692
0.867643 0.551593 0.977893
0.131753 0.701462 0.941807
0.289003 0.729965 1.000000
0.504000 0.736273 1.000000
0.710914 0.751044 1.000000
0.903960 0.780060 1.000000
0.195571 0.911052 0.967052
0.385992 0.932682 0.988682
0.580247 0.954746 1.000000
0.766055 0.975852 1.000000
0.947457 0.996457 1.000000
