clientes/tênis/05-filtros/gene-bloom.xmp
<x:xmpmeta xmlns:x="adobe:ns:meta/" x:xmptk="Adobe XMP Core 5.6-c140 79.160451, 2017/05/06-01:08:21">
 <rdf:RDF xmlns:rdf="http://www.w3.org/1999/02/22-rdf-syntax-ns#">
  <rdf:Description rdf:about=""
    xmlns:crs="http://ns.adobe.com/camera-raw-settings/1.0/"
   crs:PresetType="Normal"
   crs:Cluster=""
   crs:UUID="GENE-BLOOM-V1-0-2026042100000000"
   crs:SupportsAmount="False"
   crs:SupportsColor="True"
   crs:SupportsMonochrome="True"
   crs:SupportsHighDynamicRange="True"
   crs:SupportsNormalDynamicRange="True"
   crs:SupportsSceneReferred="True"
   crs:SupportsOutputReferred="True"
   crs:CameraModelRestriction=""
   crs:Copyright="Gene Sneakers 2026"
   crs:ContactInfo=""
   crs:Version="15.0"
   crs:ProcessVersion="11.0"
   crs:WhiteBalance="Custom"
   crs:Temperature="+3"
   crs:Tint="+8"
   crs:Exposure2012="+0.30"
   crs:Contrast2012="-15"
   crs:Highlights2012="-20"
   crs:Shadows2012="+25"
   crs:Whites2012="+10"
   crs:Blacks2012="+8"
   crs:Clarity2012="-8"
   crs:Dehaze="-5"
   crs:Vibrance="+8"
   crs:Saturation="-5"
   crs:ToneCurveName2012="Medium Contrast"
   crs:HueAdjustmentRed="+8"
   crs:HueAdjustmentOrange="+5"
   crs:HueAdjustmentYellow="-5"
   crs:HueAdjustmentGreen="-10"
   crs:HueAdjustmentAqua="-5"
   crs:HueAdjustmentBlue="-8"
   crs:HueAdjustmentPurple="+5"
   crs:HueAdjustmentMagenta="+8"
   crs:SaturationAdjustmentRed="+10"
   crs:SaturationAdjustmentOrange="+5"
   crs:SaturationAdjustmentYellow="-15"
   crs:SaturationAdjustmentGreen="-30"
   crs:SaturationAdjustmentAqua="-20"
   crs:SaturationAdjustmentBlue="-10"
   crs:SaturationAdjustmentPurple="+8"
   crs:SaturationAdjustmentMagenta="+15"
   crs:LuminanceAdjustmentRed="+5"
   crs:LuminanceAdjustmentOrange="+8"
   crs:LuminanceAdjustmentYellow="+3"
   crs:LuminanceAdjustmentGreen="0"
   crs:LuminanceAdjustmentAqua="-5"
   crs:LuminanceAdjustmentBlue="-8"
   crs:LuminanceAdjustmentPurple="+5"
   crs:LuminanceAdjustmentMagenta="+8"
   crs:SplitToningShadowHue="340"
   crs:SplitToningShadowSaturation="12"
   crs:SplitToningHighlightHue="25"
   crs:SplitToningHighlightSaturation="10"
   crs:SplitToningBalance="+10"
   crs:ColorGradeMidtoneHue="355"
   crs:ColorGradeMidtoneSat="10"
   crs:ColorGradeShadowHue="340"
   crs:ColorGradeShadowSat="8"
   crs:ColorGradeHighlightHue="25"
   crs:ColorGradeHighlightSat="8"
   crs:ColorGradeShadowLum="+3"
   crs:ColorGradeMidtoneLum="+2"
   crs:ColorGradeHighlightLum="+3"
   crs:ColorGradeBlending="50"
   crs:ColorGradeGlobalHue="355"
   crs:ColorGradeGlobalSat="+3"
   crs:ColorGradeGlobalLum="+2"
   crs:GrainAmount="15"
   crs:GrainSize="20"
   crs:GrainFrequency="40"
   crs:PostCropVignetteAmount="-5"
   crs:PostCropVignetteMidpoint="70"
   crs:PostCropVignetteFeather="80"
   crs:PostCropVignetteRoundness="0"
   crs:PostCropVignetteStyle="1"
   crs:ShadowTint="+8"
   crs:ToneCurvePV2012="0, 8, 64, 75, 128, 132, 192, 188, 255, 248"
   crs:ToneCurvePV2012Red="0, 8, 255, 252"
   crs:ToneCurvePV2012Green="0, 2, 255, 248"
   crs:ToneCurvePV2012Blue="0, 5, 255, 245"
   crs:CameraProfile="Adobe Color"
   crs:HasSettings="True"
   crs:HasCrop="False"
   crs:AlreadyApplied="False"
   crs:Name="GENE · Bloom v1.0"
   crs:ShortName="GENE Bloom"
   crs:SortName="GENE Bloom"
   crs:Group="Gene Sneakers">
   <crs:Look>
    <rdf:Description
     crs:Name="GENE · Bloom v1.0"
     crs:Amount="1"
     crs:UUID="GENE-BLOOM-V1-0-2026042100000000"
     crs:SupportsAmount="false"
     crs:SupportsMonochrome="false"
     crs:SupportsOutputReferred="false"
     crs:Stubbed="true"/>
   </crs:Look>
  </rdf:Description>
 </rdf:RDF>
</x:xmpmeta>
