clientes/tênis/05-filtros/gene-daylight.cube
# GENE · Daylight v1.0 · LUT 3D
# Gene Sneakers — sistema de filtros
# Compatible: CapCut, Premiere, DaVinci, Photoshop, Final Cut
#
TITLE "GENE Daylight v1.0"
LUT_3D_SIZE 5
DOMAIN_MIN 0.0 0.0 0.0
DOMAIN_MAX 1.0 1.0 1.0
0.053592 0.049688 0.048414
0.276394 0.072224 0.069597
0.495679 0.096067 0.092209
0.690046 0.117199 0.112252
0.886509 0.139969 0.133951
0.100561 0.235167 0.104385
0.282733 0.262021 0.105734
0.531249 0.320034 0.139480
0.711973 0.348622 0.165450
0.852657 0.403693 0.247095
0.154631 0.420218 0.165976
0.303074 0.435342 0.167291
0.500444 0.472894 0.163441
0.742994 0.548828 0.192494
0.880243 0.578076 0.277575
0.198586 0.584240 0.218383
0.337053 0.599365 0.212621
0.538700 0.641832 0.198624
0.698330 0.659804 0.215519
0.904344 0.730006 0.304941
0.246397 0.751142 0.273383
0.377676 0.766267 0.260432
0.532196 0.781034 0.274136
0.735945 0.830397 0.250008
0.899690 0.849996 0.268510
0.058835 0.054860 0.205017
0.280774 0.067170 0.250972
0.499839 0.082165 0.264583
0.694010 0.095456 0.276646
0.878420 0.161216 0.326451
0.104853 0.234809 0.229725
0.333432 0.309144 0.301217
0.541528 0.321265 0.311526
0.706200 0.356567 0.343551
0.887584 0.390173 0.376261
0.172923 0.428236 0.313630
0.341785 0.468953 0.328595
0.525155 0.497303 0.335678
0.734561 0.570808 0.413630
0.903681 0.616706 0.466839
0.219783 0.592834 0.367616
0.381706 0.632976 0.375581
0.536227 0.647743 0.389284
0.723040 0.684214 0.387755
0.926924 0.762483 0.495063
0.270916 0.760323 0.425710
0.423392 0.799878 0.424456
0.576849 0.814645 0.437096
0.760618 0.854769 0.422207
0.924400 0.874406 0.440747
0.072701 0.068157 0.366042
0.287018 0.072924 0.439000
0.506082 0.087919 0.452610
0.700253 0.101210 0.464674
0.897833 0.114734 0.476949
0.099987 0.247806 0.389430
0.291556 0.269879 0.410451
0.536430 0.306434 0.478178
0.716275 0.319725 0.485388
0.909981 0.333249 0.497541
0.161211 0.421111 0.411977
0.342727 0.460000 0.445678
0.590677 0.563434 0.546692
0.753726 0.571623 0.551918
0.930783 0.608916 0.588955
0.225849 0.598643 0.499692
0.415131 0.644694 0.532717
0.579823 0.680559 0.548388
0.747165 0.708046 0.555916
0.949645 0.802793 0.680012
0.276982 0.766132 0.557786
0.466264 0.812183 0.590811
0.620446 0.847461 0.596200
0.757407 0.860550 0.608346
0.948525 0.898238 0.608908
0.084992 0.079943 0.508769
0.292552 0.078024 0.605661
0.511616 0.093019 0.619271
0.705787 0.106310 0.631334
0.885654 0.119834 0.637237
0.112293 0.259607 0.532172
0.303846 0.281665 0.553178
0.531337 0.311534 0.638454
0.721700 0.324825 0.650398
0.915407 0.338350 0.662552
0.183552 0.442782 0.548941
0.324738 0.457796 0.571041
0.560386 0.524880 0.663170
0.750749 0.538171 0.675114
0.944455 0.551695 0.687268
0.207024 0.586243 0.567840
0.378485 0.638347 0.616626
0.565158 0.669950 0.646259
0.821914 0.789441 0.769485
0.968192 0.801357 0.778361
0.282359 0.771281 0.674853
0.471640 0.817332 0.707879
0.656443 0.862293 0.740123
0.796050 0.889637 0.749370
0.969909 0.919362 0.757960
0.097498 0.091936 0.654002
0.298183 0.083214 0.775248
0.517247 0.098209 0.788858
0.711418 0.111500 0.800922
0.891175 0.125024 0.805146
0.124814 0.271615 0.677420
0.277461 0.252083 0.740402
0.536858 0.316724 0.806362
0.727221 0.330015 0.818306
0.920927 0.343539 0.830460
0.151282 0.446844 0.700083
0.286510 0.454799 0.765355
0.487327 0.448203 0.776830
0.756270 0.543360 0.843022
0.949976 0.556885 0.855176
0.228485 0.607469 0.705003
0.390838 0.655358 0.764737
0.501898 0.646517 0.798277
0.782017 0.732462 0.864929
0.975724 0.745986 0.877083
0.228878 0.782255 0.755907
0.415109 0.819590 0.791071
0.598433 0.854541 0.822877
0.825717 0.907384 0.887825
1.000000 1.000000 1.000000
