clientes/tênis/05-filtros/gene-chrome.cube
# GENE · Chrome v1.0 · LUT 3D
# Gene Sneakers — sistema de filtros
# Compatible: CapCut, Premiere, DaVinci, Photoshop, Final Cut
#
TITLE "GENE Chrome v1.0"
LUT_3D_SIZE 9
DOMAIN_MIN 0.0 0.0 0.0
DOMAIN_MAX 1.0 1.0 1.0
0.000000 0.000000 0.000000
0.042835 0.014278 0.014278
0.125918 0.041973 0.041973
0.200748 0.072812 0.072209
0.276462 0.105589 0.105096
0.348884 0.136940 0.136553
0.421306 0.168292 0.168011
0.534009 0.217082 0.216965
0.562714 0.229508 0.229433
0.000000 0.072739 0.000000
0.076211 0.081967 0.003241
0.135789 0.098915 0.067525
0.207220 0.135996 0.104695
0.295750 0.163783 0.124766
0.368172 0.195134 0.156224
0.440594 0.226486 0.187681
0.565262 0.273184 0.232455
0.594698 0.285521 0.244829
0.023129 0.207529 0.021457
0.102773 0.216756 0.030866
0.213549 0.229591 0.043952
0.234101 0.206168 0.132001
0.305532 0.243250 0.169170
0.376889 0.276869 0.199051
0.446851 0.312318 0.234574
0.555726 0.367483 0.289856
0.582368 0.378185 0.301397
0.046418 0.325710 0.045678
0.126062 0.334938 0.055086
0.236839 0.347772 0.068172
0.334904 0.360901 0.067238
0.435049 0.370841 0.077373
0.397708 0.337512 0.220199
0.466553 0.368786 0.253117
0.575254 0.423662 0.307993
0.602940 0.437639 0.321969
0.069707 0.443892 0.069899
0.141113 0.459755 0.066938
0.255331 0.471092 0.078498
0.355476 0.481033 0.088633
0.455621 0.481346 0.094969
0.551412 0.490668 0.104291
0.487125 0.428240 0.273689
0.595826 0.483116 0.328565
0.623512 0.497092 0.342542
0.078672 0.566513 0.079092
0.160791 0.574664 0.087403
0.275009 0.574510 0.095156
0.375154 0.584256 0.104902
0.475299 0.594001 0.114647
0.571089 0.603323 0.123969
0.666880 0.612644 0.133290
0.615504 0.539984 0.348243
0.643190 0.553961 0.362219
0.098350 0.668060 0.095728
0.180469 0.676051 0.103719
0.294687 0.687166 0.114834
0.394832 0.696911 0.124579
0.494976 0.706656 0.134325
0.590767 0.715978 0.143646
0.686558 0.725300 0.152968
0.829322 0.738063 0.192986
0.866146 0.742246 0.197168
0.128972 0.843374 0.126351
0.211091 0.851366 0.134342
0.325309 0.862480 0.145457
0.425454 0.872226 0.155202
0.525599 0.881971 0.164947
0.626507 0.883557 0.200678
0.719411 0.894110 0.211230
0.863989 0.910532 0.227653
0.900813 0.914715 0.231835
0.136772 0.888027 0.134150
0.218891 0.896018 0.142141
0.333109 0.907133 0.153256
0.433254 0.916878 0.163002
0.542432 0.916932 0.198954
0.635336 0.927485 0.209507
0.728241 0.938038 0.220060
0.872819 0.954460 0.236482
0.909643 0.958643 0.240665
0.000000 0.000000 0.063401
0.061119 0.000000 0.072809
0.171896 0.001978 0.085896
0.269023 0.013231 0.097369
0.280734 0.109901 0.152080
0.353103 0.141200 0.183485
0.425472 0.172498 0.214889
0.538093 0.221206 0.263761
0.566778 0.233612 0.276208
0.000572 0.076825 0.083262
0.078971 0.085974 0.093916
0.167966 0.121913 0.125348
0.243625 0.154635 0.158180
0.319284 0.187357 0.191012
0.391653 0.218655 0.222417
0.464022 0.249954 0.253821
0.589182 0.297139 0.301210
0.618600 0.309458 0.313565
0.027134 0.211614 0.110887
0.106778 0.220842 0.120295
0.217555 0.233676 0.133381
0.263734 0.235833 0.195803
0.335165 0.272914 0.232973
0.407328 0.307336 0.265357
0.499341 0.331210 0.278829
0.613149 0.375057 0.322114
0.642548 0.387320 0.334377
0.050423 0.329796 0.135107
0.130068 0.339023 0.144516
0.240844 0.351858 0.157602
0.338442 0.364510 0.160445
0.438587 0.374450 0.170580
0.426067 0.362887 0.281652
0.495917 0.398150 0.316914
0.604617 0.453025 0.371790
0.632303 0.467002 0.385766
0.073713 0.447977 0.159328
0.144651 0.463364 0.160145
0.258870 0.474701 0.171705
0.359014 0.475139 0.174846
0.459159 0.484884 0.184591
0.554950 0.494206 0.193913
0.516489 0.457603 0.337486
0.625190 0.512479 0.392362
0.652876 0.526456 0.406338
0.082210 0.570122 0.172299
0.164329 0.566934 0.173663
0.278547 0.578049 0.184778
0.378692 0.587794 0.194524
0.478837 0.597539 0.204269
0.574628 0.606861 0.213591
0.670418 0.616183 0.222912
0.644867 0.569348 0.412039
0.672553 0.583324 0.426016
0.101888 0.671598 0.185350
0.184007 0.679589 0.193341
0.298225 0.690704 0.204456
0.398370 0.700449 0.214201
0.498515 0.710195 0.223947
0.594305 0.719516 0.233268
0.690096 0.728838 0.242590
0.833328 0.742069 0.278975
0.870151 0.746251 0.283158
0.132511 0.846913 0.215973
0.214629 0.854904 0.223964
0.328847 0.866019 0.235079
0.428992 0.875764 0.244824
0.537608 0.877010 0.276115
0.630512 0.887563 0.286668
0.723417 0.898116 0.297220
0.867995 0.914538 0.313643
0.904819 0.918721 0.317825
0.140310 0.891565 0.223772
0.222429 0.899556 0.231763
0.336647 0.910671 0.242878
0.436792 0.920416 0.252623
0.546438 0.920938 0.284944
0.639342 0.931490 0.295497
0.732246 0.942043 0.306050
0.876824 0.958465 0.322472
0.913648 0.962648 0.326655
0.000000 0.000000 0.187788
0.066691 0.000000 0.197196
0.177467 0.007661 0.210282
0.274594 0.018914 0.221756
0.371721 0.030167 0.233230
0.464626 0.040931 0.244205
0.557530 0.051694 0.255179
0.702108 0.068445 0.272259
0.738932 0.072711 0.276609
0.000000 0.081020 0.213792
0.072661 0.079798 0.230184
0.196564 0.104569 0.230143
0.293691 0.115823 0.241617
0.390818 0.127076 0.253091
0.483723 0.137839 0.264066
0.576627 0.148603 0.275040
0.594128 0.302134 0.368515
0.623546 0.314453 0.380870
0.032705 0.217297 0.235273
0.112350 0.226524 0.244682
0.219662 0.239141 0.261232
0.320253 0.250612 0.269241
0.382037 0.300238 0.309981
0.456257 0.331317 0.341153
0.530477 0.362395 0.372325
0.644541 0.406449 0.413373
0.673941 0.418712 0.425636
0.055995 0.335478 0.259494
0.135639 0.344706 0.268902
0.243219 0.359590 0.279950
0.343363 0.369530 0.290085
0.400522 0.374907 0.343207
0.466908 0.403729 0.370386
0.536758 0.438991 0.405648
0.668575 0.479085 0.437407
0.697975 0.491348 0.449670
0.067454 0.460233 0.281475
0.149573 0.468384 0.289785
0.263791 0.479721 0.301345
0.363936 0.480060 0.299500
0.464080 0.489805 0.309245
0.487480 0.463182 0.390958
0.557330 0.498445 0.426220
0.666031 0.553320 0.481096
0.693717 0.567297 0.495073
0.087132 0.575141 0.301939
0.169250 0.571855 0.298318
0.283468 0.582970 0.309432
0.383613 0.592715 0.319178
0.483758 0.602461 0.328923
0.579549 0.611782 0.338245
0.675339 0.621104 0.347566
0.685708 0.610189 0.500774
0.713394 0.624165 0.514750
0.106809 0.676519 0.310004
0.188928 0.684510 0.317995
0.303146 0.695625 0.329110
0.403291 0.705370 0.338855
0.503436 0.715116 0.348601
0.599226 0.724437 0.357922
0.695017 0.733759 0.367244
0.838899 0.747640 0.398578
0.733834 0.684274 0.544649
0.137432 0.851834 0.340627
0.219551 0.859825 0.348618
0.333769 0.870940 0.359733
0.433914 0.880685 0.369478
0.543179 0.882581 0.395717
0.636084 0.893134 0.406270
0.728988 0.903687 0.416823
0.873566 0.920109 0.433245
0.910390 0.924292 0.437428
0.145231 0.896486 0.348426
0.227350 0.904477 0.356417
0.341568 0.915592 0.367532
0.454882 0.915477 0.393515
0.552009 0.926509 0.404547
0.644913 0.937062 0.415100
0.737817 0.947614 0.425652
0.882396 0.964037 0.442075
0.919219 0.968219 0.446257
0.000000 0.000000 0.296848
0.071575 0.000000 0.306256
0.182352 0.012643 0.319343
0.279479 0.023896 0.330816
0.376606 0.035149 0.342290
0.469510 0.045913 0.353265
0.562415 0.056677 0.364240
0.706993 0.073428 0.381319
0.765538 0.065800 0.388864
0.000000 0.081979 0.327737
0.067128 0.074382 0.349662
0.201449 0.109552 0.339204
0.298576 0.120805 0.350677
0.395703 0.132058 0.362151
0.488607 0.142822 0.373126
0.595369 0.145743 0.387479
0.744439 0.160539 0.402566
0.782407 0.164308 0.406408
0.006916 0.228543 0.375008
0.093584 0.230711 0.377393
0.214129 0.233726 0.380710
0.325138 0.255594 0.378302
0.427251 0.263740 0.392492
0.523042 0.273248 0.402186
0.618832 0.282756 0.411881
0.648856 0.410764 0.470178
0.678256 0.423027 0.482441
0.060879 0.340461 0.368554
0.140524 0.349688 0.377963
0.247534 0.363991 0.393617
0.342071 0.373574 0.409359
0.447823 0.376344 0.397968
0.504127 0.425153 0.435965
0.578300 0.456092 0.466904
0.693729 0.504239 0.515051
0.723129 0.516502 0.527314
0.071769 0.464634 0.395141
0.153888 0.472785 0.403452
0.268106 0.474630 0.399050
0.368250 0.484375 0.408795
0.468395 0.494120 0.418540
0.523289 0.498991 0.468759
0.593139 0.534253 0.504021
0.719707 0.578819 0.541029
0.749107 0.591082 0.553292
0.091447 0.568179 0.399621
0.173565 0.576170 0.407613
0.287783 0.587285 0.418727
0.387928 0.597030 0.428473
0.488073 0.606775 0.438218
0.583864 0.616097 0.447540
0.679654 0.625419 0.456861
0.721517 0.645998 0.578575
0.749203 0.659974 0.592551
0.111124 0.680834 0.419299
0.193243 0.688825 0.427290
0.307461 0.699940 0.438405
0.407606 0.709685 0.448150
0.507751 0.719431 0.457896
0.603541 0.728752 0.467217
0.699332 0.738074 0.476539
0.741682 0.705178 0.605546
0.768713 0.719153 0.619521
0.141747 0.856149 0.449922
0.223866 0.864140 0.457913
0.338084 0.875255 0.469028
0.450937 0.876434 0.489551
0.548064 0.887466 0.500583
0.640968 0.898019 0.511136
0.733873 0.908572 0.521689
0.878451 0.924994 0.538111
0.915275 0.929177 0.542294
0.149546 0.900801 0.457721
0.231665 0.908792 0.465712
0.345883 0.919907 0.476827
0.459767 0.920361 0.498380
0.556894 0.931394 0.509413
0.649798 0.941946 0.519965
0.742702 0.952499 0.530518
0.887280 0.968921 0.546940
0.924104 0.973104 0.551123
0.000000 0.000000 0.405908
0.073342 0.000000 0.420108
0.187236 0.017626 0.428403
0.284364 0.028879 0.439877
0.381491 0.040132 0.451350
0.474395 0.050896 0.462325
0.567299 0.061659 0.473300
0.731885 0.066432 0.498688
0.769853 0.070201 0.502531
0.000000 0.082504 0.441682
0.061595 0.068966 0.469140
0.191321 0.081161 0.481637
0.303461 0.125788 0.459738
0.400588 0.137041 0.471212
0.493492 0.147804 0.482186
0.599684 0.150144 0.501146
0.748754 0.164940 0.516232
0.786722 0.168709 0.520075
0.001383 0.223127 0.494486
0.088051 0.225295 0.496871
0.208596 0.228310 0.500188
0.322283 0.234419 0.519806
0.431566 0.268141 0.506159
0.527357 0.277649 0.515853
0.623147 0.281527 0.505334
0.772217 0.296033 0.519840
0.810185 0.299728 0.523535
0.065764 0.345443 0.477615
0.101821 0.365130 0.531533
0.226305 0.366157 0.532827
0.335451 0.367058 0.533961
0.452138 0.380659 0.507263
0.547929 0.389981 0.516585
0.643719 0.399302 0.525906
0.792789 0.413809 0.540413
0.830757 0.417504 0.544107
0.076084 0.469035 0.508808
0.158203 0.477186 0.517119
0.272421 0.478945 0.508345
0.372565 0.488690 0.518090
0.467198 0.498068 0.533348
0.568501 0.507757 0.537157
0.627488 0.553882 0.568582
0.742917 0.602029 0.616729
0.772317 0.614292 0.628992
0.095761 0.572494 0.508916
0.177880 0.580485 0.516907
0.292098 0.591600 0.528022
0.392243 0.601345 0.537768
0.492388 0.611090 0.547513
0.588179 0.620412 0.556834
0.648625 0.626931 0.601500
0.757326 0.681806 0.656375
0.794966 0.688741 0.658466
0.115439 0.685149 0.528594
0.197558 0.693140 0.536585
0.311776 0.704255 0.547700
0.411921 0.714000 0.557445
0.512066 0.723746 0.567191
0.607856 0.733067 0.576512
0.704090 0.740987 0.591887
0.776561 0.740057 0.680417
0.803592 0.754032 0.694392
0.146062 0.860464 0.559217
0.228180 0.868455 0.567208
0.342399 0.879570 0.578323
0.455822 0.881318 0.594416
0.552949 0.892351 0.605449
0.645853 0.902904 0.616002
0.738757 0.913456 0.626554
0.883335 0.929879 0.642977
0.920159 0.934061 0.647159
0.153861 0.905116 0.567016
0.235980 0.913107 0.575007
0.367524 0.914214 0.592214
0.464651 0.925246 0.603246
0.561779 0.936279 0.614279
0.654683 0.946831 0.624831
0.747587 0.957384 0.635384
0.892165 0.973806 0.651806
0.928989 0.977989 0.655989
0.001160 0.000000 0.510557
0.074258 0.000000 0.529193
0.184393 0.000000 0.555113
0.289036 0.033645 0.544195
0.386163 0.044898 0.555669
0.479068 0.055661 0.566644
0.571972 0.066425 0.577619
0.736012 0.070642 0.607413
0.773980 0.074411 0.611256
0.000000 0.082847 0.550674
0.056303 0.063786 0.583423
0.186019 0.075972 0.595911
0.308133 0.130553 0.564056
0.405260 0.141806 0.575530
0.508021 0.144846 0.600176
0.603811 0.154354 0.609870
0.752881 0.169150 0.624957
0.790849 0.169528 0.604615
0.000000 0.219025 0.604860
0.082759 0.220115 0.611154
0.203304 0.223130 0.614471
0.315942 0.228177 0.638982
0.435693 0.272351 0.614883
0.531484 0.281859 0.624578
0.627275 0.285654 0.609877
0.776345 0.300160 0.624383
0.814312 0.303855 0.628078
0.019287 0.355014 0.633083
0.095489 0.358897 0.650718
0.219972 0.359924 0.652011
0.329118 0.360824 0.653145
0.447859 0.362085 0.634508
0.552056 0.394108 0.621128
0.647847 0.403430 0.630449
0.796917 0.417936 0.644956
0.834885 0.421631 0.648650
0.080211 0.473245 0.617533
0.162330 0.481396 0.625844
0.242914 0.490743 0.646522
0.352099 0.491448 0.647227
0.461283 0.492153 0.647932
0.572628 0.511884 0.641700
0.668419 0.521206 0.651021
0.817489 0.535712 0.665528
0.855457 0.539407 0.669222
0.099889 0.576621 0.613459
0.182007 0.584612 0.621450
0.296226 0.595727 0.632565
0.396370 0.605472 0.642311
0.496515 0.615218 0.652056
0.585399 0.624079 0.668285
0.688097 0.633861 0.670699
0.786112 0.696208 0.713750
0.814776 0.708551 0.726093
0.119566 0.689276 0.633137
0.201685 0.697267 0.641128
0.315903 0.708382 0.652243
0.416048 0.718128 0.661988
0.516193 0.727873 0.671734
0.611984 0.737194 0.681055
0.708763 0.745660 0.692194
0.809923 0.773420 0.752033
0.836955 0.787395 0.766009
0.150189 0.864591 0.663760
0.232308 0.872582 0.671751
0.363367 0.874958 0.683690
0.460494 0.885991 0.694723
0.557621 0.897023 0.705755
0.650526 0.907576 0.716308
0.743430 0.918129 0.726861
0.888008 0.934551 0.743283
0.924832 0.938734 0.747466
0.157989 0.909243 0.671559
0.240107 0.917235 0.679550
0.372197 0.918886 0.692520
0.469324 0.929918 0.703552
0.566451 0.940951 0.714585
0.659355 0.951504 0.725138
0.752259 0.962056 0.735690
0.896838 0.978479 0.752113
0.933661 0.982661 0.756295
0.001083 0.000000 0.619641
0.074841 0.000000 0.638277
0.184512 0.000000 0.664198
0.293708 0.038410 0.648514
0.390836 0.049663 0.659988
0.483740 0.060427 0.670963
0.576644 0.071191 0.681938
0.740139 0.074852 0.716138
0.778107 0.078621 0.719980
0.000000 0.083111 0.659665
0.051011 0.058606 0.697707
0.180717 0.070783 0.710185
0.294997 0.082014 0.721681
0.409933 0.146572 0.679849
0.512148 0.149055 0.708901
0.607939 0.158563 0.718595
0.757009 0.169961 0.705463
0.794977 0.173655 0.709158
0.000000 0.216390 0.713851
0.077467 0.214935 0.725437
0.198012 0.217950 0.728754
0.309601 0.221935 0.758158
0.439820 0.276561 0.723608
0.535611 0.280460 0.705098
0.631402 0.289781 0.714420
0.780472 0.304287 0.728926
0.818440 0.307982 0.732621
0.000000 0.351954 0.768629
0.089156 0.352664 0.769902
0.213640 0.353690 0.771196
0.325612 0.348317 0.741239
0.441945 0.356170 0.749093
0.556183 0.398235 0.725671
0.651974 0.407557 0.734992
0.801044 0.422063 0.749499
0.839012 0.425758 0.753193
0.020146 0.491886 0.790449
0.112471 0.484024 0.760302
0.237000 0.484828 0.761106
0.346184 0.485534 0.761811
0.455369 0.486239 0.762517
0.565881 0.492988 0.769266
0.672546 0.525333 0.755564
0.821616 0.539839 0.770071
0.859584 0.543534 0.773765
0.104016 0.580748 0.718002
0.186135 0.588740 0.725993
0.300353 0.599854 0.737108
0.365862 0.616784 0.781489
0.475047 0.617490 0.782195
0.579484 0.618165 0.782869
0.692224 0.637988 0.775242
0.835737 0.655928 0.786646
0.872560 0.660110 0.790828
0.123694 0.693404 0.737680
0.205812 0.701395 0.745671
0.320031 0.712510 0.756786
0.420175 0.722255 0.766531
0.520320 0.732000 0.776277
0.620531 0.739779 0.781947
0.705529 0.749805 0.800407
0.858013 0.766754 0.808922
0.894837 0.770937 0.813105
0.154316 0.868718 0.768303
0.236435 0.876709 0.776294
0.368039 0.879631 0.783997
0.465166 0.890663 0.795029
0.562294 0.901696 0.806062
0.655198 0.912248 0.816614
0.748102 0.922801 0.827167
0.892680 0.939223 0.843589
0.929504 0.943406 0.847772
0.162116 0.913371 0.776102
0.266093 0.910976 0.780244
0.376869 0.923558 0.792826
0.473996 0.934591 0.803859
0.571123 0.945623 0.814891
0.664028 0.956176 0.825444
0.756932 0.966729 0.835997
0.901510 0.983151 0.852419
0.938334 0.987334 0.856602
0.000950 0.000000 0.789399
0.075393 0.000000 0.808035
0.184583 0.000000 0.833956
0.300980 0.045827 0.810855
0.398107 0.057080 0.822329
0.491011 0.067844 0.833304
0.597492 0.066607 0.870249
0.746562 0.081403 0.885336
0.784530 0.085172 0.889178
0.000000 0.083438 0.829277
0.042775 0.050545 0.875555
0.172467 0.062707 0.888019
0.286747 0.073938 0.899514
0.422780 0.146099 0.868404
0.518571 0.155607 0.878099
0.614362 0.165115 0.887793
0.763432 0.176384 0.868154
0.801400 0.180078 0.871848
0.000000 0.213707 0.883464
0.069231 0.206874 0.903286
0.183296 0.204029 0.935194
0.299734 0.212222 0.943621
0.417900 0.222143 0.953775
0.542034 0.286882 0.867789
0.637825 0.296204 0.877110
0.786895 0.310710 0.891617
0.824863 0.314405 0.895312
0.000000 0.344972 0.944250
0.079301 0.342963 0.955378
0.203785 0.343990 0.956671
0.316408 0.339113 0.919556
0.432741 0.346967 0.927410
0.545825 0.356288 0.936731
0.658397 0.413980 0.897683
0.807467 0.428486 0.912189
0.845435 0.432181 0.915884
0.013736 0.474242 0.938040
0.103267 0.474820 0.938619
0.227796 0.475625 0.939423
0.336981 0.476330 0.940129
0.446165 0.477035 0.940834
0.556677 0.483784 0.947583
0.678969 0.531756 0.918255
0.828039 0.546262 0.932761
0.866007 0.549957 0.936456
0.033414 0.605492 0.957718
0.122945 0.606071 0.958296
0.247473 0.606875 0.959101
0.356658 0.607581 0.959806
0.465843 0.608286 0.960512
0.570281 0.608961 0.961186
0.680142 0.615059 0.967285
0.843008 0.663199 0.942743
0.879832 0.667382 0.946926
0.130117 0.699826 0.900370
0.212235 0.707818 0.908362
0.267151 0.738126 0.978779
0.376336 0.738831 0.979484
0.485521 0.739537 0.980189
0.596778 0.739876 0.969069
0.697917 0.742194 0.971387
0.865284 0.774026 0.965020
0.902108 0.778208 0.969202
0.160739 0.875141 0.930993
0.242858 0.883132 0.938984
0.375311 0.886902 0.940094
0.472438 0.897934 0.951127
0.569565 0.908967 0.962159
0.662469 0.919520 0.972712
0.755373 0.930072 0.983265
0.899638 0.946474 1.000000
0.936775 0.950677 1.000000
0.168539 0.919794 0.938792
0.273364 0.918247 0.936341
0.384140 0.930830 0.948924
0.481267 0.941862 0.959956
0.578395 0.952895 0.970989
0.671299 0.963447 0.981541
0.764203 0.974000 0.992094
0.908781 0.990422 1.000000
0.945605 0.994605 1.000000
0.000914 0.000000 0.832636
0.075490 0.000000 0.851272
0.184587 0.000000 0.877193
0.285379 0.000000 0.899919
0.399959 0.058969 0.863677
0.492863 0.069733 0.874652
0.599128 0.068276 0.913344
0.748198 0.083072 0.928430
0.786166 0.086841 0.932273
0.000000 0.083510 0.872477
0.040677 0.048492 0.920853
0.170366 0.060650 0.933313
0.284646 0.071881 0.944808
0.424416 0.147767 0.911499
0.520207 0.157275 0.921193
0.615997 0.166783 0.930888
0.765067 0.178019 0.909591
0.803035 0.181714 0.913285
0.000000 0.213199 0.926664
0.067133 0.204821 0.948583
0.180786 0.201558 0.982434
0.297221 0.209748 0.990858
0.419545 0.217126 0.961975
0.543670 0.288518 0.909226
0.639461 0.297840 0.918547
0.788531 0.312346 0.933054
0.826499 0.316041 0.936749
0.000000 0.343631 0.988980
0.079410 0.341619 1.000000
0.204879 0.336064 0.964268
0.314064 0.336769 0.964974
0.430397 0.344622 0.972827
0.543481 0.353944 0.982148
0.660033 0.415616 0.939120
0.809103 0.430122 0.953626
0.847071 0.433817 0.957321
0.011392 0.471897 0.983457
0.100923 0.472476 0.984036
0.225452 0.473280 0.984840
0.334636 0.473986 0.985546
0.443821 0.474691 0.986251
0.554333 0.481440 0.993000
0.680605 0.533392 0.959692
0.829675 0.547898 0.974198
0.867643 0.551593 0.977893
0.034205 0.602593 1.000000
0.124314 0.603377 1.000000
0.249647 0.604773 1.000000
0.359537 0.606433 1.000000
0.469428 0.608757 1.000000
0.574540 0.612055 1.000000
0.678867 0.616884 0.997824
0.844860 0.665051 0.982501
0.881684 0.669234 0.986684
0.131753 0.701462 0.941807
0.213871 0.709454 0.949799
0.289003 0.729965 1.000000
0.398893 0.733653 1.000000
0.504000 0.736273 1.000000
0.607457 0.741911 1.000000
0.710914 0.751044 1.000000
0.867136 0.775878 1.000000
0.903960 0.780060 1.000000
0.162375 0.876777 0.972430
0.266386 0.876171 0.967269
0.377162 0.888754 0.979852
0.474290 0.899786 0.990884
0.571417 0.910819 1.000000
0.664321 0.921372 1.000000
0.757225 0.931924 1.000000
0.901803 0.948347 1.000000
0.938627 0.952529 1.000000
0.195571 0.911052 0.967052
0.275216 0.920099 0.976099
0.385992 0.932682 0.988682
0.483119 0.943714 0.999714
0.580247 0.954746 1.000000
0.673151 0.965299 1.000000
0.766055 0.975852 1.000000
0.910633 0.992274 1.000000
0.947457 0.996457 1.000000
