clientes/tênis/05-filtros/gene-chrome.xmp
<x:xmpmeta xmlns:x="adobe:ns:meta/" x:xmptk="Adobe XMP Core 5.6-c140 79.160451, 2017/05/06-01:08:21">
 <rdf:RDF xmlns:rdf="http://www.w3.org/1999/02/22-rdf-syntax-ns#">
  <rdf:Description rdf:about=""
    xmlns:crs="http://ns.adobe.com/camera-raw-settings/1.0/"
   crs:PresetType="Normal"
   crs:Cluster=""
   crs:UUID="GENE-CHROME-V1-0-2026042100000000"
   crs:SupportsAmount="False"
   crs:SupportsColor="True"
   crs:SupportsMonochrome="True"
   crs:SupportsHighDynamicRange="True"
   crs:SupportsNormalDynamicRange="True"
   crs:SupportsSceneReferred="True"
   crs:SupportsOutputReferred="True"
   crs:CameraModelRestriction=""
   crs:Copyright="Gene Sneakers 2026"
   crs:ContactInfo=""
   crs:Version="15.0"
   crs:ProcessVersion="11.0"
   crs:WhiteBalance="Custom"
   crs:Temperature="-15"
   crs:Tint="-5"
   crs:Exposure2012="0.00"
   crs:Contrast2012="+15"
   crs:Highlights2012="-10"
   crs:Shadows2012="+10"
   crs:Whites2012="+5"
   crs:Blacks2012="-10"
   crs:Clarity2012="+25"
   crs:Dehaze="+15"
   crs:Vibrance="-15"
   crs:Saturation="-30"
   crs:ToneCurveName2012="Medium Contrast"
   crs:HueAdjustmentRed="-8"
   crs:HueAdjustmentOrange="-15"
   crs:HueAdjustmentYellow="-10"
   crs:HueAdjustmentGreen="+5"
   crs:HueAdjustmentAqua="+10"
   crs:HueAdjustmentBlue="+8"
   crs:HueAdjustmentPurple="+5"
   crs:HueAdjustmentMagenta="0"
   crs:SaturationAdjustmentRed="-30"
   crs:SaturationAdjustmentOrange="-50"
   crs:SaturationAdjustmentYellow="-40"
   crs:SaturationAdjustmentGreen="-25"
   crs:SaturationAdjustmentAqua="+5"
   crs:SaturationAdjustmentBlue="+15"
   crs:SaturationAdjustmentPurple="0"
   crs:SaturationAdjustmentMagenta="-20"
   crs:LuminanceAdjustmentRed="0"
   crs:LuminanceAdjustmentOrange="-5"
   crs:LuminanceAdjustmentYellow="-8"
   crs:LuminanceAdjustmentGreen="+5"
   crs:LuminanceAdjustmentAqua="+10"
   crs:LuminanceAdjustmentBlue="+8"
   crs:LuminanceAdjustmentPurple="0"
   crs:LuminanceAdjustmentMagenta="0"
   crs:SplitToningShadowHue="200"
   crs:SplitToningShadowSaturation="15"
   crs:SplitToningHighlightHue="210"
   crs:SplitToningHighlightSaturation="5"
   crs:SplitToningBalance="0"
   crs:ColorGradeMidtoneHue="200"
   crs:ColorGradeMidtoneSat="8"
   crs:ColorGradeShadowHue="210"
   crs:ColorGradeShadowSat="12"
   crs:ColorGradeHighlightHue="195"
   crs:ColorGradeHighlightSat="5"
   crs:ColorGradeShadowLum="-3"
   crs:ColorGradeMidtoneLum="0"
   crs:ColorGradeHighlightLum="+3"
   crs:ColorGradeBlending="50"
   crs:ColorGradeGlobalHue="205"
   crs:ColorGradeGlobalSat="+3"
   crs:ColorGradeGlobalLum="0"
   crs:GrainAmount="8"
   crs:GrainSize="15"
   crs:GrainFrequency="30"
   crs:PostCropVignetteAmount="-10"
   crs:PostCropVignetteMidpoint="65"
   crs:PostCropVignetteFeather="75"
   crs:PostCropVignetteRoundness="0"
   crs:PostCropVignetteStyle="1"
   crs:ShadowTint="-8"
   crs:ToneCurvePV2012="0, 0, 64, 58, 128, 128, 192, 200, 255, 252"
   crs:ToneCurvePV2012Red="0, 0, 255, 245"
   crs:ToneCurvePV2012Green="0, 0, 255, 250"
   crs:ToneCurvePV2012Blue="0, 15, 255, 255"
   crs:CameraProfile="Adobe Color"
   crs:HasSettings="True"
   crs:HasCrop="False"
   crs:AlreadyApplied="False"
   crs:Name="GENE · Chrome v1.0"
   crs:ShortName="GENE Chrome"
   crs:SortName="GENE Chrome"
   crs:Group="Gene Sneakers">
   <crs:Look>
    <rdf:Description
     crs:Name="GENE · Chrome v1.0"
     crs:Amount="1"
     crs:UUID="GENE-CHROME-V1-0-2026042100000000"
     crs:SupportsAmount="false"
     crs:SupportsMonochrome="false"
     crs:SupportsOutputReferred="false"
     crs:Stubbed="true"/>
   </crs:Look>
  </rdf:Description>
 </rdf:RDF>
</x:xmpmeta>
