clientes/tênis/05-filtros/gene-bloom.cube
# GENE · Bloom v1.0 · LUT 3D
# Gene Sneakers — sistema de filtros
# Compatible: CapCut, Premiere, DaVinci, Photoshop, Final Cut
#
TITLE "GENE Bloom v1.0"
LUT_3D_SIZE 9
DOMAIN_MIN 0.0 0.0 0.0
DOMAIN_MAX 1.0 1.0 1.0
0.110530 0.099197 0.104534
0.238789 0.092170 0.097549
0.367048 0.085144 0.090564
0.495307 0.078118 0.083579
0.628407 0.070826 0.076330
0.771324 0.062996 0.068547
0.914242 0.055167 0.060764
1.000000 0.104496 0.109500
1.000000 0.165197 0.169615
0.127397 0.178058 0.124648
0.221544 0.201619 0.104544
0.335293 0.203330 0.106289
0.449041 0.205041 0.108035
0.631445 0.196423 0.079330
0.774359 0.188590 0.071544
0.917274 0.180758 0.063758
0.981268 0.211440 0.103537
1.000000 0.263960 0.171084
0.153459 0.259945 0.150694
0.216799 0.261664 0.152432
0.338526 0.308061 0.109491
0.452274 0.309772 0.111236
0.570316 0.311547 0.113047
0.697065 0.313454 0.114992
0.799819 0.315360 0.114643
0.984251 0.325482 0.107146
1.000000 0.362363 0.174379
0.179522 0.341832 0.176740
0.242862 0.343551 0.178477
0.341758 0.412792 0.112692
0.455507 0.414503 0.114437
0.556844 0.416278 0.113969
0.679901 0.418185 0.115876
0.802957 0.420091 0.117782
0.926014 0.421998 0.119689
1.000000 0.423904 0.121595
0.206569 0.426810 0.203768
0.269908 0.428528 0.205506
0.327207 0.429735 0.205480
0.445497 0.523187 0.115451
0.560101 0.524962 0.117226
0.683158 0.526869 0.119133
0.806214 0.528775 0.121039
0.966442 0.530682 0.118028
1.000000 0.532589 0.119858
0.233156 0.517543 0.231026
0.294666 0.519254 0.232737
0.356175 0.520965 0.234448
0.417685 0.522676 0.236159
0.563598 0.641663 0.120724
0.686655 0.643569 0.122630
0.842100 0.645476 0.119555
0.970079 0.647382 0.121385
1.000000 0.649289 0.123216
0.262124 0.608772 0.259994
0.323634 0.610483 0.261705
0.385143 0.612194 0.263416
0.446653 0.613905 0.265127
0.521842 0.614563 0.263052
0.717759 0.760269 0.121082
0.845738 0.762176 0.122913
0.973717 0.764082 0.124743
1.000000 0.765989 0.126573
0.291092 0.700002 0.288962
0.352602 0.701713 0.290673
0.420595 0.702306 0.288533
0.484519 0.704001 0.290191
0.550856 0.705761 0.291912
0.721396 0.876969 0.124440
0.849375 0.878876 0.126270
0.977354 0.880783 0.128100
1.000000 0.882689 0.129931
0.321762 0.790113 0.314077
0.385685 0.791808 0.315735
0.449609 0.793504 0.317393
0.513533 0.795199 0.319051
0.579869 0.796959 0.320771
0.651098 0.798848 0.322619
0.853012 0.995576 0.129628
0.980991 0.997483 0.131458
1.000000 0.999389 0.133288
0.105208 0.095803 0.206692
0.231101 0.085370 0.218477
0.367727 0.085800 0.219780
0.495986 0.078774 0.212795
0.629086 0.071482 0.205546
0.772003 0.063652 0.197763
0.914920 0.055823 0.189980
1.000000 0.105831 0.224661
1.000000 0.165855 0.266024
0.108441 0.200534 0.209893
0.234869 0.210787 0.222129
0.363128 0.203760 0.215144
0.491387 0.196734 0.208159
0.624487 0.189442 0.200910
0.767405 0.181613 0.193127
0.874071 0.210034 0.220456
0.975143 0.215059 0.220694
1.000000 0.275822 0.280660
0.155232 0.261707 0.211013
0.241391 0.286245 0.235570
0.339171 0.308687 0.216585
0.452919 0.310398 0.218330
0.570961 0.312174 0.220141
0.747456 0.308761 0.192420
0.852125 0.323996 0.218962
0.977746 0.327934 0.224553
1.000000 0.373382 0.284623
0.181301 0.343601 0.237066
0.267454 0.368132 0.261616
0.330793 0.369851 0.263354
0.442866 0.415129 0.217188
0.557470 0.416905 0.218963
0.680527 0.418811 0.220870
0.803584 0.420718 0.222776
0.926640 0.422624 0.224683
1.000000 0.424531 0.226589
0.208355 0.428586 0.264102
0.294500 0.453110 0.288645
0.351316 0.453844 0.286992
0.412826 0.455555 0.288703
0.560727 0.525589 0.222221
0.683784 0.527495 0.224127
0.806841 0.529402 0.226034
0.967093 0.531308 0.218822
1.000000 0.533215 0.220653
0.234654 0.519040 0.289926
0.318775 0.543363 0.314249
0.380284 0.545074 0.315960
0.441794 0.546785 0.317671
0.564225 0.642289 0.225718
0.714773 0.644195 0.218519
0.842752 0.646102 0.220350
0.970731 0.648008 0.222180
1.000000 0.649915 0.224010
0.263622 0.610270 0.318894
0.347743 0.634592 0.343217
0.409252 0.636303 0.344928
0.478683 0.635967 0.339588
0.545020 0.637727 0.341309
0.718410 0.760896 0.221877
0.846389 0.762802 0.223707
0.974368 0.764709 0.225537
1.000000 0.766615 0.227368
0.292590 0.701499 0.347862
0.379850 0.723774 0.365132
0.443773 0.725470 0.366790
0.507697 0.727165 0.368448
0.574033 0.728925 0.370168
0.722047 0.877596 0.225234
0.850026 0.879502 0.227065
0.978005 0.881409 0.228895
1.000000 0.883315 0.230725
0.325551 0.793888 0.372945
0.408863 0.814972 0.393991
0.472787 0.816668 0.395649
0.536710 0.818364 0.397307
0.603047 0.820123 0.399028
0.674276 0.822012 0.400875
0.853663 0.996202 0.230422
0.981642 0.998109 0.232252
1.000000 1.000000 0.234083
0.105853 0.096429 0.313786
0.219601 0.098140 0.315531
0.356700 0.076502 0.337411
0.481652 0.067009 0.327960
0.629765 0.072138 0.334763
0.772682 0.064308 0.326979
0.915599 0.056479 0.319196
1.000000 0.107166 0.339477
1.000000 0.166512 0.364520
0.109086 0.201160 0.316987
0.222834 0.202871 0.318732
0.349783 0.191382 0.330457
0.492066 0.197390 0.337375
0.625166 0.190098 0.330126
0.768083 0.182269 0.322343
0.874701 0.210739 0.337048
0.975732 0.215784 0.333571
1.000000 0.276480 0.377596
0.112318 0.305891 0.320189
0.226067 0.307602 0.321934
0.359208 0.322377 0.339724
0.487467 0.315350 0.332739
0.620568 0.308059 0.325490
0.722699 0.319658 0.328554
0.847704 0.325864 0.334502
0.972047 0.332733 0.341198
1.000000 0.386447 0.393687
0.181942 0.344231 0.296254
0.270482 0.371151 0.323192
0.355385 0.394432 0.346492
0.443492 0.415755 0.322182
0.558096 0.417531 0.323958
0.681153 0.419437 0.325864
0.850379 0.438793 0.338200
0.974447 0.443852 0.345344
1.000000 0.480742 0.384236
0.208996 0.429216 0.323290
0.292285 0.454611 0.345161
0.375425 0.477953 0.368503
0.436935 0.479664 0.370214
0.561353 0.526215 0.327215
0.684410 0.528121 0.329121
0.807467 0.530028 0.331028
0.967745 0.531934 0.319617
1.000000 0.533841 0.321447
0.235280 0.519667 0.347955
0.321253 0.545841 0.374129
0.404393 0.569183 0.397471
0.465903 0.570894 0.399182
0.529734 0.572669 0.400958
0.715424 0.644822 0.319314
0.843403 0.646728 0.321144
0.971382 0.648635 0.322974
1.000000 0.650541 0.324805
0.264248 0.610896 0.376923
0.350221 0.637070 0.403097
0.433361 0.660412 0.426439
0.501861 0.659131 0.417845
0.568198 0.660891 0.419565
0.719061 0.761522 0.322671
0.847040 0.763428 0.324502
0.975019 0.765335 0.326332
1.000000 0.767241 0.328162
0.293216 0.702126 0.405891
0.386516 0.730427 0.426877
0.466951 0.748634 0.445046
0.530875 0.750330 0.446704
0.597211 0.752089 0.448425
0.668441 0.753978 0.450272
0.850677 0.880128 0.327859
0.978656 0.882035 0.329689
1.000000 0.883941 0.331520
0.326197 0.794520 0.428669
0.415593 0.821688 0.455800
0.495965 0.839832 0.473906
0.559888 0.841528 0.475564
0.626225 0.843287 0.477284
0.697454 0.845177 0.479132
0.854315 0.996829 0.331217
0.982294 0.998735 0.333047
1.000000 1.000000 0.334877
0.106498 0.097056 0.420880
0.220246 0.098767 0.422625
0.333995 0.100478 0.424370
0.482299 0.067633 0.456345
0.611968 0.057782 0.446537
0.751200 0.047204 0.436005
0.916278 0.057135 0.448412
1.000000 0.108501 0.453948
1.000000 0.167170 0.462999
0.109731 0.201787 0.424081
0.223479 0.203498 0.425827
0.337228 0.205209 0.427572
0.475382 0.182514 0.449391
0.605051 0.172663 0.439582
0.768762 0.182925 0.451559
0.850563 0.211057 0.444554
0.976322 0.216510 0.446408
1.000000 0.277137 0.474511
0.112963 0.306518 0.427283
0.226712 0.308229 0.429028
0.340461 0.309940 0.430773
0.468465 0.297395 0.442436
0.621246 0.308715 0.454706
0.722826 0.320846 0.445196
0.848317 0.326567 0.447605
0.972628 0.333467 0.452081
1.000000 0.387105 0.488558
0.116196 0.411248 0.430484
0.229945 0.412959 0.432230
0.343693 0.414670 0.433975
0.468509 0.435016 0.448051
0.593472 0.432252 0.444633
0.719723 0.437212 0.448864
0.846756 0.441390 0.452820
0.969271 0.450087 0.461207
1.000000 0.495924 0.490071
0.119551 0.519933 0.433807
0.292911 0.455237 0.403190
0.378883 0.481411 0.429364
0.461044 0.503773 0.451726
0.561980 0.526841 0.432209
0.685036 0.528748 0.434116
0.840417 0.530654 0.418581
1.000000 0.569121 0.458248
1.000000 0.591766 0.493354
0.235906 0.520293 0.405984
0.321879 0.546467 0.432158
0.407851 0.572641 0.458332
0.490012 0.595003 0.480694
0.553843 0.596778 0.482469
0.716075 0.645448 0.420108
0.844054 0.647354 0.421939
0.972033 0.649261 0.423769
1.000000 0.651167 0.425599
0.264874 0.611522 0.434952
0.350847 0.637696 0.461126
0.436819 0.663870 0.487300
0.525039 0.682296 0.496101
0.591376 0.684055 0.497822
0.719712 0.762148 0.423466
0.847691 0.764054 0.425296
0.975670 0.765961 0.427126
1.000000 0.767867 0.428957
0.293842 0.702752 0.463920
0.387162 0.731059 0.482602
0.476558 0.758227 0.509732
0.554053 0.773494 0.524961
0.620389 0.775253 0.526682
0.691618 0.777143 0.528529
0.851329 0.880755 0.428654
0.979308 0.882661 0.430484
1.000000 0.884568 0.432314
0.326842 0.795152 0.484394
0.416238 0.822320 0.511524
0.505634 0.849488 0.538654
0.583066 0.864692 0.553821
0.649403 0.866451 0.555541
0.720632 0.868341 0.557389
0.791861 0.870230 0.559236
0.982945 0.999361 0.433841
1.000000 1.000000 0.435672
0.107167 0.097706 0.532017
0.220916 0.099417 0.533762
0.334664 0.101128 0.535507
0.448413 0.102838 0.537252
0.612639 0.058430 0.579769
0.751872 0.047852 0.569237
0.891104 0.037275 0.558705
1.000000 0.029460 0.538109
1.000000 0.167852 0.565178
0.110400 0.202436 0.535218
0.224149 0.204147 0.536963
0.337897 0.205858 0.538708
0.451646 0.207569 0.540454
0.605722 0.173311 0.572814
0.744955 0.162733 0.562282
0.857814 0.154553 0.541297
0.976933 0.217263 0.563462
1.000000 0.277820 0.575062
0.113633 0.307167 0.538419
0.227381 0.308878 0.540165
0.341130 0.310589 0.541910
0.454879 0.312300 0.543655
0.580449 0.289860 0.554694
0.715621 0.279652 0.544485
0.848952 0.327296 0.564936
0.973231 0.334228 0.567093
1.000000 0.387787 0.586980
0.116866 0.411898 0.541621
0.230614 0.413609 0.543366
0.334333 0.415320 0.534423
0.444768 0.417031 0.536134
0.573429 0.404750 0.547673
0.720381 0.437918 0.566462
0.847390 0.442121 0.568193
0.969863 0.450859 0.573503
1.000000 0.497755 0.582939
0.116719 0.520582 0.534258
0.227154 0.522293 0.535969
0.337590 0.524004 0.537680
0.448025 0.525715 0.539391
0.591308 0.553319 0.568104
0.720829 0.555009 0.569518
0.879428 0.561398 0.553058
1.000000 0.576749 0.568786
1.000000 0.610124 0.603183
0.120216 0.637283 0.537755
0.230652 0.638994 0.539466
0.408501 0.573291 0.518551
0.494474 0.599465 0.544725
0.586415 0.616895 0.550173
0.716751 0.646098 0.524708
0.844730 0.648004 0.526538
0.972709 0.649911 0.528368
1.000000 0.651817 0.530198
0.265524 0.612172 0.495171
0.351497 0.638346 0.521345
0.448151 0.667621 0.538637
0.537547 0.694789 0.565767
0.615428 0.708094 0.579032
0.720388 0.762798 0.528065
0.848367 0.764704 0.529895
0.976346 0.766611 0.531726
1.000000 0.768517 0.533556
0.298436 0.704547 0.513299
0.387832 0.731715 0.540429
0.477228 0.758882 0.567560
0.566624 0.786050 0.594690
0.644442 0.799292 0.607892
0.715671 0.801181 0.609739
0.852004 0.881404 0.533253
0.979983 0.883311 0.535083
1.000000 0.885218 0.536913
0.327512 0.795808 0.542222
0.416908 0.822976 0.569352
0.506304 0.850143 0.596482
0.595700 0.877311 0.623612
0.673455 0.890490 0.636752
0.744685 0.892379 0.638599
0.815914 0.894268 0.640446
0.983621 1.000000 0.538440
1.000000 1.000000 0.540271
0.107886 0.098403 0.651350
0.221634 0.100114 0.653095
0.335383 0.101825 0.654840
0.449132 0.103536 0.656586
0.567174 0.105312 0.658397
0.752593 0.048548 0.712296
0.891825 0.037970 0.701764
1.000000 0.030856 0.678126
1.000000 0.112938 0.653113
0.111119 0.203134 0.654551
0.224867 0.204845 0.656297
0.338616 0.206556 0.658042
0.452364 0.208267 0.659787
0.570407 0.210043 0.661598
0.723340 0.165459 0.691759
0.858511 0.155251 0.681550
0.993683 0.145042 0.671342
1.000000 0.217669 0.656252
0.114351 0.307865 0.657753
0.228100 0.309576 0.659498
0.341849 0.311287 0.661243
0.455597 0.312998 0.662988
0.556931 0.314774 0.651764
0.716319 0.280349 0.684738
0.851491 0.270141 0.674530
0.986663 0.259932 0.664321
1.000000 0.388520 0.692627
0.117584 0.412596 0.660954
0.231333 0.414307 0.662700
0.335031 0.416018 0.651416
0.445466 0.417729 0.653127
0.560070 0.419505 0.654903
0.709298 0.395240 0.677718
0.844470 0.385031 0.667509
1.000000 0.461216 0.669262
1.000000 0.498487 0.681364
0.117417 0.521280 0.651252
0.227852 0.522991 0.652963
0.338288 0.524702 0.654674
0.448723 0.526413 0.656385
0.563327 0.528189 0.658160
0.702013 0.514466 0.670432
0.879858 0.562653 0.668614
1.000000 0.578891 0.678801
1.000000 0.612605 0.698850
0.120914 0.637980 0.654749
0.231350 0.639691 0.656460
0.341785 0.641402 0.658171
0.452221 0.643113 0.659882
0.589498 0.644889 0.635191
0.752520 0.679764 0.669703
0.880962 0.687258 0.677561
0.998728 0.705123 0.696095
1.000000 0.732343 0.724638
0.124411 0.754681 0.658246
0.234847 0.756391 0.659957
0.448871 0.668326 0.600730
0.538267 0.695493 0.627860
0.631037 0.723687 0.656015
0.712484 0.735794 0.668080
0.849093 0.765402 0.642209
0.977072 0.767309 0.644039
1.000000 0.769215 0.645870
0.299155 0.705251 0.575392
0.388551 0.732419 0.602522
0.477947 0.759587 0.629653
0.567343 0.786754 0.656783
0.660113 0.814948 0.684937
0.741498 0.826992 0.696940
0.852730 0.882102 0.645567
0.980709 0.884009 0.647397
1.000000 0.885915 0.649227
0.328232 0.796512 0.604315
0.417628 0.823680 0.631445
0.507024 0.850848 0.658575
0.596420 0.878015 0.685705
0.689190 0.906209 0.713860
0.770511 0.918190 0.725799
0.841741 0.920080 0.727647
0.984346 1.000000 0.650754
1.000000 1.000000 0.652585
0.108605 0.099101 0.770684
0.222353 0.100812 0.772429
0.336102 0.102523 0.774174
0.449850 0.104234 0.775919
0.567892 0.106010 0.777730
0.694641 0.107916 0.779675
0.892546 0.038666 0.844822
1.000000 0.032251 0.817741
1.000000 0.113636 0.770107
0.111837 0.203832 0.773885
0.225586 0.205543 0.775630
0.339335 0.207254 0.777375
0.453083 0.208965 0.779121
0.571125 0.210741 0.780932
0.677547 0.212647 0.767526
0.859209 0.155949 0.821803
0.994381 0.145740 0.811594
1.000000 0.218367 0.773245
0.115070 0.308563 0.777086
0.228819 0.310274 0.778832
0.342567 0.311985 0.780577
0.443025 0.313696 0.766982
0.557629 0.315471 0.768758
0.680686 0.317378 0.770664
0.852189 0.270839 0.814782
0.987360 0.260630 0.804574
1.000000 0.323098 0.776384
0.118303 0.413294 0.780288
0.232052 0.415005 0.782033
0.335728 0.416716 0.768410
0.446164 0.418427 0.770121
0.560768 0.420202 0.771897
0.683825 0.422109 0.773803
0.845168 0.385729 0.807762
1.000000 0.393058 0.752582
1.000000 0.427828 0.748342
0.118114 0.521978 0.768245
0.228550 0.523689 0.769956
0.338985 0.525400 0.771667
0.449421 0.527111 0.773378
0.564025 0.528886 0.775154
0.714565 0.530793 0.745978
0.873529 0.501715 0.759845
1.000000 0.580386 0.787376
1.000000 0.613338 0.792664
0.121612 0.638678 0.771743
0.232047 0.640389 0.773454
0.342483 0.642100 0.775165
0.471035 0.643811 0.745800
0.590223 0.645587 0.747505
0.718202 0.647493 0.749335
0.865859 0.629721 0.751841
0.998727 0.708013 0.799579
1.000000 0.735873 0.813266
0.125109 0.755378 0.775240
0.244966 0.757089 0.745873
0.359819 0.758800 0.747515
0.474672 0.760511 0.749158
0.593861 0.762287 0.750863
0.731369 0.754664 0.748338
0.885965 0.809208 0.798594
0.996230 0.833658 0.824628
1.000000 0.853558 0.846093
0.133751 0.872078 0.747588
0.248604 0.873789 0.749230
0.363457 0.875500 0.750873
0.568063 0.787459 0.718876
0.660833 0.815652 0.747030
0.760446 0.845925 0.777261
0.853456 0.882800 0.757881
0.981435 0.884707 0.759711
1.000000 0.886613 0.761541
0.328951 0.797216 0.666407
0.418347 0.824384 0.693538
0.507743 0.851552 0.720668
0.597139 0.878720 0.747798
0.689909 0.906913 0.775953
0.789522 0.937186 0.806183
0.867567 0.945891 0.814847
0.985072 1.000000 0.763068
1.000000 1.000000 0.764899
0.109323 0.099799 0.890017
0.223072 0.101510 0.891762
0.336820 0.103221 0.893507
0.450569 0.104932 0.895253
0.568611 0.106707 0.897064
0.695360 0.108614 0.899008
0.798163 0.110520 0.883287
1.000000 0.033647 0.956956
1.000000 0.114333 0.887100
0.112556 0.204530 0.893218
0.226305 0.206241 0.894964
0.340053 0.207952 0.896709
0.453802 0.209663 0.898454
0.571844 0.211438 0.900265
0.678245 0.213345 0.884519
0.801302 0.215251 0.886426
0.995079 0.146438 0.951847
1.000000 0.219064 0.890239
0.115789 0.309261 0.896420
0.229537 0.310972 0.898165
0.343286 0.312683 0.899910
0.443723 0.314394 0.883976
0.558327 0.316169 0.885752
0.681384 0.318076 0.887658
0.804440 0.319982 0.889565
0.988058 0.261328 0.944827
1.000000 0.323795 0.857643
0.119022 0.413992 0.899621
0.225991 0.415703 0.883693
0.336426 0.417414 0.885404
0.446862 0.419125 0.887115
0.561466 0.420900 0.888890
0.684522 0.422807 0.890797
0.807579 0.424713 0.892703
1.000000 0.394481 0.878015
1.000000 0.428526 0.860656
0.118812 0.522676 0.885239
0.229248 0.524387 0.886950
0.339683 0.526098 0.888661
0.450119 0.527809 0.890372
0.564723 0.529584 0.892147
0.715291 0.531491 0.858292
0.843270 0.533397 0.860122
1.000000 0.506553 0.876287
1.000000 0.537210 0.863782
0.122310 0.639376 0.888736
0.232745 0.641087 0.890447
0.343181 0.642798 0.892158
0.471761 0.644509 0.858114
0.590949 0.646284 0.859819
0.718928 0.648191 0.861649
0.846907 0.650097 0.863479
1.000000 0.626890 0.873378
1.000000 0.653910 0.867140
0.125807 0.756076 0.892234
0.245692 0.757787 0.858187
0.360545 0.759498 0.859829
0.475398 0.761209 0.861472
0.594586 0.762985 0.863176
0.722565 0.764891 0.865007
0.850544 0.766798 0.866837
0.996244 0.838345 0.913572
1.000000 0.859141 0.920478
0.134476 0.872776 0.859902
0.249329 0.874487 0.861544
0.364182 0.876198 0.863187
0.479035 0.877909 0.864829
0.598224 0.879685 0.866534
0.726203 0.881591 0.868364
0.860778 0.876902 0.869585
0.996511 0.955987 0.950383
1.000000 0.971009 0.967548
0.138114 0.989476 0.863259
0.252967 0.991187 0.864902
0.367820 0.992898 0.866544
0.482673 0.994609 0.868187
0.690629 0.907617 0.838046
0.790241 0.937890 0.868276
0.889810 0.968009 0.898463
0.985798 1.000000 0.875382
1.000000 1.000000 0.877212
0.110042 0.100497 1.000000
0.223791 0.102208 1.000000
0.337539 0.103919 1.000000
0.451288 0.105630 1.000000
0.569330 0.107405 1.000000
0.696078 0.109312 1.000000
0.798861 0.111218 1.000000
0.921918 0.113125 1.000000
1.000000 0.115031 1.000000
0.113275 0.205228 1.000000
0.227023 0.206939 1.000000
0.340772 0.208650 1.000000
0.454521 0.210361 1.000000
0.555886 0.212136 0.999606
0.678943 0.214043 1.000000
0.802000 0.215949 1.000000
0.925056 0.217856 1.000000
1.000000 0.219762 1.000000
0.116508 0.309958 1.000000
0.230256 0.311669 1.000000
0.344005 0.313380 1.000000
0.444421 0.315091 1.000000
0.559025 0.316867 1.000000
0.682082 0.318774 1.000000
0.805138 0.320680 1.000000
0.928195 0.322587 1.000000
1.000000 0.324493 0.969956
0.119740 0.414689 1.000000
0.226688 0.416400 1.000000
0.337124 0.418111 1.000000
0.447559 0.419822 1.000000
0.562163 0.421598 1.000000
0.685220 0.423504 1.000000
0.840608 0.425411 0.969309
0.968587 0.427317 0.971139
1.000000 0.429224 0.972970
0.119510 0.523373 1.000000
0.229946 0.525084 1.000000
0.340381 0.526795 1.000000
0.450817 0.528506 1.000000
0.565421 0.530282 1.000000
0.716016 0.532189 0.970606
0.843995 0.534095 0.972436
0.971974 0.536002 0.974266
1.000000 0.537908 0.976096
0.123007 0.640074 1.000000
0.233443 0.641785 1.000000
0.343878 0.643496 1.000000
0.472487 0.645207 0.970428
0.591675 0.646982 0.972133
0.719654 0.648889 0.973963
0.847633 0.650795 0.975793
0.975612 0.652702 0.977624
1.000000 0.654608 0.979454
0.126505 0.756774 1.000000
0.246418 0.758485 0.970501
0.361271 0.760196 0.972143
0.476124 0.761907 0.973786
0.595312 0.763682 0.975490
0.723291 0.765589 0.977321
0.851270 0.767495 0.979151
0.979249 0.769402 0.980981
1.000000 0.771308 0.982811
0.135202 0.873474 0.972216
0.250055 0.875185 0.973858
0.364908 0.876896 0.975501
0.479761 0.878607 0.977143
0.598949 0.880383 0.978848
0.726928 0.882289 0.980678
0.854907 0.884196 0.982508
0.982886 0.886102 0.984339
1.000000 0.888009 0.986169
0.138839 0.990174 0.975573
0.253692 0.991885 0.977216
0.368545 0.993596 0.978858
0.483398 0.995307 0.980501
0.602586 0.997083 0.982205
0.730565 0.998989 0.984035
0.858544 1.000000 0.985866
0.989556 0.996968 0.990201
1.000000 1.000000 0.989526
