clientes/tênis/05-filtros/gene-chrome.cube
# GENE · Chrome v1.0 · LUT 3D
# Gene Sneakers — sistema de filtros
# Compatible: CapCut, Premiere, DaVinci, Photoshop, Final Cut
#
TITLE "GENE Chrome v1.0"
LUT_3D_SIZE 33
DOMAIN_MIN 0.0 0.0 0.0
DOMAIN_MAX 1.0 1.0 1.0
0.000000 0.000000 0.000000
0.000000 0.000000 0.000000
0.012969 0.004323 0.004323
0.027902 0.009301 0.009301
0.042835 0.014278 0.014278
0.057769 0.019256 0.019256
0.072702 0.024234 0.024234
0.107706 0.035902 0.035902
0.125918 0.041973 0.041973
0.144129 0.048396 0.048043
0.162891 0.056424 0.055766
0.181819 0.064618 0.063987
0.200748 0.072812 0.072209
0.219676 0.081006 0.080431
0.238605 0.089200 0.088653
0.257533 0.097395 0.096874
0.276462 0.105589 0.105096
0.294567 0.113427 0.112961
0.312673 0.121265 0.120825
0.330778 0.129103 0.128689
0.348884 0.136940 0.136553
0.366989 0.144778 0.144418
0.385095 0.152616 0.152282
0.403200 0.160454 0.160146
0.421306 0.168292 0.168011
0.439411 0.176130 0.175875
0.494901 0.200152 0.199978
0.514455 0.208617 0.208471
0.534009 0.217082 0.216965
0.553563 0.225547 0.225458
0.562714 0.229508 0.229433
0.562714 0.229508 0.229433
0.562714 0.229508 0.229433
0.000000 0.000058 0.000000
0.002155 0.002364 0.000000
0.016549 0.007852 0.005516
0.031483 0.013983 0.010494
0.046416 0.020115 0.015472
0.061349 0.026246 0.020450
0.076283 0.032377 0.025428
0.111287 0.046749 0.037096
0.129856 0.054584 0.044240
0.148785 0.062778 0.052461
0.167713 0.070972 0.060683
0.186642 0.079166 0.068905
0.205570 0.087360 0.077127
0.224498 0.095555 0.085348
0.243427 0.103749 0.093570
0.262355 0.111943 0.101792
0.281284 0.120137 0.110014
0.299389 0.127975 0.117878
0.317495 0.135813 0.125742
0.335600 0.143651 0.133607
0.353706 0.151489 0.141471
0.371811 0.159327 0.149335
0.389917 0.167165 0.157200
0.408022 0.175003 0.165064
0.426128 0.182841 0.172928
0.444233 0.190679 0.180793
0.499723 0.214700 0.204895
0.519277 0.223165 0.213389
0.538831 0.231630 0.221882
0.558385 0.240095 0.230376
0.567536 0.244057 0.234351
0.567536 0.244057 0.234351
0.567536 0.244057 0.234351
0.000000 0.024285 0.000000
0.006929 0.026592 0.000000
0.026840 0.028899 0.000000
0.032726 0.026508 0.014025
0.046664 0.033404 0.019999
0.060601 0.040300 0.025972
0.074539 0.047196 0.031945
0.108268 0.064419 0.048417
0.134678 0.069132 0.049157
0.153607 0.077326 0.057379
0.172535 0.085521 0.065601
0.191464 0.093715 0.073822
0.210392 0.101909 0.082044
0.229320 0.110103 0.090266
0.248249 0.118297 0.098488
0.267177 0.126492 0.106710
0.286106 0.134686 0.114931
0.304211 0.142524 0.122796
0.322317 0.150362 0.130660
0.340422 0.158199 0.138524
0.358528 0.166037 0.146389
0.376633 0.173875 0.154253
0.394739 0.181713 0.162117
0.412844 0.189551 0.169981
0.430950 0.197389 0.177846
0.449055 0.205227 0.185710
0.504545 0.229249 0.209813
0.524099 0.237714 0.218306
0.543653 0.246179 0.226800
0.563207 0.254644 0.235293
0.572358 0.258605 0.239268
0.572358 0.258605 0.239268
0.572358 0.258605 0.239268
0.000000 0.048512 0.000000
0.011703 0.050819 0.000000
0.031614 0.053126 0.000000
0.051526 0.055433 0.000000
0.071437 0.057739 0.000000
0.064132 0.051611 0.027844
0.078775 0.059213 0.035464
0.113100 0.077032 0.053325
0.130958 0.086302 0.062617
0.148815 0.095572 0.071910
0.166673 0.104843 0.081202
0.184531 0.114113 0.090495
0.215214 0.116457 0.086962
0.234142 0.124652 0.095183
0.253071 0.132846 0.103405
0.271999 0.141040 0.111627
0.290928 0.149234 0.119849
0.309033 0.157072 0.127713
0.327139 0.164910 0.135577
0.345244 0.172748 0.143442
0.363350 0.180586 0.151306
0.381455 0.188424 0.159170
0.399561 0.196262 0.167035
0.417666 0.204100 0.174899
0.435772 0.211938 0.182763
0.453877 0.219776 0.190628
0.509367 0.243797 0.214730
0.528921 0.252262 0.223224
0.548475 0.260727 0.231717
0.581054 0.267123 0.236540
0.590439 0.271056 0.240485
0.590439 0.271056 0.240485
0.590439 0.271056 0.240485
0.000000 0.072739 0.000000
0.016478 0.075046 0.000000
0.036389 0.077353 0.000000
0.056300 0.079660 0.000889
0.076211 0.081967 0.003241
0.096122 0.084274 0.005593
0.083607 0.071826 0.040372
0.117931 0.089644 0.058233
0.135789 0.098915 0.067525
0.153647 0.108185 0.076818
0.171505 0.117456 0.086110
0.189363 0.126726 0.095402
0.207220 0.135996 0.104695
0.225078 0.145267 0.113987
0.242936 0.154537 0.123280
0.276821 0.155589 0.116545
0.295750 0.163783 0.124766
0.313855 0.171621 0.132631
0.331961 0.179459 0.140495
0.350066 0.187296 0.148359
0.368172 0.195134 0.156224
0.386277 0.202972 0.164088
0.404383 0.210810 0.171952
0.422488 0.218648 0.179816
0.440594 0.226486 0.187681
0.458699 0.234324 0.195545
0.514189 0.258346 0.219648
0.545210 0.264780 0.224026
0.565262 0.273184 0.232455
0.585314 0.281588 0.240884
0.594698 0.285521 0.244829
0.594698 0.285521 0.244829
0.594698 0.285521 0.244829
0.001341 0.096966 0.000000
0.021252 0.099273 0.001150
0.041163 0.101580 0.003502
0.061074 0.103887 0.005854
0.080985 0.106194 0.008206
0.100896 0.108501 0.010558
0.120807 0.110808 0.012910
0.122763 0.102257 0.063141
0.140621 0.111528 0.072433
0.158479 0.120798 0.081726
0.176336 0.130068 0.091018
0.194194 0.139339 0.100310
0.212052 0.148609 0.109603
0.229910 0.157879 0.118895
0.247768 0.167150 0.128188
0.265625 0.176420 0.137480
0.283483 0.185691 0.146773
0.300564 0.194558 0.155661
0.317646 0.203425 0.164549
0.354888 0.201845 0.153277
0.372994 0.209683 0.161141
0.391099 0.217521 0.169005
0.409205 0.225359 0.176870
0.427310 0.233197 0.184734
0.445416 0.241035 0.192598
0.463521 0.248872 0.200463
0.529417 0.270840 0.219941
0.549469 0.279244 0.228370
0.569521 0.287648 0.236799
0.589573 0.296052 0.245228
0.598958 0.299985 0.249173
0.598958 0.299985 0.249173
0.598958 0.299985 0.249173
0.006115 0.121194 0.003763
0.026026 0.123500 0.006115
0.045937 0.125807 0.008467
0.065848 0.128114 0.010819
0.085760 0.130421 0.013172
0.105671 0.132728 0.015524
0.125582 0.135035 0.017876
0.172254 0.140442 0.023389
0.145452 0.124140 0.077341
0.163310 0.133411 0.086634
0.181168 0.142681 0.095926
0.199026 0.151951 0.105218
0.216884 0.161222 0.114511
0.234741 0.170492 0.123803
0.252599 0.179763 0.133096
0.270457 0.189033 0.142388
0.288315 0.198303 0.151681
0.305396 0.207171 0.160569
0.322477 0.216038 0.169457
0.339559 0.224905 0.178346
0.356640 0.233773 0.187234
0.373721 0.242640 0.196123
0.390803 0.251507 0.205011
0.432132 0.247745 0.189651
0.450238 0.255583 0.197516
0.468343 0.263421 0.205380
0.533677 0.285305 0.224285
0.553729 0.293708 0.232714
0.573781 0.302112 0.241143
0.593832 0.310516 0.249572
0.603217 0.314449 0.253517
0.603217 0.314449 0.253517
0.603217 0.314449 0.253517
0.017306 0.177983 0.015402
0.037217 0.180290 0.017754
0.057129 0.182597 0.020106
0.077040 0.184904 0.022458
0.096951 0.187211 0.024810
0.116862 0.189518 0.027162
0.136773 0.191825 0.029515
0.183445 0.197232 0.035028
0.207727 0.200045 0.037896
0.232009 0.202859 0.040765
0.256291 0.205672 0.043633
0.210351 0.181516 0.116723
0.228209 0.190787 0.126015
0.246067 0.200057 0.135308
0.263925 0.209327 0.144600
0.281782 0.218598 0.153893
0.299640 0.227868 0.163185
0.316722 0.236735 0.172074
0.333803 0.245603 0.180962
0.350884 0.254470 0.189850
0.367966 0.263337 0.198739
0.385047 0.272205 0.207627
0.406665 0.279433 0.211526
0.424155 0.288295 0.220406
0.441646 0.297157 0.229287
0.459136 0.306019 0.238168
0.512741 0.333180 0.265386
0.531631 0.342752 0.274978
0.550521 0.352323 0.284569
0.603817 0.344421 0.259754
0.613201 0.348354 0.263699
0.613201 0.348354 0.263699
0.613201 0.348354 0.263699
0.023129 0.207529 0.021457
0.043040 0.209836 0.023809
0.062951 0.212142 0.026161
0.082862 0.214449 0.028513
0.102773 0.216756 0.030866
0.122684 0.219063 0.033218
0.142595 0.221370 0.035570
0.189268 0.226777 0.041083
0.213549 0.229591 0.043952
0.237831 0.232404 0.046820
0.262113 0.235217 0.049688
0.286395 0.238030 0.052557
0.234101 0.206168 0.132001
0.251959 0.215438 0.141293
0.269817 0.224709 0.150586
0.287675 0.233979 0.159878
0.305532 0.243250 0.169170
0.322614 0.252117 0.178059
0.339695 0.260984 0.186947
0.359398 0.268007 0.190170
0.376889 0.276869 0.199051
0.394379 0.285731 0.207932
0.411870 0.294594 0.216813
0.429360 0.303456 0.225693
0.446851 0.312318 0.234574
0.464341 0.321180 0.243455
0.517946 0.348341 0.270673
0.536836 0.357912 0.280265
0.555726 0.367483 0.289856
0.573541 0.373729 0.296941
0.582368 0.378185 0.301397
0.582368 0.378185 0.301397
0.582368 0.378185 0.301397
0.028951 0.237074 0.027512
0.048862 0.239381 0.029864
0.068773 0.241688 0.032216
0.088684 0.243995 0.034569
0.108595 0.246302 0.036921
0.128506 0.248608 0.039273
0.148417 0.250915 0.041625
0.195090 0.256323 0.047138
0.219372 0.259136 0.050007
0.243653 0.261949 0.052875
0.267935 0.264763 0.055744
0.292217 0.267576 0.058612
0.316499 0.270389 0.061481
0.340781 0.273202 0.064349
0.275709 0.240090 0.156571
0.293567 0.249361 0.165863
0.311424 0.258631 0.175156
0.329622 0.265443 0.177695
0.347113 0.274305 0.186576
0.364603 0.283168 0.195457
0.382094 0.292030 0.204338
0.399584 0.300892 0.213219
0.417075 0.309754 0.222100
0.434565 0.318616 0.230980
0.452055 0.327479 0.239861
0.469546 0.336341 0.248742
0.523151 0.363502 0.275960
0.540965 0.369551 0.283043
0.559825 0.379072 0.292564
0.578684 0.388592 0.302084
0.587511 0.393048 0.306540
0.587511 0.393048 0.306540
0.587511 0.393048 0.306540
0.034773 0.266619 0.033567
0.054684 0.268926 0.035920
0.074595 0.271233 0.038272
0.094507 0.273540 0.040624
0.114418 0.275847 0.042976
0.134329 0.278154 0.045328
0.154240 0.280461 0.047680
0.200912 0.285868 0.053194
0.225194 0.288681 0.056062
0.249476 0.291495 0.058930
0.273758 0.294308 0.061799
0.298039 0.297121 0.064667
0.322321 0.299934 0.067536
0.346603 0.302748 0.070404
0.370885 0.305561 0.073273
0.299051 0.262477 0.164817
0.317337 0.271742 0.174102
0.334827 0.280604 0.182983
0.352317 0.289466 0.191863
0.369808 0.298328 0.200744
0.387298 0.307191 0.209625
0.404789 0.316053 0.218506
0.422279 0.324915 0.227387
0.439770 0.333777 0.236268
0.457260 0.342639 0.245148
0.474751 0.351501 0.254029
0.527249 0.374893 0.278665
0.546109 0.384414 0.288186
0.564968 0.393935 0.297707
0.583827 0.403456 0.307227
0.592654 0.407912 0.311683
0.592654 0.407912 0.311683
0.592654 0.407912 0.311683
0.040596 0.296165 0.039623
0.060507 0.298472 0.041975
0.080418 0.300779 0.044327
0.100329 0.303085 0.046679
0.120240 0.305392 0.049031
0.140151 0.307699 0.051383
0.160062 0.310006 0.053735
0.206734 0.315413 0.059249
0.231016 0.318227 0.062117
0.255298 0.321040 0.064986
0.279580 0.323853 0.067854
0.303862 0.326667 0.070723
0.328143 0.329480 0.073591
0.354797 0.333353 0.064423
0.379833 0.335838 0.066957
0.404870 0.338324 0.069491
0.429906 0.340809 0.072024
0.340032 0.295765 0.188270
0.357522 0.304627 0.197150
0.375013 0.313489 0.206031
0.392503 0.322351 0.214912
0.409994 0.331213 0.223793
0.427484 0.340076 0.232674
0.444974 0.348938 0.241555
0.461410 0.353923 0.247974
0.478873 0.362739 0.256790
0.532392 0.389757 0.283808
0.551252 0.399278 0.293329
0.570111 0.408798 0.302850
0.588971 0.418319 0.312371
0.597797 0.422775 0.316826
0.597797 0.422775 0.316826
0.597797 0.422775 0.316826
0.046418 0.325710 0.045678
0.066329 0.328017 0.048030
0.086240 0.330324 0.050382
0.106151 0.332631 0.052734
0.126062 0.334938 0.055086
0.145973 0.337245 0.057438
0.165884 0.339551 0.059791
0.212557 0.344959 0.065304
0.236839 0.347772 0.068172
0.261120 0.350585 0.071041
0.285402 0.353399 0.073909
0.309868 0.358416 0.064704
0.334904 0.360901 0.067238
0.359940 0.363386 0.069772
0.384976 0.365871 0.072306
0.410013 0.368356 0.074839
0.435049 0.370841 0.077373
0.458996 0.373218 0.079797
0.362727 0.319787 0.202437
0.380217 0.328650 0.211318
0.397708 0.337512 0.220199
0.415198 0.346374 0.229080
0.431628 0.351155 0.235486
0.449091 0.359971 0.244302
0.466553 0.368786 0.253117
0.484016 0.377602 0.261933
0.537535 0.404620 0.288951
0.556395 0.414141 0.298472
0.575254 0.423662 0.307993
0.594114 0.433183 0.317514
0.602940 0.437639 0.321969
0.602940 0.437639 0.321969
0.602940 0.437639 0.321969
0.052240 0.355256 0.051733
0.072151 0.357562 0.054085
0.092062 0.359869 0.056437
0.111973 0.362176 0.058789
0.131884 0.364483 0.061141
0.151796 0.366790 0.063494
0.171707 0.369097 0.065846
0.218379 0.374504 0.071359
0.242661 0.377318 0.074228
0.264938 0.383479 0.064985
0.289975 0.385964 0.067519
0.315011 0.388449 0.070053
0.340047 0.390934 0.072587
0.365083 0.393419 0.075121
0.390119 0.395904 0.077654
0.415156 0.398389 0.080188
0.440192 0.400874 0.082722
0.464139 0.403251 0.085145
0.488087 0.405628 0.087569
0.512035 0.408005 0.089993
0.401846 0.348388 0.222998
0.419309 0.357203 0.231814
0.436771 0.366019 0.240629
0.454234 0.374834 0.249445
0.471696 0.383650 0.258260
0.489159 0.392465 0.267076
0.542678 0.419484 0.294094
0.561538 0.429004 0.303615
0.580397 0.438525 0.313136
0.599257 0.448046 0.322657
0.608083 0.452502 0.327112
0.608083 0.452502 0.327112
0.608083 0.452502 0.327112
0.058063 0.384801 0.057788
0.077974 0.387108 0.060140
0.097885 0.389415 0.062492
0.117796 0.391722 0.064845
0.137707 0.394028 0.067197
0.157618 0.396335 0.069549
0.177529 0.398642 0.071901
0.220009 0.408542 0.065267
0.245045 0.411027 0.067800
0.270081 0.413512 0.070334
0.295118 0.415997 0.072868
0.320154 0.418482 0.075402
0.345190 0.420967 0.077935
0.370226 0.423452 0.080469
0.395262 0.425937 0.083003
0.420299 0.428422 0.085537
0.445335 0.430907 0.088071
0.469283 0.433284 0.090494
0.493230 0.427119 0.089344
0.517178 0.429449 0.091674
0.541126 0.431780 0.094005
0.424452 0.372067 0.236957
0.441914 0.380882 0.245772
0.459377 0.389698 0.254588
0.476839 0.398513 0.263403
0.494302 0.407329 0.272219
0.547821 0.434347 0.299237
0.566681 0.443868 0.308758
0.585540 0.453389 0.318279
0.604400 0.462910 0.327800
0.613226 0.467365 0.332256
0.613226 0.467365 0.332256
0.613226 0.467365 0.332256
0.063885 0.414346 0.063843
0.083796 0.416653 0.066196
0.103707 0.418960 0.068548
0.123618 0.421267 0.070900
0.143529 0.423574 0.073252
0.156500 0.431760 0.063667
0.177030 0.433798 0.065745
0.225152 0.438574 0.070615
0.250188 0.441060 0.073149
0.275224 0.443545 0.075683
0.300261 0.446030 0.078217
0.325297 0.448515 0.080750
0.350333 0.451000 0.083284
0.375369 0.453485 0.085818
0.400405 0.455970 0.088352
0.425442 0.449466 0.087390
0.450478 0.451902 0.089826
0.474426 0.454232 0.092157
0.498373 0.456563 0.094487
0.522321 0.458893 0.096818
0.546269 0.461224 0.099148
0.570216 0.463554 0.101478
0.447057 0.395746 0.250915
0.464520 0.404561 0.259731
0.481982 0.413377 0.268546
0.499445 0.422192 0.277362
0.552964 0.449210 0.304380
0.571824 0.458731 0.313901
0.590683 0.468252 0.323422
0.609543 0.477773 0.332943
0.618369 0.482229 0.337399
0.618369 0.482229 0.337399
0.618369 0.482229 0.337399
0.069707 0.443892 0.069899
0.089618 0.446199 0.072251
0.109529 0.448505 0.074603
0.120584 0.457718 0.064861
0.141113 0.459755 0.066938
0.161643 0.461793 0.069016
0.182173 0.463831 0.071094
0.230295 0.468607 0.075964
0.255331 0.471092 0.078498
0.280368 0.473577 0.081032
0.305404 0.476063 0.083565
0.330440 0.478548 0.086099
0.355476 0.481033 0.088633
0.380512 0.474037 0.087660
0.405549 0.476473 0.090097
0.430585 0.478910 0.092533
0.455621 0.481346 0.094969
0.479569 0.483676 0.097300
0.503516 0.486007 0.099630
0.527464 0.488337 0.101961
0.551412 0.490668 0.104291
0.575359 0.492998 0.106621
0.599307 0.495328 0.108952
0.623255 0.497659 0.111282
0.487125 0.428240 0.273689
0.504588 0.437056 0.282505
0.558107 0.464074 0.309523
0.576967 0.473595 0.319044
0.595826 0.483116 0.328565
0.614686 0.492636 0.338086
0.623512 0.497092 0.342542
0.623512 0.497092 0.342542
0.623512 0.497092 0.342542
0.063914 0.480331 0.063744
0.084444 0.482369 0.065822
0.104973 0.484407 0.067899
0.125503 0.486445 0.069977
0.146033 0.488482 0.072055
0.166562 0.490520 0.074132
0.187092 0.492558 0.076210
0.235215 0.497334 0.081080
0.260251 0.499819 0.083614
0.285287 0.502305 0.086148
0.310323 0.504790 0.088682
0.335359 0.497328 0.087707
0.360396 0.499764 0.090143
0.385432 0.502201 0.092580
0.410468 0.504637 0.095016
0.435504 0.507073 0.097452
0.460540 0.509510 0.099889
0.484488 0.511840 0.102219
0.508436 0.514171 0.104550
0.532383 0.516501 0.106880
0.556331 0.518831 0.109210
0.580279 0.521162 0.111541
0.604226 0.523492 0.113871
0.628174 0.525823 0.116202
0.652122 0.528153 0.118532
0.509507 0.451273 0.287424
0.563027 0.478291 0.314443
0.581886 0.487812 0.323963
0.600746 0.497333 0.333484
0.619605 0.506854 0.343005
0.628432 0.511309 0.347461
0.628432 0.511309 0.347461
0.628432 0.511309 0.347461
0.068833 0.509058 0.068860
0.089363 0.511096 0.070938
0.109893 0.513134 0.073015
0.130422 0.515172 0.075093
0.150952 0.517209 0.077171
0.171482 0.519247 0.079249
0.192011 0.521285 0.081326
0.240134 0.526061 0.086197
0.265170 0.528547 0.088730
0.290206 0.520619 0.087754
0.315243 0.523056 0.090190
0.340279 0.525492 0.092627
0.365315 0.527928 0.095063
0.390351 0.530365 0.097499
0.415387 0.532801 0.099936
0.440424 0.535237 0.102372
0.465460 0.537674 0.104808
0.489407 0.540004 0.107139
0.513355 0.542334 0.109469
0.537303 0.544665 0.111799
0.561250 0.546995 0.114130
0.585198 0.549326 0.116460
0.609146 0.551656 0.118791
0.633093 0.553986 0.121121
0.657041 0.556317 0.123451
0.680989 0.558647 0.125782
0.567946 0.492508 0.319362
0.586806 0.502029 0.328883
0.605665 0.511550 0.338404
0.624525 0.521071 0.347925
0.633351 0.525527 0.352380
0.633351 0.525527 0.352380
0.633351 0.525527 0.352380
0.073753 0.537786 0.073976
0.094282 0.539823 0.076054
0.114812 0.541861 0.078132
0.135342 0.543899 0.080209
0.155872 0.545937 0.082287
0.176401 0.547974 0.084365
0.196931 0.550012 0.086442
0.245053 0.543910 0.087801
0.270090 0.546347 0.090237
0.295126 0.548783 0.092673
0.320162 0.551219 0.095110
0.345198 0.553656 0.097546
0.370234 0.556092 0.099982
0.395271 0.558528 0.102419
0.420307 0.560965 0.104855
0.445343 0.563401 0.107291
0.470379 0.565837 0.109728
0.494327 0.568168 0.112058
0.518275 0.570498 0.114388
0.542222 0.572829 0.116719
0.566170 0.575159 0.119049
0.590118 0.577489 0.121380
0.614065 0.579820 0.123710
0.638013 0.582150 0.126040
0.661961 0.584481 0.128371
0.685908 0.586811 0.130701
0.572866 0.506725 0.324282
0.591725 0.516246 0.333802
0.610585 0.525767 0.343323
0.629444 0.535288 0.352844
0.638270 0.539744 0.357300
0.638270 0.539744 0.357300
0.638270 0.539744 0.357300
0.078672 0.566513 0.079092
0.099202 0.568550 0.081170
0.119732 0.570588 0.083248
0.140261 0.572626 0.085326
0.160791 0.574664 0.087403
0.181321 0.576701 0.089481
0.201850 0.567391 0.088037
0.249973 0.572074 0.092720
0.275009 0.574510 0.095156
0.300045 0.576947 0.097593
0.325081 0.579383 0.100029
0.350118 0.581819 0.102465
0.375154 0.584256 0.104902
0.400190 0.586692 0.107338
0.425226 0.589128 0.109774
0.450262 0.591565 0.112211
0.475299 0.594001 0.114647
0.499246 0.596332 0.116977
0.523194 0.598662 0.119308
0.547142 0.600992 0.121638
0.571089 0.603323 0.123969
0.595037 0.605653 0.126299
0.618985 0.607984 0.128629
0.642932 0.610314 0.130960
0.666880 0.612644 0.133290
0.690828 0.614975 0.135621
0.764223 0.622117 0.142763
0.596644 0.530463 0.338722
0.615504 0.539984 0.348243
0.634363 0.549505 0.357763
0.643190 0.553961 0.362219
0.643190 0.553961 0.362219
0.643190 0.553961 0.362219
0.083592 0.595240 0.084209
0.104121 0.597277 0.086286
0.124651 0.599315 0.088364
0.145181 0.601353 0.090442
0.165710 0.591559 0.088961
0.186240 0.593557 0.090959
0.206770 0.595555 0.092957
0.254892 0.600238 0.097640
0.279928 0.602674 0.100076
0.304965 0.605111 0.102512
0.330001 0.607547 0.104949
0.355037 0.609983 0.107385
0.380073 0.612420 0.109821
0.405109 0.614856 0.112257
0.430146 0.617292 0.114694
0.455182 0.619729 0.117130
0.480218 0.622165 0.119566
0.504166 0.624495 0.121897
0.528113 0.626826 0.124227
0.552061 0.629156 0.126558
0.576009 0.631487 0.128888
0.599956 0.633817 0.131218
0.623904 0.636147 0.133549
0.647852 0.638478 0.135879
0.671799 0.640808 0.138210
0.695747 0.643139 0.140540
0.769142 0.650281 0.147682
0.795006 0.652798 0.150199
0.820869 0.655314 0.152716
0.639283 0.563722 0.362683
0.648109 0.568178 0.367139
0.648109 0.568178 0.367139
0.648109 0.568178 0.367139
0.088511 0.623967 0.089325
0.109041 0.613730 0.087887
0.129570 0.615728 0.089885
0.150100 0.617725 0.091883
0.170630 0.619723 0.093880
0.191159 0.621721 0.095878
0.211689 0.623719 0.097876
0.259812 0.628402 0.102559
0.284848 0.630838 0.104995
0.309884 0.633274 0.107432
0.334920 0.635711 0.109868
0.359956 0.638147 0.112304
0.384993 0.640583 0.114741
0.410029 0.643020 0.117177
0.435065 0.645456 0.119613
0.460101 0.647892 0.122050
0.485137 0.650329 0.124486
0.509085 0.652659 0.126816
0.533033 0.654990 0.129147
0.556980 0.657320 0.131477
0.580928 0.659650 0.133808
0.604876 0.661981 0.136138
0.628823 0.664311 0.138468
0.652771 0.666642 0.140799
0.676719 0.668972 0.143129
0.700666 0.671302 0.145460
0.774062 0.678445 0.152602
0.799925 0.680961 0.155119
0.825789 0.683478 0.157635
0.851652 0.685995 0.160152
0.653029 0.582395 0.372058
0.653029 0.582395 0.372058
0.653029 0.582395 0.372058
0.093430 0.639896 0.090809
0.113960 0.641894 0.092807
0.134490 0.643892 0.094804
0.155020 0.645889 0.096802
0.175549 0.647887 0.098800
0.196079 0.649885 0.100798
0.216609 0.651883 0.102795
0.264731 0.656566 0.107478
0.289767 0.659002 0.109915
0.314804 0.661438 0.112351
0.339840 0.663875 0.114787
0.364876 0.666311 0.117224
0.389912 0.668747 0.119660
0.414948 0.671184 0.122096
0.439984 0.673620 0.124533
0.465021 0.676056 0.126969
0.490057 0.678493 0.129405
0.514005 0.680823 0.131736
0.537952 0.683153 0.134066
0.561900 0.685484 0.136397
0.585848 0.687814 0.138727
0.609795 0.690145 0.141057
0.633743 0.692475 0.143388
0.657691 0.694805 0.145718
0.681638 0.697136 0.148049
0.705586 0.699466 0.150379
0.778981 0.706608 0.157521
0.804845 0.709125 0.160038
0.830708 0.711642 0.162555
0.856572 0.714159 0.165072
0.868676 0.715337 0.166250
0.868676 0.715337 0.166250
0.868676 0.715337 0.166250
0.098350 0.668060 0.095728
0.118880 0.670058 0.097726
0.139409 0.672055 0.099724
0.159939 0.674053 0.101722
0.180469 0.676051 0.103719
0.200998 0.678049 0.105717
0.221528 0.680046 0.107715
0.269651 0.684729 0.112398
0.294687 0.687166 0.114834
0.319723 0.689602 0.117270
0.344759 0.692038 0.119707
0.369795 0.694475 0.122143
0.394832 0.696911 0.124579
0.419868 0.699347 0.127016
0.444904 0.701784 0.129452
0.469940 0.704220 0.131888
0.494976 0.706656 0.134325
0.518924 0.708987 0.136655
0.542872 0.711317 0.138986
0.566819 0.713648 0.141316
0.590767 0.715978 0.143646
0.614715 0.718308 0.145977
0.638662 0.720639 0.148307
0.662610 0.722969 0.150638
0.686558 0.725300 0.152968
0.710505 0.727630 0.155298
0.783901 0.734772 0.162441
0.809764 0.737289 0.164957
0.829322 0.738063 0.192986
0.854406 0.740912 0.195835
0.866146 0.742246 0.197168
0.866146 0.742246 0.197168
0.866146 0.742246 0.197168
0.103269 0.696224 0.100648
0.123799 0.698221 0.102645
0.144329 0.700219 0.104643
0.164858 0.702217 0.106641
0.185388 0.704215 0.108639
0.205918 0.706212 0.110637
0.226447 0.708210 0.112634
0.274570 0.712893 0.117317
0.299606 0.715330 0.119754
0.324642 0.717766 0.122190
0.349679 0.720202 0.124626
0.374715 0.722638 0.127063
0.399751 0.725075 0.129499
0.424787 0.727511 0.131935
0.449823 0.729947 0.134372
0.474860 0.732384 0.136808
0.499896 0.734820 0.139244
0.523843 0.737151 0.141575
0.547791 0.739481 0.143905
0.571739 0.741811 0.146235
0.595686 0.744142 0.148566
0.619634 0.746472 0.150896
0.643582 0.748803 0.153227
0.667529 0.751133 0.155557
0.691477 0.753463 0.157887
0.715425 0.755794 0.160218
0.784723 0.760071 0.192856
0.809807 0.762921 0.195705
0.834891 0.765770 0.198555
0.859975 0.768619 0.201404
0.871715 0.769953 0.202737
0.871715 0.769953 0.202737
0.871715 0.769953 0.202737
0.118347 0.782541 0.115725
0.138876 0.784538 0.117723
0.159406 0.786536 0.119720
0.179936 0.788534 0.121718
0.200465 0.790532 0.123716
0.220995 0.792530 0.125714
0.241525 0.794527 0.127711
0.289647 0.799210 0.132394
0.314683 0.801647 0.134831
0.339720 0.804083 0.137267
0.364756 0.806519 0.139703
0.389792 0.808956 0.142140
0.414828 0.811392 0.144576
0.439864 0.813828 0.147012
0.464901 0.816265 0.149449
0.489937 0.818701 0.151885
0.514973 0.821137 0.154321
0.538921 0.823468 0.156652
0.562868 0.825798 0.158982
0.586816 0.828128 0.161313
0.610764 0.830459 0.163643
0.634711 0.832789 0.165973
