clientes/tênis/05-filtros/gene-carbon.xmp
<x:xmpmeta xmlns:x="adobe:ns:meta/" x:xmptk="Adobe XMP Core 5.6-c140 79.160451, 2017/05/06-01:08:21">
 <rdf:RDF xmlns:rdf="http://www.w3.org/1999/02/22-rdf-syntax-ns#">
  <rdf:Description rdf:about=""
    xmlns:crs="http://ns.adobe.com/camera-raw-settings/1.0/"
   crs:PresetType="Normal"
   crs:Cluster=""
   crs:UUID="GENE-CARBON-V1-0-2026042100000000"
   crs:SupportsAmount="False"
   crs:SupportsColor="True"
   crs:SupportsMonochrome="True"
   crs:SupportsHighDynamicRange="True"
   crs:SupportsNormalDynamicRange="True"
   crs:SupportsSceneReferred="True"
   crs:SupportsOutputReferred="True"
   crs:CameraModelRestriction=""
   crs:Copyright="Gene Sneakers 2026"
   crs:ContactInfo=""
   crs:Version="15.0"
   crs:ProcessVersion="11.0"
   crs:WhiteBalance="Custom"
   crs:Temperature="-5"
   crs:Tint="-2"
   crs:Exposure2012="-0.30"
   crs:Contrast2012="+20"
   crs:Highlights2012="-60"
   crs:Shadows2012="-25"
   crs:Whites2012="-15"
   crs:Blacks2012="-30"
   crs:Clarity2012="+15"
   crs:Dehaze="+10"
   crs:Vibrance="-10"
   crs:Saturation="-20"
   crs:ToneCurveName2012="Strong Contrast"
   crs:HueAdjustmentRed="+5"
   crs:HueAdjustmentOrange="+3"
   crs:HueAdjustmentYellow="-10"
   crs:HueAdjustmentGreen="-15"
   crs:HueAdjustmentAqua="-10"
   crs:HueAdjustmentBlue="+5"
   crs:HueAdjustmentPurple="0"
   crs:HueAdjustmentMagenta="0"
   crs:SaturationAdjustmentRed="-5"
   crs:SaturationAdjustmentOrange="-20"
   crs:SaturationAdjustmentYellow="-40"
   crs:SaturationAdjustmentGreen="-60"
   crs:SaturationAdjustmentAqua="-40"
   crs:SaturationAdjustmentBlue="-15"
   crs:SaturationAdjustmentPurple="-20"
   crs:SaturationAdjustmentMagenta="-15"
   crs:LuminanceAdjustmentRed="-8"
   crs:LuminanceAdjustmentOrange="-5"
   crs:LuminanceAdjustmentYellow="-15"
   crs:LuminanceAdjustmentGreen="-20"
   crs:LuminanceAdjustmentAqua="-15"
   crs:LuminanceAdjustmentBlue="-10"
   crs:LuminanceAdjustmentPurple="0"
   crs:LuminanceAdjustmentMagenta="0"
   crs:SplitToningShadowHue="210"
   crs:SplitToningShadowSaturation="8"
   crs:SplitToningHighlightHue="0"
   crs:SplitToningHighlightSaturation="0"
   crs:SplitToningBalance="0"
   crs:ColorGradeMidtoneHue="220"
   crs:ColorGradeMidtoneSat="5"
   crs:ColorGradeShadowLum="-8"
   crs:ColorGradeMidtoneLum="-5"
   crs:ColorGradeHighlightLum="0"
   crs:ColorGradeBlending="50"
   crs:ColorGradeGlobalHue="0"
   crs:ColorGradeGlobalSat="-5"
   crs:ColorGradeGlobalLum="0"
   crs:GrainAmount="35"
   crs:GrainSize="30"
   crs:GrainFrequency="50"
   crs:PostCropVignetteAmount="-25"
   crs:PostCropVignetteMidpoint="55"
   crs:PostCropVignetteFeather="65"
   crs:PostCropVignetteRoundness="0"
   crs:PostCropVignetteStyle="1"
   crs:ShadowTint="+5"
   crs:ToneCurvePV2012="0, 0, 48, 32, 128, 120, 208, 215, 255, 248"
   crs:ToneCurvePV2012Red="0, 0, 255, 250"
   crs:ToneCurvePV2012Green="0, 0, 255, 253"
   crs:ToneCurvePV2012Blue="0, 8, 255, 255"
   crs:CameraProfile="Adobe Color"
   crs:HasSettings="True"
   crs:HasCrop="False"
   crs:AlreadyApplied="False"
   crs:Name="GENE · Carbon v1.0"
   crs:ShortName="GENE Carbon"
   crs:SortName="GENE Carbon"
   crs:Group="Gene Sneakers">
   <crs:Look>
    <rdf:Description
     crs:Name="GENE · Carbon v1.0"
     crs:Amount="1"
     crs:UUID="GENE-CARBON-V1-0-2026042100000000"
     crs:SupportsAmount="false"
     crs:SupportsMonochrome="false"
     crs:SupportsOutputReferred="false"
     crs:Stubbed="true"/>
   </crs:Look>
  </rdf:Description>
 </rdf:RDF>
</x:xmpmeta>
