clientes/tênis/05-filtros/gene-bloom.cube
# GENE · Bloom v1.0 · LUT 3D
# Gene Sneakers — sistema de filtros
# Compatible: CapCut, Premiere, DaVinci, Photoshop, Final Cut
#
TITLE "GENE Bloom v1.0"
LUT_3D_SIZE 33
DOMAIN_MIN 0.0 0.0 0.0
DOMAIN_MAX 1.0 1.0 1.0
0.110530 0.099197 0.104534
0.142595 0.097440 0.102788
0.174660 0.095684 0.101042
0.206724 0.093927 0.099296
0.238789 0.092170 0.097549
0.270854 0.090414 0.095803
0.302919 0.088657 0.094057
0.334983 0.086901 0.092311
0.367048 0.085144 0.090564
0.399113 0.083387 0.088818
0.431178 0.081631 0.087072
0.463242 0.079874 0.085325
0.495307 0.078118 0.083579
0.527372 0.076361 0.081833
0.559437 0.074604 0.080087
0.592678 0.072783 0.078276
0.628407 0.070826 0.076330
0.664137 0.068868 0.074385
0.699866 0.066911 0.072439
0.735595 0.064954 0.070493
0.771324 0.062996 0.068547
0.807054 0.061039 0.066601
0.842783 0.059082 0.064655
0.878512 0.057124 0.062709
0.914242 0.055167 0.060764
0.947128 0.056053 0.061625
0.952401 0.084552 0.089771
0.974205 0.096519 0.101603
1.000000 0.104496 0.109500
1.000000 0.138268 0.142920
1.000000 0.164196 0.168597
1.000000 0.164697 0.169106
1.000000 0.165197 0.169615
0.107850 0.116643 0.105114
0.133808 0.121788 0.100834
0.162245 0.122215 0.101270
0.207223 0.125066 0.099785
0.239287 0.123309 0.098038
0.271352 0.121551 0.096291
0.303416 0.119794 0.094544
0.335480 0.118037 0.092797
0.367544 0.116279 0.091051
0.399608 0.114522 0.089304
0.431672 0.112765 0.087557
0.463736 0.111008 0.085810
0.495800 0.109250 0.084063
0.527864 0.107493 0.082316
0.559928 0.105736 0.080569
0.593169 0.103914 0.078758
0.628897 0.101956 0.076811
0.664626 0.099998 0.074865
0.700355 0.098040 0.072918
0.736083 0.096082 0.070971
0.771812 0.094123 0.069025
0.807540 0.092165 0.067078
0.843269 0.090207 0.065132
0.878997 0.088249 0.063185
0.914726 0.086291 0.061238
0.941853 0.092451 0.067893
0.947439 0.119031 0.096089
0.974658 0.125224 0.102652
1.000000 0.133228 0.111092
1.000000 0.165389 0.144874
1.000000 0.189352 0.169963
1.000000 0.189853 0.170474
1.000000 0.190104 0.168612
0.114365 0.137115 0.111626
0.130200 0.137545 0.112060
0.163053 0.148398 0.102071
0.191491 0.148826 0.102507
0.219928 0.149254 0.102943
0.248365 0.149681 0.103380
0.276802 0.150109 0.103816
0.336329 0.149526 0.093637
0.368393 0.147768 0.091890
0.400457 0.146011 0.090143
0.432521 0.144254 0.088396
0.464585 0.142497 0.086649
0.496649 0.140739 0.084902
0.528713 0.138982 0.083156
0.560777 0.137225 0.081409
0.594018 0.135403 0.079597
0.629747 0.133445 0.077651
0.665475 0.131487 0.075704
0.701204 0.129529 0.073758
0.736932 0.127570 0.071811
0.772661 0.125612 0.069864
0.808389 0.123654 0.067918
0.844118 0.121696 0.065971
0.879847 0.119738 0.064025
0.915575 0.117780 0.062078
0.941228 0.124638 0.070207
0.946849 0.149229 0.098368
0.975429 0.153785 0.103570
1.000000 0.161953 0.112781
1.000000 0.192143 0.146563
1.000000 0.194663 0.147116
1.000000 0.214230 0.168936
1.000000 0.214728 0.169436
0.120881 0.157587 0.118137
0.136716 0.158016 0.118571
0.163862 0.174581 0.102871
0.192299 0.175009 0.103307
0.220736 0.175436 0.103744
0.249173 0.175864 0.104180
0.277610 0.176292 0.104616
0.306047 0.176719 0.105053
0.334485 0.177147 0.105489
0.362922 0.177575 0.105925
0.391359 0.178003 0.106362
0.465434 0.173986 0.087489
0.497499 0.172228 0.085742
0.529563 0.170471 0.083995
0.561627 0.168714 0.082248
0.594867 0.166892 0.080437
0.630596 0.164934 0.078491
0.666325 0.162976 0.076544
0.702053 0.161018 0.074597
0.737782 0.159059 0.072651
0.773510 0.157101 0.070704
0.809239 0.155143 0.068758
0.844967 0.153185 0.066811
0.880696 0.151227 0.064864
0.916424 0.149269 0.062918
0.940608 0.156618 0.072516
0.946265 0.179234 0.100641
0.976199 0.182337 0.104489
1.000000 0.190575 0.114470
1.000000 0.193867 0.115961
1.000000 0.221158 0.148763
1.000000 0.238851 0.169759
1.000000 0.239347 0.170260
0.127397 0.178058 0.124648
0.143231 0.178488 0.125083
0.159066 0.178918 0.125517
0.193107 0.201191 0.104108
0.221544 0.201619 0.104544
0.249981 0.202047 0.104980
0.278419 0.202474 0.105417
0.306856 0.202902 0.105853
0.335293 0.203330 0.106289
0.363730 0.203758 0.106726
0.392167 0.204185 0.107162
0.420604 0.204613 0.107598
0.449041 0.205041 0.108035
0.477479 0.205469 0.108471
0.562476 0.200203 0.083088
0.595717 0.198381 0.081277
0.631445 0.196423 0.079330
0.667174 0.194465 0.077384
0.702902 0.192507 0.075437
0.738631 0.190548 0.073491
0.774359 0.188590 0.071544
0.810088 0.186632 0.069597
0.845816 0.184674 0.067651
0.881545 0.182716 0.065704
0.917274 0.180758 0.063758
0.939994 0.188393 0.074820
0.945684 0.209046 0.102911
0.949827 0.210448 0.102176
0.981268 0.211440 0.103537
1.000000 0.222157 0.117608
1.000000 0.247556 0.150411
1.000000 0.263466 0.170583
1.000000 0.263960 0.171084
0.133912 0.198530 0.131160
0.149747 0.198960 0.131594
0.165582 0.199390 0.132029
0.181417 0.199819 0.132463
0.222352 0.227802 0.105345
0.250790 0.228229 0.105781
0.279227 0.228657 0.106217
0.307664 0.229085 0.106653
0.336101 0.229513 0.107090
0.364538 0.229940 0.107526
0.392975 0.230368 0.107962
0.421412 0.230796 0.108399
0.449850 0.231224 0.108835
0.478287 0.231651 0.109271
0.506724 0.232079 0.109708
0.536205 0.232523 0.110160
0.567892 0.232999 0.110646
0.599579 0.233476 0.111132
0.703752 0.223996 0.076277
0.739480 0.222037 0.074330
0.775209 0.220079 0.072384
0.810937 0.218121 0.070437
0.846666 0.216163 0.068491
0.882394 0.214205 0.066544
0.918123 0.212247 0.064597
0.939383 0.219963 0.077119
0.942281 0.222787 0.078567
0.950580 0.239061 0.103070
0.982014 0.239965 0.104439
1.000000 0.250347 0.119256
1.000000 0.273858 0.152059
1.000000 0.288076 0.171407
1.000000 0.288569 0.171908
0.140428 0.219002 0.137671
0.156263 0.219432 0.138106
0.172098 0.219861 0.138540
0.187933 0.220291 0.138974
0.223161 0.253984 0.106145
0.251598 0.254412 0.106581
0.280035 0.254840 0.107017
0.308472 0.255268 0.107454
0.336909 0.255695 0.107890
0.365346 0.256123 0.108326
0.393784 0.256551 0.108763
0.422221 0.256979 0.109199
0.450658 0.257406 0.109635
0.479095 0.257834 0.110072
0.507532 0.258262 0.110508
0.537013 0.258705 0.110960
0.568700 0.259182 0.111446
0.600387 0.259659 0.111933
0.632074 0.260135 0.112419
0.663761 0.260612 0.112905
0.695448 0.261088 0.113391
0.811786 0.249610 0.071277
0.847515 0.247652 0.069330
0.883243 0.245694 0.067384
0.892119 0.245800 0.064770
0.926807 0.243915 0.062886
0.941683 0.253876 0.080812
0.951334 0.267666 0.103965
0.982760 0.268480 0.105341
1.000000 0.278438 0.120904
1.000000 0.300064 0.153707
1.000000 0.312681 0.172231
1.000000 0.313172 0.172732
0.146944 0.239474 0.144183
0.162779 0.239903 0.144617
0.178613 0.240333 0.145051
0.194448 0.240763 0.145486
0.210283 0.241192 0.145920
0.252406 0.280595 0.107382
0.280843 0.281023 0.107818
0.309280 0.281450 0.108254
0.337717 0.281878 0.108690
0.366155 0.282306 0.109127
0.394592 0.282734 0.109563
0.423029 0.283161 0.109999
0.451466 0.283589 0.110436
0.479903 0.284017 0.110872
0.508340 0.284445 0.111308
0.537821 0.284888 0.111761
0.569508 0.285365 0.112247
0.601195 0.285841 0.112733
0.632882 0.286318 0.113219
0.664569 0.286795 0.113705
0.696257 0.287271 0.114191
0.727944 0.287748 0.114678
0.737506 0.288224 0.112906
0.768270 0.288701 0.113382
0.799034 0.289178 0.113859
0.927631 0.275407 0.063710
0.941090 0.284770 0.083053
0.952087 0.296261 0.104860
0.983506 0.296986 0.106243
1.000000 0.306428 0.122552
1.000000 0.326173 0.155355
1.000000 0.337281 0.173055
1.000000 0.337770 0.173555
0.153459 0.259945 0.150694
0.169294 0.260375 0.151128
0.185129 0.260805 0.151563
0.200964 0.261234 0.151997
0.216799 0.261664 0.152432
0.232634 0.262094 0.152866
0.281651 0.307205 0.108618
0.310088 0.307633 0.109054
0.338526 0.308061 0.109491
0.366963 0.308489 0.109927
0.395400 0.308916 0.110363
0.423837 0.309344 0.110800
0.452274 0.309772 0.111236
0.480711 0.310200 0.111672
0.509149 0.310627 0.112109
0.538629 0.311071 0.112561
0.570316 0.311547 0.113047
0.602003 0.312024 0.113533
0.633691 0.312501 0.114019
0.665378 0.312977 0.114506
0.697065 0.313454 0.114992
0.707526 0.313931 0.113214
0.738290 0.314407 0.113690
0.769055 0.314884 0.114167
0.799819 0.315360 0.114643
0.830583 0.315837 0.115120
0.861347 0.316314 0.115597
0.892111 0.316790 0.116073
0.984251 0.325482 0.107146
1.000000 0.334318 0.124200
1.000000 0.352185 0.157002
1.000000 0.361875 0.173879
1.000000 0.362363 0.174379
0.159975 0.280417 0.157205
0.175810 0.280847 0.157640
0.191645 0.281276 0.158074
0.207480 0.281706 0.158509
0.223315 0.282136 0.158943
0.239149 0.282565 0.159377
0.282460 0.333388 0.109419
0.310897 0.333816 0.109855
0.339334 0.334244 0.110291
0.367771 0.334671 0.110727
0.396208 0.335099 0.111164
0.424645 0.335527 0.111600
0.453082 0.335955 0.112036
0.481520 0.336382 0.112473
0.509957 0.336810 0.112909
0.539437 0.337254 0.113361
0.571125 0.337730 0.113847
0.602812 0.338207 0.114334
0.634499 0.338683 0.114820
0.646782 0.339160 0.113045
0.677547 0.339637 0.113522
0.708311 0.340113 0.113998
0.739075 0.340590 0.114475
0.769839 0.341067 0.114952
0.800603 0.341543 0.115428
0.831368 0.342020 0.115905
0.862132 0.342496 0.116381
0.892896 0.342973 0.116858
0.923660 0.343450 0.117335
0.954424 0.343926 0.117811
0.985188 0.344403 0.118288
1.000000 0.344880 0.118765
1.000000 0.345356 0.119241
0.166491 0.300889 0.163717
0.182326 0.301318 0.164151
0.198161 0.301748 0.164586
0.213995 0.302178 0.165020
0.229830 0.302607 0.165454
0.245665 0.303037 0.165889
0.261500 0.303467 0.166323
0.311705 0.359999 0.110655
0.340142 0.360426 0.111092
0.368579 0.360854 0.111528
0.397016 0.361282 0.111964
0.425454 0.361710 0.112400
0.453891 0.362137 0.112837
0.482328 0.362565 0.113273
0.510765 0.362993 0.113709
0.540246 0.363436 0.114162
0.571933 0.363913 0.114648
0.586039 0.364390 0.112876
0.616803 0.364866 0.113353
0.647567 0.365343 0.113830
0.678331 0.365819 0.114306
0.709095 0.366296 0.114783
0.739860 0.366773 0.115260
0.770624 0.367249 0.115736
0.801388 0.367726 0.116213
0.832152 0.368203 0.116689
0.862916 0.368679 0.117166
0.893681 0.369156 0.117643
0.924445 0.369632 0.118119
0.955209 0.370109 0.118596
0.985973 0.370586 0.119073
1.000000 0.371062 0.119549
1.000000 0.371539 0.120026
0.173007 0.321360 0.170228
0.188841 0.321790 0.170663
0.204676 0.322220 0.171097
0.220511 0.322649 0.171531
0.236346 0.323079 0.171966
0.252181 0.323509 0.172400
0.268016 0.323938 0.172834
0.283851 0.324368 0.173269
0.340950 0.386609 0.111892
0.369387 0.387037 0.112328
0.397825 0.387465 0.112764
0.426262 0.387892 0.113201
0.454699 0.388320 0.113637
0.483136 0.388748 0.114073
0.511573 0.389176 0.114510
0.541054 0.389619 0.114962
0.556059 0.390096 0.113184
0.586823 0.390572 0.113661
0.617588 0.391049 0.114138
0.648352 0.391526 0.114614
0.679116 0.392002 0.115091
0.709880 0.392479 0.115568
0.740644 0.392955 0.116044
0.771409 0.393432 0.116521
0.802173 0.393909 0.116997
0.832937 0.394385 0.117474
0.863701 0.394862 0.117951
0.894465 0.395339 0.118427
0.925229 0.395815 0.118904
0.955994 0.396292 0.119381
0.986758 0.396768 0.119857
1.000000 0.397245 0.120334
1.000000 0.397722 0.120811
0.179522 0.341832 0.176740
0.195357 0.342262 0.177174
0.211192 0.342691 0.177608
0.227027 0.343121 0.178043
0.242862 0.343551 0.178477
0.258697 0.343980 0.178912
0.274531 0.344410 0.179346
0.290366 0.344840 0.179780
0.341758 0.412792 0.112692
0.370196 0.413220 0.113129
0.398633 0.413647 0.113565
0.427070 0.414075 0.114001
0.455507 0.414503 0.114437
0.483944 0.414931 0.114874
0.497458 0.415358 0.113049
0.526080 0.415802 0.113492
0.556844 0.416278 0.113969
0.587608 0.416755 0.114446
0.618372 0.417232 0.114922
0.649136 0.417708 0.115399
0.679901 0.418185 0.115876
0.710665 0.418662 0.116352
0.741429 0.419138 0.116829
0.772193 0.419615 0.117306
0.802957 0.420091 0.117782
0.833722 0.420568 0.118259
0.864486 0.421045 0.118735
0.895250 0.421521 0.119212
0.926014 0.421998 0.119689
0.956778 0.422475 0.120165
0.987542 0.422951 0.120642
1.000000 0.423428 0.121119
1.000000 0.423904 0.121595
0.186038 0.362304 0.183251
0.201873 0.362733 0.183685
0.217708 0.363163 0.184120
0.233543 0.363593 0.184554
0.249377 0.364022 0.184989
0.265212 0.364452 0.185423
0.281047 0.364882 0.185857
0.296882 0.365311 0.186292
0.312717 0.365741 0.186726
0.371004 0.439402 0.113929
0.399441 0.439830 0.114365
0.427878 0.440258 0.114801
0.443025 0.440686 0.112978
0.470633 0.441113 0.113406
0.498242 0.441541 0.113834
0.526864 0.441984 0.114277
0.557629 0.442461 0.114754
0.588393 0.442938 0.115230
0.619157 0.443414 0.115707
0.649921 0.443891 0.116184
0.680685 0.444368 0.116660
0.711449 0.444844 0.117137
0.742214 0.445321 0.117614
0.772978 0.445798 0.118090
0.803742 0.446274 0.118567
0.834506 0.446751 0.119043
0.865270 0.447227 0.119520
0.896035 0.447704 0.119997
0.926799 0.448181 0.120473
0.957563 0.448657 0.120950
0.988327 0.449134 0.121427
1.000000 0.449611 0.121903
1.000000 0.450087 0.122380
0.192554 0.382775 0.189762
0.208389 0.383205 0.190197
0.224223 0.383635 0.190631
0.240058 0.384064 0.191066
0.255893 0.384494 0.191500
0.271728 0.384924 0.191934
0.287563 0.385353 0.192369
0.303398 0.385783 0.192803
0.319232 0.386213 0.193237
0.335067 0.386642 0.193672
0.388591 0.466013 0.112907
0.416200 0.466441 0.113335
0.443809 0.466868 0.113763
0.471418 0.467296 0.114191
0.499027 0.467724 0.114618
0.527649 0.468167 0.115062
0.558413 0.468644 0.115538
0.589177 0.469120 0.116015
0.619942 0.469597 0.116492
0.650706 0.470074 0.116968
0.681470 0.470550 0.117445
0.712234 0.471027 0.117922
0.742998 0.471504 0.118398
0.773763 0.471980 0.118875
0.804527 0.472457 0.119351
0.835291 0.472933 0.119828
0.866055 0.473410 0.120305
0.896819 0.473887 0.120781
0.927583 0.474363 0.121258
0.958348 0.474840 0.121735
0.989112 0.475317 0.122211
1.000000 0.475793 0.122688
1.000000 0.476270 0.118238
0.199309 0.403998 0.196513
0.215143 0.404428 0.196947
0.230978 0.404858 0.197382
0.246813 0.405287 0.197816
0.262648 0.405717 0.198250
0.278483 0.406147 0.198685
0.294318 0.406576 0.199119
0.310152 0.407006 0.199553
0.319965 0.406928 0.198238
0.335343 0.407356 0.198666
0.350720 0.407783 0.199094
0.417014 0.493584 0.114149
0.444623 0.494012 0.114576
0.472232 0.494440 0.115004
0.499840 0.494867 0.115432
0.528462 0.495311 0.115875
0.559227 0.495787 0.116352
0.589991 0.496264 0.116829
0.620755 0.496741 0.117305
0.651519 0.497217 0.117782
0.682283 0.497694 0.118258
0.713048 0.498171 0.118735
0.743812 0.498647 0.119212
0.774576 0.499124 0.119688
0.805340 0.499600 0.120165
0.836104 0.500077 0.120642
0.866869 0.500554 0.121118
0.897633 0.501030 0.121595
0.928397 0.501507 0.122071
0.959161 0.501984 0.122548
1.000000 0.502460 0.118104
1.000000 0.502937 0.118561
1.000000 0.503413 0.119019
0.206569 0.426810 0.203768
0.222404 0.427239 0.204203
0.238239 0.427669 0.204637
0.254073 0.428099 0.205071
0.269908 0.428528 0.205506
0.285743 0.428958 0.205940
0.296453 0.428880 0.204625
0.311830 0.429307 0.205053
0.327207 0.429735 0.205480
0.342585 0.430163 0.205908
0.357962 0.430591 0.206336
0.373339 0.431018 0.206764
0.445497 0.523187 0.115451
0.473106 0.523615 0.115878
0.500715 0.524042 0.116306
0.529337 0.524486 0.116750
0.560101 0.524962 0.117226
0.590865 0.525439 0.117703
0.621629 0.525916 0.118180
0.652394 0.526392 0.118656
0.683158 0.526869 0.119133
0.713922 0.527346 0.119609
0.744686 0.527822 0.120086
0.775450 0.528299 0.120563
0.806214 0.528775 0.121039
0.836979 0.529252 0.121516
0.867743 0.529729 0.121993
0.898507 0.530205 0.122469
0.966442 0.530682 0.118028
0.998437 0.531159 0.118486
1.000000 0.531635 0.118943
1.000000 0.532112 0.119401
1.000000 0.532589 0.119858
0.213829 0.449621 0.211024
0.229664 0.450051 0.211458
0.245499 0.450480 0.211893
0.261334 0.450910 0.212327
0.272940 0.450832 0.211011
0.288317 0.451259 0.211439
0.303695 0.451687 0.211867
0.319072 0.452115 0.212295
0.334449 0.452543 0.212722
0.349827 0.452970 0.213150
0.365204 0.453398 0.213578
0.380581 0.453826 0.214006
0.446371 0.552362 0.116325
0.473980 0.552790 0.116753
0.501589 0.553217 0.117181
0.530211 0.553661 0.117624
0.560975 0.554137 0.118101
0.591740 0.554614 0.118577
0.622504 0.555091 0.119054
0.653268 0.555567 0.119530
0.684032 0.556044 0.120007
0.714796 0.556521 0.120484
0.745560 0.556997 0.120960
0.776325 0.557474 0.121437
0.807089 0.557951 0.121914
0.837853 0.558427 0.122390
0.903362 0.558904 0.117952
0.935357 0.559380 0.118410
0.967351 0.559857 0.118867
0.999346 0.560334 0.119325
1.000000 0.560810 0.119782
1.000000 0.561287 0.120240
1.000000 0.561764 0.120698
0.221090 0.472432 0.218279
0.236924 0.472862 0.218714
0.249427 0.472784 0.217398
0.264804 0.473211 0.217826
0.280182 0.473639 0.218253
0.295559 0.474067 0.218681
0.310937 0.474495 0.219109
0.326314 0.474922 0.219537
0.341691 0.475350 0.219964
0.357069 0.475778 0.220392
0.372446 0.476206 0.220820
0.387823 0.476633 0.221248
0.403201 0.477061 0.221675
0.474855 0.581965 0.117627
0.502463 0.582392 0.118055
0.531086 0.582836 0.118498
0.561850 0.583313 0.118975
0.592614 0.583789 0.119452
0.623378 0.584266 0.119928
0.654142 0.584742 0.120405
0.684906 0.585219 0.120881
0.715671 0.585696 0.121358
0.746435 0.586172 0.121835
0.777199 0.586649 0.122311
0.840282 0.587126 0.117876
0.872276 0.587602 0.118334
0.904271 0.588079 0.118792
0.936266 0.588555 0.119249
0.968261 0.589032 0.119707
1.000000 0.589509 0.120164
1.000000 0.589985 0.120622
1.000000 0.590462 0.121079
1.000000 0.590939 0.121537
0.225914 0.494735 0.223784
0.241292 0.495163 0.224212
0.256669 0.495591 0.224640
0.272046 0.496019 0.225068
0.287424 0.496446 0.225495
0.302801 0.496874 0.225923
0.318179 0.497302 0.226351
0.333556 0.497730 0.226779
0.348933 0.498157 0.227206
0.364311 0.498585 0.227634
0.379688 0.499013 0.228062
0.395065 0.499441 0.228490
0.410443 0.499868 0.228917
0.425820 0.500296 0.229345
0.503338 0.611567 0.118929
0.531960 0.612011 0.119373
0.562724 0.612488 0.119849
0.593488 0.612964 0.120326
0.624252 0.613441 0.120803
0.655017 0.613917 0.121279
0.685781 0.614394 0.121756
0.716545 0.614871 0.122232
0.747309 0.615347 0.122709
0.809196 0.615824 0.118258
0.841191 0.616301 0.118716
0.873186 0.616777 0.119173
0.905181 0.617254 0.119631
0.937175 0.617730 0.120089
0.969170 0.618207 0.120546
1.000000 0.618684 0.121004
1.000000 0.619160 0.121461
1.000000 0.619637 0.121919
1.000000 0.620114 0.122376
0.233156 0.517543 0.231026
0.248534 0.517971 0.231454
0.263911 0.518398 0.231882
0.279288 0.518826 0.232310
0.294666 0.519254 0.232737
0.310043 0.519682 0.233165
0.325421 0.520109 0.233593
0.340798 0.520537 0.234021
0.356175 0.520965 0.234448
0.371553 0.521393 0.234876
0.386930 0.521820 0.235304
0.402307 0.522248 0.235732
0.417685 0.522676 0.236159
0.433062 0.523104 0.236587
0.448440 0.523531 0.237015
0.532834 0.641186 0.120247
0.563598 0.641663 0.120724
0.594363 0.642139 0.121200
0.625127 0.642616 0.121677
0.655891 0.643092 0.122154
0.686655 0.643569 0.122630
0.746116 0.644046 0.118183
0.778111 0.644522 0.118640
0.810106 0.644999 0.119098
0.842100 0.645476 0.119555
0.874095 0.645952 0.120013
0.906090 0.646429 0.120470
0.938085 0.646906 0.120928
0.970079 0.647382 0.121385
1.000000 0.647859 0.121843
1.000000 0.648335 0.122301
1.000000 0.648812 0.122758
1.000000 0.649289 0.123216
0.240398 0.540350 0.238268
0.255776 0.540778 0.238696
0.271153 0.541206 0.239124
0.286530 0.541633 0.239552
0.301908 0.542061 0.239979
0.317285 0.542489 0.240407
0.332663 0.542917 0.240835
0.348040 0.543344 0.241263
0.363417 0.543772 0.241690
0.378795 0.544200 0.242118
0.394172 0.544628 0.242546
0.409549 0.545055 0.242974
0.424927 0.545483 0.243401
0.440304 0.545911 0.243829
0.455682 0.546339 0.244257
0.533709 0.670361 0.121121
0.564473 0.670838 0.121598
0.595237 0.671314 0.122075
0.626001 0.671791 0.122551
0.683036 0.672268 0.118107
0.715031 0.672744 0.118564
0.747025 0.673221 0.119022
0.779020 0.673697 0.119479
0.811015 0.674174 0.119937
0.843010 0.674651 0.120395
0.875004 0.675127 0.120852
0.906999 0.675604 0.121310
0.938994 0.676081 0.121767
0.970989 0.676557 0.122225
1.000000 0.677034 0.122682
1.000000 0.677510 0.123140
1.000000 0.677987 0.123598
1.000000 0.678464 0.124055
0.247640 0.563158 0.245510
0.263018 0.563585 0.245938
0.278395 0.564013 0.246366
0.293772 0.564441 0.246794
0.309150 0.564869 0.247221
0.324527 0.565296 0.247649
0.339905 0.565724 0.248077
0.355282 0.566152 0.248505
0.370659 0.566580 0.248932
0.386037 0.567007 0.249360
0.401414 0.567435 0.249788
0.416791 0.567863 0.250216
0.432169 0.568291 0.250643
0.447546 0.568718 0.251071
0.462924 0.569146 0.251499
0.478865 0.569589 0.251942
0.565347 0.700013 0.122472
0.619956 0.700489 0.118031
0.651950 0.700966 0.118489
0.683945 0.701443 0.118946
0.715940 0.701919 0.119404
0.747935 0.702396 0.119861
0.779929 0.702872 0.120319
0.811924 0.703349 0.120776
0.843919 0.703826 0.121234
0.875914 0.704302 0.121692
0.907908 0.704779 0.122149
0.939903 0.705256 0.122607
0.971898 0.705732 0.123064
1.000000 0.706209 0.123522
1.000000 0.706686 0.123979
1.000000 0.707162 0.124437
1.000000 0.707639 0.124894
0.254882 0.585965 0.252752
0.270260 0.586393 0.253180
0.285637 0.586820 0.253608
0.301014 0.587248 0.254036
0.316392 0.587676 0.254463
0.331769 0.588104 0.254891
0.347147 0.588531 0.255319
0.362524 0.588959 0.255747
0.377901 0.589387 0.256174
0.393279 0.589815 0.256602
0.408656 0.590242 0.257030
0.424033 0.590670 0.257458
0.439411 0.591098 0.257885
0.454788 0.591526 0.258313
0.470166 0.591953 0.258741
0.496781 0.591291 0.255375
0.588870 0.729188 0.118413
0.620865 0.729664 0.118870
0.652860 0.730141 0.119328
0.684855 0.730618 0.119785
0.716849 0.731094 0.120243
0.748844 0.731571 0.120701
0.780839 0.732048 0.121158
0.812834 0.732524 0.121616
0.844828 0.733001 0.122073
0.876823 0.733477 0.122531
0.908818 0.733954 0.122988
0.940813 0.734431 0.123446
0.972807 0.734907 0.123904
1.000000 0.735384 0.124361
1.000000 0.735861 0.124819
1.000000 0.736337 0.125276
1.000000 0.736814 0.125734
0.262124 0.608772 0.259994
0.277502 0.609200 0.260422
0.292879 0.609628 0.260850
0.308256 0.610056 0.261278
0.323634 0.610483 0.261705
0.339011 0.610911 0.262133
0.354389 0.611339 0.262561
0.369766 0.611767 0.262989
0.385143 0.612194 0.263416
0.400521 0.612622 0.263844
0.415898 0.613050 0.264272
0.431275 0.613478 0.264700
0.446653 0.613905 0.265127
0.471487 0.613227 0.261746
0.487467 0.613651 0.262160
0.504035 0.614091 0.262590
0.521842 0.614563 0.263052
0.621774 0.758839 0.119710
0.653769 0.759316 0.120167
0.685764 0.759793 0.120625
0.717759 0.760269 0.121082
0.749753 0.760746 0.121540
0.781748 0.761223 0.121998
0.813743 0.761699 0.122455
0.845738 0.762176 0.122913
0.877732 0.762652 0.123370
0.909727 0.763129 0.123828
0.941722 0.763606 0.124285
0.973717 0.764082 0.124743
1.000000 0.764559 0.125201
1.000000 0.765036 0.125658
1.000000 0.765512 0.126116
1.000000 0.765989 0.126573
0.269366 0.631580 0.267236
0.284744 0.632007 0.267664
0.300121 0.632435 0.268092
0.315498 0.632863 0.268520
0.330876 0.633291 0.268947
0.346253 0.633718 0.269375
0.361631 0.634146 0.269803
0.377008 0.634574 0.270231
0.392385 0.635002 0.270658
0.407763 0.635429 0.271086
0.423140 0.635857 0.271514
0.446778 0.635179 0.268132
0.462759 0.635603 0.268546
0.478740 0.636027 0.268961
0.494721 0.636451 0.269375
0.511288 0.636890 0.269805
0.529095 0.637362 0.270267
0.622684 0.788014 0.120549
0.654678 0.788491 0.121007
0.686673 0.788968 0.121464
0.718668 0.789444 0.121922
0.750663 0.789921 0.122379
0.782657 0.790398 0.122837
0.814652 0.790874 0.123294
0.846647 0.791351 0.123752
0.878642 0.791827 0.124210
0.910636 0.792304 0.124667
0.942631 0.792781 0.125125
0.974626 0.793257 0.125582
1.000000 0.793734 0.126040
1.000000 0.794211 0.126497
1.000000 0.794687 0.126955
1.000000 0.795164 0.127413
0.276608 0.654387 0.274478
0.291986 0.654815 0.274906
0.307363 0.655243 0.275334
0.322740 0.655670 0.275762
0.338118 0.656098 0.276189
0.353495 0.656526 0.276617
0.368873 0.656954 0.277045
0.384250 0.657381 0.277473
0.399627 0.657809 0.277900
0.422070 0.657131 0.274518
0.438051 0.657555 0.274932
0.454031 0.657978 0.275347
0.470012 0.658402 0.275761
0.485993 0.658826 0.276176
0.501974 0.659250 0.276590
0.518542 0.659690 0.277020
0.536349 0.660162 0.277482
0.554156 0.660634 0.277944
0.655588 0.817666 0.121846
0.687582 0.818143 0.122304
0.719577 0.818619 0.122761
0.751572 0.819096 0.123219
