clientes/tênis/05-filtros/gene-bloom.cube
# GENE · Bloom v1.0 · LUT 3D
# Gene Sneakers — sistema de filtros
# Compatible: CapCut, Premiere, DaVinci, Photoshop, Final Cut
#
TITLE "GENE Bloom v1.0"
LUT_3D_SIZE 5
DOMAIN_MIN 0.0 0.0 0.0
DOMAIN_MAX 1.0 1.0 1.0
0.110530 0.099197 0.104534
0.367048 0.085144 0.090564
0.628407 0.070826 0.076330
0.914242 0.055167 0.060764
1.000000 0.165197 0.169615
0.153459 0.259945 0.150694
0.338526 0.308061 0.109491
0.570316 0.311547 0.113047
0.799819 0.315360 0.114643
1.000000 0.362363 0.174379
0.206569 0.426810 0.203768
0.327207 0.429735 0.205480
0.560101 0.524962 0.117226
0.806214 0.528775 0.121039
1.000000 0.532589 0.119858
0.262124 0.608772 0.259994
0.385143 0.612194 0.263416
0.521842 0.614563 0.263052
0.845738 0.762176 0.122913
1.000000 0.765989 0.126573
0.321762 0.790113 0.314077
0.449609 0.793504 0.317393
0.579869 0.796959 0.320771
0.853012 0.995576 0.129628
1.000000 0.999389 0.133288
0.105853 0.096429 0.313786
0.356700 0.076502 0.337411
0.629765 0.072138 0.334763
0.915599 0.056479 0.319196
1.000000 0.166512 0.364520
0.112318 0.305891 0.320189
0.359208 0.322377 0.339724
0.620568 0.308059 0.325490
0.847704 0.325864 0.334502
1.000000 0.386447 0.393687
0.208996 0.429216 0.323290
0.375425 0.477953 0.368503
0.561353 0.526215 0.327215
0.807467 0.530028 0.331028
1.000000 0.533841 0.321447
0.264248 0.610896 0.376923
0.433361 0.660412 0.426439
0.568198 0.660891 0.419565
0.847040 0.763428 0.324502
1.000000 0.767241 0.328162
0.326197 0.794520 0.428669
0.495965 0.839832 0.473906
0.626225 0.843287 0.477284
0.854315 0.996829 0.331217
1.000000 1.000000 0.334877
0.107167 0.097706 0.532017
0.334664 0.101128 0.535507
0.612639 0.058430 0.579769
0.891104 0.037275 0.558705
1.000000 0.167852 0.565178
0.113633 0.307167 0.538419
0.341130 0.310589 0.541910
0.580449 0.289860 0.554694
0.848952 0.327296 0.564936
1.000000 0.387787 0.586980
0.116719 0.520582 0.534258
0.337590 0.524004 0.537680
0.591308 0.553319 0.568104
0.879428 0.561398 0.553058
1.000000 0.610124 0.603183
0.265524 0.612172 0.495171
0.448151 0.667621 0.538637
0.615428 0.708094 0.579032
0.848367 0.764704 0.529895
1.000000 0.768517 0.533556
0.327512 0.795808 0.542222
0.506304 0.850143 0.596482
0.673455 0.890490 0.636752
0.815914 0.894268 0.640446
1.000000 1.000000 0.540271
0.108605 0.099101 0.770684
0.336102 0.102523 0.774174
0.567892 0.106010 0.777730
0.892546 0.038666 0.844822
1.000000 0.113636 0.770107
0.115070 0.308563 0.777086
0.342567 0.311985 0.780577
0.557629 0.315471 0.768758
0.852189 0.270839 0.814782
1.000000 0.323098 0.776384
0.118114 0.521978 0.768245
0.338985 0.525400 0.771667
0.564025 0.528886 0.775154
0.873529 0.501715 0.759845
1.000000 0.613338 0.792664
0.125109 0.755378 0.775240
0.359819 0.758800 0.747515
0.593861 0.762287 0.750863
0.885965 0.809208 0.798594
1.000000 0.853558 0.846093
0.328951 0.797216 0.666407
0.507743 0.851552 0.720668
0.689909 0.906913 0.775953
0.867567 0.945891 0.814847
1.000000 1.000000 0.764899
0.110042 0.100497 1.000000
0.337539 0.103919 1.000000
0.569330 0.107405 1.000000
0.798861 0.111218 1.000000
1.000000 0.115031 1.000000
0.116508 0.309958 1.000000
0.344005 0.313380 1.000000
0.559025 0.316867 1.000000
0.805138 0.320680 1.000000
1.000000 0.324493 0.969956
0.119510 0.523373 1.000000
0.340381 0.526795 1.000000
0.565421 0.530282 1.000000
0.843995 0.534095 0.972436
1.000000 0.537908 0.976096
0.126505 0.756774 1.000000
0.361271 0.760196 0.972143
0.595312 0.763682 0.975490
0.851270 0.767495 0.979151
1.000000 0.771308 0.982811
0.138839 0.990174 0.975573
0.368545 0.993596 0.978858
0.602586 0.997083 0.982205
0.858544 1.000000 0.985866
1.000000 1.000000 0.989526
