clientes/tênis/05-filtros/gene-daylight.cube
# GENE · Daylight v1.0 · LUT 3D
# Gene Sneakers — sistema de filtros
# Compatible: CapCut, Premiere, DaVinci, Photoshop, Final Cut
#
TITLE "GENE Daylight v1.0"
LUT_3D_SIZE 9
DOMAIN_MIN 0.0 0.0 0.0
DOMAIN_MAX 1.0 1.0 1.0
0.053592 0.049688 0.048414
0.154727 0.058996 0.057051
0.276394 0.072224 0.069597
0.387075 0.084258 0.081010
0.495679 0.096067 0.092209
0.592863 0.106633 0.102231
0.690046 0.117199 0.112252
0.795502 0.128665 0.123126
0.886509 0.139969 0.133951
0.070561 0.132495 0.070213
0.156387 0.145022 0.072810
0.293734 0.176700 0.093158
0.404755 0.192980 0.108889
0.510058 0.192935 0.104481
0.607241 0.203501 0.114502
0.704424 0.214068 0.124524
0.809880 0.225534 0.135398
0.864332 0.250738 0.163665
0.100561 0.235167 0.104385
0.169686 0.242098 0.106072
0.282733 0.262021 0.105734
0.422311 0.304060 0.124044
0.531249 0.320034 0.139480
0.628731 0.334328 0.153292
0.711973 0.348622 0.165450
0.815678 0.364133 0.180290
0.852657 0.403693 0.247095
0.127852 0.328568 0.135472
0.192874 0.335500 0.133096
0.280321 0.343693 0.140775
0.397671 0.368456 0.135686
0.536490 0.421085 0.151749
0.632060 0.435379 0.165425
0.727631 0.449673 0.179100
0.815622 0.467523 0.209654
0.866629 0.492074 0.262431
0.154631 0.420218 0.165976
0.215627 0.427149 0.159612
0.303074 0.435342 0.167291
0.410496 0.462099 0.153248
0.500444 0.472894 0.163441
0.586705 0.488326 0.178334
0.742994 0.548828 0.192494
0.813923 0.560512 0.240111
0.880243 0.578076 0.277575
0.178594 0.502229 0.193271
0.235987 0.509160 0.183340
0.317092 0.517353 0.189128
0.395084 0.524807 0.196045
0.517850 0.555641 0.179311
0.599387 0.566349 0.189480
0.685648 0.581781 0.204373
0.813085 0.636343 0.266683
0.892338 0.654377 0.291213
0.198586 0.584240 0.218383
0.251321 0.591171 0.205018
0.337053 0.599365 0.212621
0.415045 0.606818 0.219538
0.538700 0.641832 0.198624
0.616107 0.648410 0.204663
0.698330 0.659804 0.215519
0.791933 0.676549 0.231679
0.904344 0.730006 0.304941
0.224079 0.673232 0.247709
0.272980 0.680163 0.230511
0.358713 0.688357 0.238114
0.436705 0.695810 0.245031
0.513233 0.703124 0.251817
0.638731 0.741938 0.225621
0.716138 0.748516 0.231660
0.805694 0.761214 0.243774
0.887642 0.775874 0.257922
0.246397 0.751142 0.273383
0.291943 0.758074 0.252829
0.377676 0.766267 0.260432
0.455667 0.773721 0.267349
0.532196 0.781034 0.274136
0.600677 0.787579 0.280209
0.735945 0.830397 0.250008
0.819941 0.837535 0.256561
0.899690 0.849996 0.268510
0.051142 0.047482 0.115676
0.155767 0.055658 0.139098
0.277310 0.063977 0.146649
0.387880 0.071546 0.153518
0.498931 0.099090 0.177101
0.596144 0.109685 0.187150
0.693356 0.120279 0.197200
0.798842 0.131775 0.208105
0.879757 0.153053 0.226698
0.073584 0.131442 0.128606
0.181842 0.168596 0.164273
0.297406 0.175432 0.170109
0.408087 0.187466 0.181522
0.516692 0.199274 0.192721
0.613875 0.209841 0.202743
0.711058 0.220407 0.212764
0.788078 0.243850 0.233850
0.863457 0.268548 0.258411
0.111664 0.239312 0.174563
0.190560 0.257502 0.181503
0.294284 0.273208 0.185459
0.432459 0.313851 0.212451
0.541397 0.329824 0.227887
0.626351 0.344118 0.239307
0.713778 0.334905 0.225019
0.794523 0.360399 0.258428
0.879098 0.375395 0.273794
0.140851 0.333042 0.207398
0.213748 0.350904 0.208526
0.301195 0.359097 0.216205
0.409223 0.379643 0.215411
0.546439 0.430875 0.239281
0.642009 0.445169 0.252957
0.735604 0.459821 0.268608
0.798108 0.488302 0.324650
0.877431 0.509930 0.349110
0.169490 0.425013 0.239618
0.237370 0.442553 0.235904
0.323948 0.450746 0.242722
0.421804 0.473268 0.232167
0.511769 0.484081 0.242377
0.657373 0.544324 0.266351
0.737849 0.555929 0.295121
0.812084 0.574387 0.339431
0.890884 0.594772 0.364415
0.195118 0.507312 0.268449
0.256209 0.524564 0.260594
0.337557 0.532757 0.263812
0.415548 0.540211 0.270729
0.529157 0.566811 0.258229
0.610712 0.577536 0.268415
0.740371 0.634261 0.318332
0.824522 0.650771 0.352727
0.902816 0.669897 0.378216
0.216418 0.589611 0.294336
0.279702 0.606575 0.287619
0.357518 0.614768 0.287305
0.435509 0.622222 0.294222
0.512038 0.629535 0.301009
0.627414 0.659580 0.283582
0.709654 0.670991 0.294454
0.803257 0.687736 0.310615
0.914638 0.744202 0.392128
0.243682 0.678915 0.325312
0.305195 0.695567 0.316945
0.379177 0.703760 0.312798
0.457169 0.711214 0.319715
0.533698 0.718527 0.326501
0.650038 0.753107 0.304539
0.727445 0.759686 0.310578
0.817019 0.772401 0.322709
0.898966 0.787061 0.336857
0.267551 0.757100 0.352430
0.327513 0.773478 0.342619
0.398140 0.781671 0.335116
0.476132 0.789124 0.342033
0.552660 0.796438 0.348820
0.621141 0.802982 0.354893
0.747252 0.841567 0.328926
0.831248 0.848705 0.335479
0.911014 0.861183 0.347446
0.058835 0.054860 0.205017
0.159231 0.058850 0.243421
0.280774 0.067170 0.250972
0.391344 0.074738 0.257842
0.499839 0.082165 0.264583
0.596924 0.088810 0.270614
0.694010 0.095456 0.276646
0.799359 0.102667 0.283191
0.878420 0.161216 0.326451
0.071419 0.137270 0.215814
0.159135 0.147308 0.225370
0.294683 0.167315 0.262690
0.405252 0.174883 0.269560
0.513747 0.182310 0.276300
0.617873 0.213565 0.303236
0.715085 0.224160 0.313285
0.782601 0.257537 0.336297
0.867371 0.273372 0.350870
0.104853 0.234809 0.229725
0.191183 0.252631 0.247213
0.333432 0.309144 0.301217
0.432923 0.309457 0.300327
0.541528 0.321265 0.311526
0.626188 0.331831 0.318363
0.706200 0.356567 0.343551
0.803642 0.373782 0.360264
0.887584 0.390173 0.376261
0.144284 0.336265 0.281411
0.232766 0.357370 0.296698
0.325868 0.377304 0.305364
0.422876 0.392865 0.309645
0.558198 0.442448 0.342743
0.650770 0.457717 0.359418
0.720182 0.484671 0.399252
0.818030 0.470461 0.374097
0.901640 0.486131 0.390428
0.172923 0.428236 0.313630
0.261405 0.449341 0.328917
0.341785 0.468953 0.328595
0.419776 0.476407 0.335511
0.525155 0.497303 0.335678
0.657912 0.553166 0.381033
0.734561 0.570808 0.413630
0.826308 0.594239 0.440429
0.903681 0.616706 0.466839
0.198551 0.510535 0.342461
0.281405 0.531640 0.354206
0.361745 0.550965 0.352088
0.439737 0.558418 0.359004
0.542523 0.580013 0.351510
0.624097 0.590758 0.361716
0.747380 0.647243 0.426545
0.838645 0.669229 0.453825
0.915374 0.690128 0.480879
0.219783 0.592834 0.367616
0.306530 0.613939 0.382752
0.381706 0.632976 0.375581
0.459698 0.640429 0.382497
0.536227 0.647743 0.389284
0.640779 0.672782 0.376862
0.723040 0.684214 0.387755
0.850895 0.743379 0.467308
0.926924 0.762483 0.495063
0.247047 0.682139 0.398592
0.333795 0.703243 0.413727
0.403366 0.721968 0.401074
0.481358 0.729421 0.407990
0.557886 0.736735 0.414777
0.626367 0.743279 0.420850
0.740811 0.772888 0.403859
0.830404 0.785624 0.416010
0.912352 0.800284 0.430159
0.270916 0.760323 0.425710
0.357664 0.781428 0.440845
0.423392 0.799878 0.424456
0.500321 0.807332 0.430309
0.576849 0.814645 0.437096
0.645330 0.821190 0.443169
0.760618 0.854769 0.422207
0.844614 0.861907 0.428760
0.924400 0.874406 0.440747
0.065834 0.061571 0.286292
0.162382 0.061755 0.338325
0.283926 0.070074 0.345876
0.394495 0.077643 0.352746
0.502990 0.085069 0.359487
0.600075 0.091714 0.365518
0.697161 0.098360 0.371550
0.802510 0.105571 0.378095
0.894741 0.111884 0.383826
0.078426 0.143990 0.297097
0.166134 0.154020 0.306645
0.297834 0.170219 0.357594
0.408403 0.177788 0.364464
0.516898 0.185214 0.371204
0.613984 0.191859 0.377236
0.711069 0.198505 0.383268
0.800410 0.205716 0.385954
0.890833 0.212029 0.391627
0.117603 0.247177 0.307746
0.181321 0.251734 0.319716
0.284688 0.263294 0.330701
0.424843 0.296158 0.378314
0.533338 0.303584 0.385054
0.618062 0.310230 0.387214
0.710245 0.361079 0.428302
0.807616 0.378622 0.444465
0.891423 0.395420 0.459891
0.133299 0.328842 0.321714
0.219629 0.346665 0.339202
0.321669 0.367731 0.359872
0.462094 0.437001 0.421581
0.553060 0.432241 0.415449
0.639475 0.450284 0.434234
0.729930 0.465455 0.448979
0.826624 0.483310 0.466439
0.909452 0.500685 0.483552
0.176046 0.431168 0.380960
0.264528 0.452273 0.396247
0.361876 0.477218 0.410214
0.441781 0.492970 0.415817
0.537331 0.509332 0.420555
0.662834 0.567283 0.480929
0.749134 0.588795 0.503876
0.839873 0.614401 0.531682
0.923022 0.593253 0.497675
0.197720 0.513467 0.405734
0.284467 0.534572 0.420869
0.387001 0.559518 0.438759
0.461742 0.574981 0.439310
0.554681 0.592023 0.436368
0.636274 0.602787 0.446593
0.761955 0.663985 0.516788
0.852112 0.687828 0.545176
0.927042 0.711162 0.574030
0.222845 0.595766 0.434280
0.309592 0.616871 0.449415
0.412126 0.641817 0.467305
0.481703 0.656992 0.462803
0.558231 0.664306 0.469590
0.652938 0.684792 0.461721
0.735217 0.696242 0.472632
0.864247 0.760186 0.558775
0.938267 0.781234 0.588539
0.250109 0.685071 0.465255
0.336856 0.706176 0.480390
0.439390 0.731121 0.498280
0.503363 0.745984 0.488296
0.579891 0.753298 0.495083
0.648372 0.759842 0.501156
0.752969 0.784898 0.488717
0.842581 0.797652 0.500887
0.950205 0.855476 0.604525
0.273978 0.763255 0.492373
0.360725 0.784360 0.507509
0.463260 0.809305 0.525399
0.522325 0.823895 0.510614
0.598854 0.831209 0.517401
0.667335 0.837753 0.523474
0.735815 0.844297 0.529547
0.856772 0.873918 0.513619
0.936577 0.886435 0.525624
0.072701 0.068157 0.366042
0.165474 0.064604 0.431448
0.287018 0.072924 0.439000
0.397587 0.080492 0.445869
0.506082 0.087919 0.452610
0.603168 0.094564 0.458642
0.700253 0.101210 0.464674
0.805602 0.108421 0.471219
0.897833 0.114734 0.476949
0.085302 0.150583 0.376856
0.173002 0.160606 0.386395
0.300926 0.173069 0.450717
0.411495 0.180637 0.457587
0.519990 0.188064 0.464328
0.617076 0.194709 0.470360
0.714161 0.201355 0.476391
0.803442 0.208566 0.478155
0.893864 0.214879 0.483828
0.099987 0.247806 0.389430
0.188197 0.258328 0.399474
0.291556 0.269879 0.410451
0.427935 0.299008 0.471437
0.536430 0.306434 0.478178
0.621093 0.313080 0.479416
0.716275 0.319725 0.485388
0.819559 0.326936 0.491868
0.909981 0.333249 0.497541
0.145284 0.340463 0.397751
0.231527 0.358200 0.415153
0.305819 0.359210 0.422786
0.434206 0.406690 0.479244
0.540573 0.414117 0.485918
0.635755 0.420762 0.491890
0.734276 0.470402 0.531652
0.830854 0.488739 0.548433
0.913449 0.506750 0.564835
0.161211 0.421111 0.411977
0.247541 0.438934 0.429465
0.342727 0.460000 0.445678
0.458157 0.502789 0.491901
0.590677 0.563434 0.546692
0.663720 0.556114 0.536724
0.753726 0.571623 0.551918
0.849492 0.590233 0.570307
0.930783 0.608916 0.588955
0.183579 0.501235 0.432744
0.287471 0.537449 0.486282
0.390005 0.562395 0.504172
0.483282 0.585088 0.520446
0.559862 0.598547 0.524895
0.691835 0.660199 0.580513
0.777271 0.682041 0.604323
0.866183 0.708570 0.633956
0.938846 0.735652 0.665078
0.225849 0.598643 0.499692
0.312596 0.619748 0.514828
0.415131 0.644694 0.532717
0.508407 0.667387 0.548992
0.579823 0.680559 0.548388
0.664868 0.696577 0.544987
0.747165 0.708046 0.555916
0.878201 0.778696 0.647672
0.949645 0.802793 0.680012
0.253113 0.687948 0.530668
0.339860 0.709053 0.545803
0.442395 0.733998 0.563693
0.535671 0.756692 0.579968
0.601483 0.769551 0.573881
0.669964 0.776095 0.579954
0.764899 0.796683 0.571984
0.854530 0.809455 0.584171
0.961022 0.873147 0.696559
0.276982 0.766132 0.557786
0.363730 0.787237 0.572921
0.466264 0.812183 0.590811
0.559540 0.834876 0.607086
0.620446 0.847461 0.596200
0.688926 0.854006 0.602273
0.757407 0.860550 0.608346
0.868702 0.885703 0.596885
0.948525 0.898238 0.608908
0.078847 0.074050 0.437406
0.162752 0.080353 0.443188
0.289785 0.075474 0.522330
0.400354 0.083043 0.529200
0.508849 0.090469 0.535940
0.605935 0.097114 0.541972
0.703020 0.103760 0.548004
0.808369 0.110971 0.554549
0.900600 0.117284 0.560279
0.091455 0.156484 0.448227
0.179147 0.166499 0.457758
0.303693 0.175619 0.534048
0.414262 0.183187 0.540917
0.522757 0.190614 0.547658
0.619843 0.197259 0.553690
0.716928 0.203905 0.559722
0.806154 0.211116 0.560660
0.896577 0.217429 0.566334
0.106140 0.253706 0.460801
0.194350 0.264229 0.470845
0.297701 0.275772 0.481815
0.430702 0.301558 0.554768
0.528624 0.308984 0.555949
0.623806 0.315630 0.561921
0.718988 0.322275 0.567893
0.822271 0.329486 0.574373
0.912694 0.335800 0.580047
0.119499 0.342150 0.472240
0.207709 0.352673 0.482284
0.311972 0.365110 0.494157
0.405550 0.375179 0.503699
0.543286 0.416667 0.568424
0.638468 0.423313 0.574396
0.733650 0.429958 0.580368
0.836933 0.437169 0.586848
0.927356 0.443482 0.592522
0.171258 0.430846 0.479347
0.257502 0.448584 0.496749
0.352392 0.469549 0.512196
0.409117 0.463305 0.513650
0.557673 0.522329 0.580664
0.652855 0.528975 0.586637
0.748036 0.535620 0.592609
0.853802 0.596116 0.643109
0.934702 0.615821 0.660995
0.182537 0.503677 0.487869
0.267174 0.521500 0.505184
0.367214 0.542566 0.525649
0.452341 0.567611 0.548163
0.577497 0.609930 0.594949
0.707178 0.676227 0.657206
0.775690 0.665739 0.643361
0.870400 0.685137 0.662806
0.949677 0.705447 0.683469
0.204466 0.583801 0.508430
0.289103 0.601624 0.525745
0.417819 0.647268 0.591251
0.511096 0.669962 0.607526
0.602622 0.692229 0.623495
0.667625 0.701646 0.624974
0.805081 0.770950 0.694283
0.891800 0.797891 0.726109
0.960177 0.826553 0.761515
0.255802 0.690522 0.589201
0.342549 0.711627 0.604337
0.445083 0.736573 0.622227
0.538360 0.759266 0.638501
0.629886 0.781534 0.654471
0.689285 0.790638 0.650466
0.775575 0.807229 0.646494
0.865222 0.820017 0.658698
0.970837 0.892080 0.778780
0.279671 0.768706 0.616320
0.366418 0.789811 0.631455
0.468952 0.814757 0.649345
0.562229 0.837450 0.665620
0.653755 0.859718 0.681589
0.708248 0.868549 0.672785
0.776728 0.875093 0.678858
0.879378 0.896248 0.671395
0.959217 0.908800 0.683434
0.084992 0.079943 0.508769
0.168897 0.086246 0.514551
0.292552 0.078024 0.605661
0.403121 0.085593 0.612530
0.511616 0.093019 0.619271
0.608701 0.099665 0.625303
0.705787 0.106310 0.631334
0.811136 0.113521 0.637880
0.885654 0.119834 0.637237
0.097608 0.162384 0.519597
0.185292 0.172392 0.529122
0.306460 0.178169 0.617378
0.417029 0.185738 0.624248
0.525524 0.193164 0.630988
0.622610 0.199810 0.637020
0.705583 0.206455 0.636685
0.808867 0.213666 0.643166
0.899290 0.219979 0.648839
0.112293 0.259607 0.532172
0.200502 0.270129 0.542216
0.303846 0.281665 0.553178
0.433469 0.304108 0.638098
0.531337 0.311534 0.638454
0.626519 0.318180 0.644426
0.721700 0.324825 0.650398
0.824984 0.332036 0.656879
0.915407 0.338350 0.662552
0.125652 0.348051 0.543611
0.213862 0.358573 0.553655
0.318125 0.371011 0.565527
0.395121 0.369893 0.580548
0.545999 0.419217 0.650929
0.641181 0.425863 0.656901
0.736362 0.432508 0.662873
0.839646 0.439719 0.669354
0.930069 0.446032 0.675027
0.183552 0.442782 0.548941
0.226970 0.445358 0.564880
0.324738 0.457796 0.571041
0.397351 0.461501 0.602112
0.560386 0.524880 0.663170
0.655567 0.531525 0.669142
0.750749 0.538171 0.675114
0.854033 0.545382 0.681594
0.944455 0.551695 0.687268
0.191955 0.512979 0.554139
0.276507 0.530717 0.571369
0.372246 0.554321 0.595935
0.458675 0.574640 0.618949
0.508411 0.556852 0.614234
0.668441 0.626076 0.680095
0.763623 0.632721 0.686067
0.875204 0.691909 0.734399
0.953803 0.713914 0.753995
0.207024 0.586243 0.567840
0.291661 0.604066 0.585155
0.378485 0.638347 0.616626
0.472256 0.654748 0.632095
0.565158 0.669950 0.646259
0.687212 0.714730 0.696319
0.821914 0.789441 0.769485
0.892071 0.778713 0.754542
0.968192 0.801357 0.778361
0.230820 0.673187 0.590152
0.294442 0.712025 0.619131
0.447771 0.739147 0.680760
0.541048 0.761841 0.697035
0.632574 0.784108 0.713004
0.714476 0.804034 0.727294
0.777087 0.811726 0.727052
0.919772 0.887468 0.818096
0.980897 0.916615 0.860755
0.282359 0.771281 0.674853
0.369106 0.792386 0.689989
0.471640 0.817332 0.707879
0.564917 0.840025 0.724153
0.656443 0.862293 0.740123
0.738345 0.882218 0.754412
0.796050 0.889637 0.749370
0.890054 0.906794 0.745904
0.969909 0.919362 0.757960
0.091660 0.086338 0.586207
0.175566 0.092641 0.591989
0.295554 0.080791 0.696084
0.406124 0.088360 0.702954
0.514619 0.095786 0.709694
0.611704 0.102432 0.715726
0.708789 0.109077 0.721758
0.814139 0.116288 0.728303
0.888598 0.122602 0.726766
0.104284 0.168787 0.597043
0.191961 0.178787 0.606559
0.291136 0.186236 0.613394
0.420032 0.188505 0.714671
0.528527 0.195931 0.721412
0.625612 0.202577 0.727444
0.708527 0.209222 0.726213
0.811811 0.216433 0.732694
0.902233 0.222746 0.738367
0.118969 0.266009 0.609618
0.207179 0.276532 0.619662
0.306177 0.283349 0.635374
0.436471 0.306875 0.728521
0.534281 0.314302 0.727982
0.629462 0.320947 0.733954
0.724644 0.327593 0.739926
0.827928 0.334804 0.746407
0.918350 0.341117 0.752080
0.132328 0.354453 0.621057
0.220538 0.364976 0.631101
0.303661 0.364372 0.663906
0.389995 0.353733 0.686572
0.548942 0.421984 0.740457
0.644124 0.428630 0.746429
0.739306 0.435275 0.752401
0.842590 0.442486 0.758882
0.933012 0.448800 0.764555
0.145437 0.441238 0.632281
0.229065 0.451761 0.635966
0.300833 0.459328 0.678171
0.391632 0.457158 0.691055
0.494692 0.456865 0.695446
0.658511 0.534292 0.758670
0.753693 0.540938 0.764642
0.856976 0.548149 0.771123
0.947399 0.554462 0.776796
0.205033 0.525932 0.628909
0.289585 0.543670 0.646139
0.303402 0.552270 0.697047
0.402349 0.553489 0.701782
0.501462 0.551259 0.704407
0.671385 0.628843 0.769624
0.766566 0.635488 0.775596
0.869850 0.642700 0.782076
0.960273 0.649013 0.787750
0.217035 0.596129 0.639543
0.298434 0.616258 0.659926
0.384749 0.646460 0.693916
0.478170 0.662313 0.709938
0.570721 0.676735 0.724777
0.603969 0.648831 0.714383
0.779440 0.730039 0.786549
0.882724 0.737250 0.793030
0.972698 0.812680 0.851112
0.233595 0.675837 0.654619
0.297096 0.714796 0.690623
0.398947 0.734051 0.708813
0.492182 0.750988 0.724631
0.584537 0.766737 0.739061
0.717393 0.806828 0.790810
0.799294 0.826754 0.805100
0.940080 0.913805 0.897658
0.987145 0.903563 0.882469
0.226590 0.779793 0.693283
0.311845 0.796998 0.708788
0.412858 0.817091 0.726401
0.567834 0.842819 0.787669
0.659361 0.865086 0.803639
0.741262 0.885012 0.817929
0.823163 0.904938 0.832218
0.901638 0.918237 0.826757
0.997342 0.987141 0.968626
0.097498 0.091936 0.654002
0.181404 0.098239 0.659785
0.298183 0.083214 0.775248
0.408752 0.090782 0.782117
0.517247 0.098209 0.788858
0.614333 0.104854 0.794890
0.711418 0.111500 0.800922
0.800752 0.118711 0.799472
0.891175 0.125024 0.805146
0.110129 0.174392 0.664845
0.197799 0.184385 0.674355
0.296974 0.191835 0.681189
0.422660 0.190927 0.793835
0.531155 0.198354 0.800576
0.628241 0.204999 0.806608
0.711104 0.211645 0.804593
0.814388 0.218856 0.811074
0.904810 0.225169 0.816747
0.124814 0.271615 0.677420
0.213024 0.282137 0.687464
0.277461 0.252083 0.740402
0.381510 0.251849 0.753701
0.536858 0.316724 0.806362
0.632039 0.323370 0.812334
0.727221 0.330015 0.818306
0.830505 0.337226 0.824787
0.920927 0.343539 0.830460
0.138174 0.360059 0.688859
0.218847 0.367866 0.706365
0.280501 0.349103 0.760429
0.376324 0.346927 0.759303
0.551519 0.424407 0.818837
0.646701 0.431052 0.824809
0.741883 0.437698 0.830781
0.845167 0.444909 0.837262
0.935589 0.451222 0.842935
0.151282 0.446844 0.700083
0.214212 0.456348 0.723680
0.286510 0.454799 0.765355
0.384144 0.451122 0.771404
0.487327 0.448203 0.776830
0.661088 0.536715 0.837050
0.756270 0.543360 0.843022
0.859553 0.550571 0.849503
0.949976 0.556885 0.855176
0.216483 0.537272 0.694369
0.213351 0.542839 0.745986
0.296734 0.550436 0.776576
0.394315 0.549236 0.782678
0.491842 0.543218 0.786889
0.589775 0.540433 0.790910
0.769143 0.637911 0.853976
0.872427 0.645122 0.860456
0.962850 0.651435 0.866130
0.228485 0.607469 0.705003
0.289377 0.637646 0.745893
0.390838 0.655358 0.764737
0.404392 0.648808 0.794046
0.501898 0.646517 0.798277
0.591792 0.638814 0.799421
0.782017 0.732462 0.864929
0.885301 0.739673 0.871410
0.975724 0.745986 0.877083
0.237449 0.687138 0.720602
0.301797 0.721786 0.758035
0.403209 0.740719 0.776928
0.495969 0.757247 0.793611
0.587768 0.772387 0.809202
0.671071 0.784336 0.821995
0.697793 0.750938 0.807729
0.899271 0.842272 0.883296
0.989693 0.848585 0.888969
0.228878 0.782255 0.755907
0.314117 0.799475 0.772207
0.415109 0.819590 0.791071
0.507342 0.837527 0.807624
0.598433 0.854541 0.822877
0.680882 0.868828 0.834949
0.825717 0.907384 0.887825
0.909680 0.926336 0.899461
1.000000 1.000000 1.000000
