clientes/tênis/05-filtros/gene-daylight.cube
# GENE · Daylight v1.0 · LUT 3D
# Gene Sneakers — sistema de filtros
# Compatible: CapCut, Premiere, DaVinci, Photoshop, Final Cut
#
TITLE "GENE Daylight v1.0"
LUT_3D_SIZE 33
DOMAIN_MIN 0.0 0.0 0.0
DOMAIN_MAX 1.0 1.0 1.0
0.053592 0.049688 0.048414
0.077527 0.050602 0.049090
0.103261 0.053400 0.051744
0.128994 0.056198 0.054398
0.154727 0.058996 0.057051
0.180461 0.061794 0.059705
0.206194 0.064592 0.062358
0.248723 0.069216 0.066744
0.276394 0.072224 0.069597
0.304064 0.075233 0.072450
0.331734 0.078241 0.075304
0.359404 0.081250 0.078157
0.387075 0.084258 0.081010
0.414745 0.087267 0.083863
0.442415 0.090275 0.086717
0.470086 0.093284 0.089570
0.495679 0.096067 0.092209
0.519975 0.098708 0.094715
0.544271 0.101350 0.097220
0.568567 0.103991 0.099725
0.592863 0.106633 0.102231
0.617159 0.109274 0.104736
0.641455 0.111916 0.107241
0.665750 0.114558 0.109747
0.690046 0.117199 0.112252
0.714342 0.119841 0.114757
0.749340 0.123646 0.118366
0.772421 0.126156 0.120746
0.795502 0.128665 0.123126
0.818583 0.131175 0.125506
0.841664 0.133684 0.127886
0.864745 0.136194 0.130266
0.886509 0.139969 0.133951
0.054041 0.067347 0.051020
0.076218 0.070784 0.051919
0.108930 0.080753 0.058935
0.134743 0.084538 0.062592
0.158322 0.083213 0.060119
0.184055 0.086011 0.062773
0.209789 0.088809 0.065426
0.252318 0.093433 0.069812
0.279988 0.096442 0.072665
0.307658 0.099450 0.075518
0.335329 0.102459 0.078372
0.362999 0.105467 0.081225
0.390669 0.108475 0.084078
0.418340 0.111484 0.086931
0.446010 0.114492 0.089785
0.473680 0.117501 0.092638
0.499274 0.120284 0.095277
0.523570 0.122925 0.097783
0.547866 0.125567 0.100288
0.572161 0.128208 0.102793
0.596457 0.130850 0.105298
0.620753 0.133492 0.107804
0.645049 0.136133 0.110309
0.669345 0.138775 0.112814
0.693641 0.141416 0.115320
0.717937 0.144058 0.117825
0.752934 0.147863 0.121434
0.776015 0.150373 0.123814
0.799097 0.152882 0.126194
0.822178 0.155392 0.128574
0.845259 0.157901 0.130954
0.868340 0.160411 0.133334
0.885202 0.168547 0.141872
0.059432 0.089063 0.057303
0.077928 0.090796 0.058928
0.102941 0.095530 0.058882
0.138456 0.108032 0.065798
0.164268 0.111817 0.069455
0.190081 0.115602 0.073113
0.215893 0.119387 0.076770
0.258553 0.125642 0.082815
0.283583 0.120659 0.075733
0.311253 0.123667 0.078586
0.338923 0.126676 0.081440
0.366594 0.129684 0.084293
0.394264 0.132693 0.087146
0.421934 0.135701 0.089999
0.449604 0.138710 0.092853
0.477275 0.141718 0.095706
0.502868 0.144501 0.098345
0.527164 0.147142 0.100850
0.551460 0.149784 0.103356
0.575756 0.152426 0.105861
0.600052 0.155067 0.108366
0.624348 0.157709 0.110872
0.648644 0.160350 0.113377
0.672940 0.162992 0.115882
0.697235 0.165634 0.118388
0.721531 0.168275 0.120893
0.756529 0.172080 0.124502
0.779610 0.174590 0.126882
0.802691 0.177099 0.129262
0.825772 0.179609 0.131642
0.848853 0.182118 0.134022
0.871934 0.184628 0.136402
0.883952 0.196526 0.149737
0.064823 0.110779 0.063586
0.083319 0.112512 0.065211
0.107885 0.117679 0.063367
0.129664 0.120276 0.065846
0.167981 0.135311 0.072660
0.193794 0.139096 0.076318
0.219606 0.142881 0.079975
0.262266 0.149136 0.086020
0.290021 0.153206 0.089953
0.317776 0.157276 0.093885
0.345532 0.161346 0.097818
0.370188 0.153901 0.087361
0.397858 0.156910 0.090214
0.425529 0.159918 0.093067
0.453199 0.162927 0.095921
0.480869 0.165935 0.098774
0.506463 0.168718 0.101413
0.530759 0.171360 0.103918
0.555055 0.174001 0.106424
0.579351 0.176643 0.108929
0.603646 0.179284 0.111434
0.627942 0.181926 0.113940
0.652238 0.184567 0.116445
0.676534 0.187209 0.118950
0.700830 0.189851 0.121456
0.725126 0.192492 0.123961
0.760124 0.196297 0.127570
0.783205 0.198807 0.129950
0.806286 0.201316 0.132330
0.829367 0.203826 0.134710
0.852448 0.206335 0.137090
0.875529 0.208845 0.139470
0.865449 0.223919 0.155987
0.070561 0.132495 0.070213
0.088710 0.134228 0.071494
0.107206 0.135961 0.073118
0.134422 0.142243 0.070147
0.156387 0.145022 0.072810
0.197507 0.162590 0.079523
0.223319 0.166375 0.083181
0.265979 0.172631 0.089225
0.293734 0.176700 0.093158
0.321490 0.180770 0.097091
0.349245 0.184840 0.101024
0.377000 0.188910 0.104956
0.404755 0.192980 0.108889
0.432510 0.197050 0.112822
0.460266 0.201119 0.116755
0.484464 0.190152 0.101842
0.510058 0.192935 0.104481
0.534353 0.195577 0.106986
0.558649 0.198218 0.109492
0.582945 0.200860 0.111997
0.607241 0.203501 0.114502
0.631537 0.206143 0.117008
0.655833 0.208785 0.119513
0.680129 0.211426 0.122018
0.704424 0.214068 0.124524
0.728720 0.216709 0.127029
0.763718 0.220515 0.130638
0.786799 0.223024 0.133018
0.809880 0.225534 0.135398
0.832961 0.228043 0.137778
0.839257 0.230553 0.138770
0.859721 0.234675 0.143292
0.864332 0.250738 0.163665
0.076906 0.154211 0.077441
0.094101 0.155944 0.077777
0.112597 0.157677 0.079401
0.131093 0.159410 0.081025
0.160960 0.166808 0.076927
0.183110 0.169768 0.079774
0.206408 0.173855 0.083757
0.269692 0.196125 0.092431
0.297448 0.200195 0.096363
0.325203 0.204265 0.100296
0.352958 0.208334 0.104229
0.380713 0.212404 0.108162
0.408468 0.216474 0.112094
0.436224 0.220544 0.116027
0.463979 0.224614 0.119960
0.491734 0.228684 0.123893
0.517406 0.232448 0.127530
0.541777 0.236021 0.130983
0.566147 0.239595 0.134437
0.586540 0.225077 0.115065
0.610836 0.227719 0.117570
0.635131 0.230360 0.120076
0.659427 0.233002 0.122581
0.683723 0.235643 0.125086
0.708019 0.238285 0.127592
0.732315 0.240927 0.130097
0.767313 0.244732 0.133706
0.790394 0.247241 0.136086
0.797524 0.249751 0.137095
0.820153 0.252260 0.139451
0.842781 0.254770 0.141808
0.858570 0.261974 0.151004
0.863268 0.276992 0.171291
0.083252 0.175927 0.084668
0.099492 0.177660 0.084060
0.117988 0.179393 0.085684
0.136484 0.181125 0.087308
0.166591 0.189630 0.082093
0.187498 0.191372 0.083708
0.209833 0.194515 0.086737
0.273406 0.219619 0.095636
0.301161 0.223689 0.099569
0.328916 0.227759 0.103502
0.356671 0.231829 0.107434
0.384426 0.235899 0.111367
0.412182 0.239968 0.115300
0.439937 0.244038 0.119233
0.467692 0.248108 0.123165
0.495447 0.252178 0.127098
0.521119 0.255942 0.130736
0.545490 0.259516 0.134189
0.569860 0.263089 0.137642
0.594231 0.266663 0.141095
0.618601 0.270236 0.144548
0.642972 0.273810 0.148001
0.667342 0.277383 0.151455
0.687318 0.259860 0.128154
0.711614 0.262502 0.130660
0.735909 0.265144 0.133165
0.770907 0.268949 0.136774
0.778420 0.271458 0.137776
0.801048 0.273968 0.140133
0.823677 0.276477 0.142489
0.846305 0.278987 0.144846
0.857473 0.288692 0.158663
0.862993 0.302222 0.178128
0.093738 0.211816 0.096614
0.108402 0.213549 0.094443
0.126898 0.215282 0.096068
0.145394 0.217015 0.097692
0.163889 0.218748 0.099316
0.182385 0.220481 0.100940
0.217712 0.230833 0.093859
0.253999 0.235412 0.098246
0.279050 0.239806 0.102529
0.335053 0.266588 0.108799
0.362808 0.270658 0.112732
0.390563 0.274727 0.116665
0.418318 0.278797 0.120597
0.446074 0.282867 0.124530
0.473829 0.286937 0.128463
0.501584 0.291007 0.132396
0.527256 0.294771 0.136033
0.551627 0.298345 0.139486
0.575997 0.301918 0.142939
0.600368 0.305492 0.146393
0.624738 0.309065 0.149846
0.649108 0.312639 0.153299
0.660273 0.316212 0.155200
0.684166 0.319786 0.158619
0.708059 0.323359 0.162038
0.731951 0.326933 0.165457
0.766368 0.332080 0.170382
0.789066 0.335475 0.173630
0.811764 0.338870 0.176878
0.829501 0.316501 0.147509
0.850731 0.319735 0.151264
0.855776 0.331607 0.171204
0.868485 0.339745 0.183481
0.100561 0.235167 0.104385
0.114199 0.236900 0.101199
0.132695 0.238633 0.102824
0.151191 0.240366 0.104448
0.169686 0.242098 0.106072
0.188182 0.243831 0.107696
0.223767 0.255373 0.099413
0.258319 0.258252 0.102083
0.282733 0.262021 0.105734
0.307785 0.266415 0.110017
0.366801 0.295920 0.116178
0.394556 0.299990 0.120111
0.422311 0.304060 0.124044
0.450066 0.308130 0.127977
0.477822 0.312200 0.131909
0.505577 0.316269 0.135842
0.531249 0.320034 0.139480
0.555619 0.323607 0.142933
0.579990 0.327181 0.146386
0.604360 0.330754 0.149839
0.628731 0.334328 0.153292
0.640295 0.337901 0.155194
0.664188 0.341475 0.158613
0.688080 0.345048 0.162032
0.711973 0.348622 0.165450
0.735865 0.352195 0.168869
0.770282 0.357343 0.173794
0.792980 0.360738 0.177042
0.815678 0.364133 0.180290
0.824333 0.373679 0.197581
0.830276 0.384899 0.217584
0.836089 0.396667 0.237717
0.852657 0.403693 0.247095
0.107384 0.258517 0.112157
0.119996 0.260250 0.107955
0.138492 0.261983 0.109579
0.156988 0.263716 0.111204
0.175483 0.265449 0.112828
0.193979 0.267182 0.114452
0.212475 0.268915 0.116076
0.264374 0.282792 0.107636
0.286854 0.284665 0.109373
0.311468 0.288630 0.113222
0.336519 0.293023 0.117505
0.361571 0.297417 0.121788
0.426304 0.329323 0.127491
0.454059 0.333393 0.131423
0.481814 0.337462 0.135356
0.509569 0.341532 0.139289
0.535242 0.345297 0.142926
0.559612 0.348870 0.146380
0.583983 0.352444 0.149833
0.596424 0.356017 0.151768
0.620317 0.359591 0.155187
0.644210 0.363164 0.158606
0.668102 0.366738 0.162025
0.691995 0.370311 0.165444
0.715887 0.373885 0.168863
0.739780 0.377458 0.172282
0.774197 0.382606 0.177207
0.796895 0.386000 0.180455
0.817504 0.390133 0.185792
0.823672 0.399713 0.205570
0.829696 0.409931 0.225491
0.836207 0.420489 0.244926
0.856159 0.425854 0.250920
0.114207 0.281868 0.119929
0.125793 0.283600 0.114711
0.144289 0.285333 0.116335
0.162785 0.287066 0.117960
0.181280 0.288799 0.119584
0.199776 0.290532 0.121208
0.218272 0.292265 0.122832
0.270429 0.307333 0.113190
0.292909 0.309206 0.114927
0.315390 0.311079 0.116664
0.340202 0.315238 0.120710
0.365254 0.319632 0.124993
0.390305 0.324026 0.129276
0.458052 0.358655 0.134870
0.485807 0.362725 0.138803
0.513562 0.366795 0.142735
0.539234 0.370559 0.146373
0.552554 0.374133 0.148343
0.576446 0.377706 0.151762
0.600339 0.381280 0.155181
0.624231 0.384853 0.158600
0.648124 0.388427 0.162019
0.672017 0.392000 0.165438
0.695909 0.395574 0.168857
0.719802 0.399147 0.172275
0.743694 0.402721 0.175694
0.778111 0.407868 0.180619
0.800809 0.411263 0.183867
0.816818 0.416564 0.193804
0.823068 0.425125 0.213500
0.829171 0.434369 0.233343
0.839732 0.442669 0.248728
0.859655 0.447972 0.254751
0.121029 0.305218 0.127700
0.131590 0.306951 0.121467
0.150086 0.308684 0.123091
0.168581 0.310417 0.124715
0.187077 0.312150 0.126340
0.205573 0.313883 0.127964
0.224069 0.315615 0.129588
0.254637 0.318479 0.132272
0.298964 0.333746 0.120481
0.321445 0.335619 0.122218
0.343925 0.337492 0.123955
0.368937 0.341847 0.128198
0.393988 0.346241 0.132481
0.419040 0.350635 0.136764
0.489800 0.387988 0.142249
0.517555 0.392058 0.146182
0.532576 0.395822 0.148336
0.556468 0.399395 0.151755
0.580361 0.402969 0.155174
0.604253 0.406542 0.158593
0.628146 0.410116 0.162012
0.652038 0.413689 0.165431
0.675931 0.417263 0.168850
0.699824 0.420836 0.172269
0.723716 0.424410 0.175688
0.747609 0.427983 0.179107
0.782026 0.433131 0.184032
0.804723 0.436526 0.187280
0.816191 0.442356 0.201758
0.822520 0.449928 0.221375
0.828700 0.458227 0.241141
0.843252 0.464807 0.252535
0.863145 0.470045 0.258588
0.127852 0.328568 0.135472
0.137387 0.330301 0.128223
0.155883 0.332034 0.129847
0.174378 0.333767 0.131471
0.192874 0.335500 0.133096
0.211370 0.337233 0.134720
0.229866 0.338966 0.136344
0.260433 0.341830 0.139028
0.280321 0.343693 0.140775
0.327500 0.360160 0.127772
0.349980 0.362033 0.129508
0.372620 0.364062 0.131403
0.397671 0.368456 0.135686
0.422723 0.372850 0.139969
0.447775 0.377243 0.144252
0.511321 0.417320 0.148147
0.536490 0.421085 0.151749
0.560383 0.424658 0.155168
0.584275 0.428232 0.158587
0.608168 0.431805 0.162006
0.632060 0.435379 0.165425
0.655953 0.438952 0.168844
0.679845 0.442526 0.172263
0.703738 0.446099 0.175682
0.727631 0.449673 0.179100
0.751523 0.453246 0.182519
0.785940 0.458394 0.187444
0.808638 0.461789 0.190692
0.815622 0.467523 0.209654
0.822028 0.474136 0.229194
0.828282 0.481517 0.248886
0.846766 0.486902 0.256348
0.866629 0.492074 0.262431
0.134675 0.351919 0.143244
0.143184 0.353652 0.134979
0.161680 0.355385 0.136603
0.180175 0.357117 0.138227
0.198671 0.358850 0.139851
0.217167 0.360583 0.141476
0.235663 0.362316 0.143100
0.266230 0.365180 0.145784
0.286118 0.367044 0.147531
0.333555 0.384700 0.133326
0.356035 0.386573 0.135062
0.378515 0.388446 0.136799
0.401354 0.390671 0.138891
0.426406 0.395065 0.143174
0.451458 0.399458 0.147457
0.476509 0.403852 0.151739
0.489883 0.407916 0.154159
0.564297 0.449921 0.158580
0.588190 0.453494 0.161999
0.612082 0.457068 0.165418
0.635975 0.460641 0.168837
0.659867 0.464215 0.172256
0.683760 0.467788 0.175675
0.707652 0.471362 0.179094
0.731545 0.474935 0.182513
0.755438 0.478509 0.185932
0.789854 0.483656 0.190857
0.808462 0.487267 0.198195
0.815109 0.492079 0.217494
0.821590 0.497761 0.236959
0.830303 0.503932 0.254192
0.850274 0.508953 0.260167
0.870107 0.514055 0.266280
0.141498 0.375269 0.151015
0.148981 0.377002 0.141735
0.167477 0.378735 0.143359
0.185972 0.380468 0.144983
0.204468 0.382201 0.146607
0.222964 0.383934 0.148232
0.241460 0.385667 0.149856
0.272027 0.388531 0.152540
0.291915 0.390394 0.154286
0.311803 0.392257 0.156033
0.362090 0.411114 0.140616
0.384570 0.412987 0.142353
0.407051 0.414860 0.144090
0.430089 0.417280 0.146379
0.455141 0.421673 0.150662
0.470777 0.426067 0.153411
0.493494 0.430131 0.157333
0.515059 0.433989 0.161056
0.592104 0.478757 0.165412
0.615996 0.482331 0.168831
0.639889 0.485904 0.172250
0.663782 0.489478 0.175669
0.687674 0.493051 0.179088
0.711567 0.496625 0.182507
0.735459 0.500198 0.185925
0.759352 0.503772 0.189344
0.793769 0.508919 0.194269
0.807931 0.512167 0.206053
0.814652 0.516036 0.225278
0.821204 0.520814 0.244672
0.833835 0.526005 0.257987
0.853777 0.530958 0.263991
0.873579 0.535990 0.270135
0.148321 0.398619 0.158787
0.154778 0.400352 0.148491
0.173274 0.402085 0.150115
0.191769 0.403818 0.151739
0.210265 0.405551 0.153363
0.228761 0.407284 0.154987
0.247257 0.409017 0.156612
0.277824 0.411881 0.159296
0.297712 0.413744 0.161042
0.317600 0.415608 0.162789
0.337488 0.417471 0.164535
0.390625 0.437527 0.147907
0.413106 0.439400 0.149644
0.427045 0.441273 0.149882
0.449827 0.443888 0.152344
0.474387 0.448282 0.156584
0.497105 0.452346 0.160506
0.518670 0.456204 0.164229
0.540235 0.460062 0.167953
0.619911 0.507593 0.172243
0.643803 0.511167 0.175662
0.667696 0.514740 0.179081
0.691589 0.518314 0.182500
0.715481 0.521887 0.185919
0.739374 0.525461 0.189338
0.763266 0.529034 0.192757
0.797683 0.534182 0.197682
0.807455 0.536453 0.213856
0.814249 0.539406 0.233008
0.820871 0.543307 0.252332
0.837361 0.548035 0.261788
0.857274 0.552917 0.267821
0.877044 0.557876 0.273997
0.154631 0.420218 0.165976
0.160140 0.421950 0.154740
0.178635 0.423683 0.156364
0.197131 0.425416 0.157988
0.215627 0.427149 0.159612
0.234123 0.428882 0.161236
0.252618 0.430615 0.162861
0.283186 0.433479 0.165545
0.303074 0.435342 0.167291
0.322962 0.437206 0.169038
0.342850 0.439069 0.170784
0.388457 0.460226 0.151529
0.410496 0.462099 0.153248
0.432536 0.463972 0.154968
0.454576 0.465845 0.156687
0.477727 0.468830 0.159519
0.500444 0.472894 0.163441
0.522010 0.476752 0.167165
0.543575 0.480610 0.170888
0.565140 0.484468 0.174611
0.586705 0.488326 0.178334
0.671317 0.538107 0.182238
0.695209 0.541681 0.185656
0.719102 0.545254 0.189075
0.742994 0.548828 0.192494
0.766887 0.552401 0.195913
0.800020 0.557307 0.202122
0.807065 0.558381 0.221023
0.813923 0.560512 0.240111
0.820608 0.563624 0.259372
0.840618 0.568371 0.265308
0.860503 0.573186 0.271368
0.880243 0.578076 0.277575
0.160622 0.440720 0.172799
0.165230 0.442453 0.160672
0.183725 0.444186 0.162296
0.202221 0.445919 0.163920
0.220717 0.447652 0.165544
0.239213 0.449385 0.167168
0.257708 0.451118 0.168793
0.288276 0.453982 0.171477
0.308164 0.455845 0.173223
0.328052 0.457708 0.174970
0.347940 0.459572 0.176716
0.367828 0.461435 0.178463
0.415709 0.483647 0.158077
0.437748 0.485520 0.159796
0.459788 0.487393 0.161516
0.481827 0.489265 0.163235
0.503615 0.492400 0.166228
0.525180 0.496258 0.169951
0.546745 0.500116 0.173674
0.568310 0.503974 0.177397
0.589876 0.507831 0.181121
0.611441 0.511689 0.184844
0.698646 0.563862 0.188653
0.722539 0.567436 0.192072
0.746431 0.571009 0.195491
0.770324 0.574583 0.198910
0.799632 0.578448 0.208944
0.806738 0.578730 0.227784
0.813655 0.580101 0.246812
0.823709 0.582954 0.262704
0.843705 0.587639 0.268654
0.863564 0.592390 0.274741
0.883275 0.597211 0.280976
0.166613 0.461223 0.179623
0.170320 0.462956 0.166604
0.188815 0.464689 0.168228
0.207311 0.466422 0.169852
0.225807 0.468155 0.171476
0.244303 0.469888 0.173100
0.262798 0.471621 0.174725
0.293366 0.474485 0.177409
0.313254 0.476348 0.179155
0.333142 0.478211 0.180902
0.346108 0.480075 0.180840
0.365606 0.481938 0.182569
0.420921 0.505194 0.162905
0.442961 0.507067 0.164624
0.465000 0.508940 0.166344
0.487040 0.510813 0.168064
0.507425 0.512546 0.169654
0.528350 0.515763 0.172737
0.549916 0.519621 0.176461
0.571481 0.523479 0.180184
0.593046 0.527337 0.183907
0.614611 0.531195 0.187630
0.636176 0.535053 0.191354
0.725976 0.589618 0.195068
0.749868 0.593191 0.198487
0.773761 0.596765 0.201906
0.799286 0.599120 0.215723
0.806451 0.598632 0.234503
0.813427 0.599265 0.253474
0.826817 0.602250 0.266030
0.846788 0.606872 0.272005
0.866620 0.611556 0.278119
0.886301 0.616307 0.284383
0.172604 0.481726 0.186447
0.175410 0.483459 0.172536
0.193905 0.485192 0.174160
0.212401 0.486925 0.175784
0.230897 0.488658 0.177408
0.249393 0.490390 0.179032
0.267888 0.492123 0.180657
0.298456 0.494987 0.183341
0.312102 0.496851 0.183255
0.331600 0.498714 0.184984
0.351098 0.500577 0.186713
0.370596 0.502441 0.188442
0.390094 0.504304 0.190171
0.448173 0.528615 0.169453
0.470213 0.530488 0.171172
0.492252 0.532361 0.172892
0.512638 0.534093 0.174482
0.531989 0.535738 0.175992
0.553086 0.539127 0.179247
0.574651 0.542985 0.182970
0.596217 0.546843 0.186694
0.617782 0.550701 0.190417
0.639347 0.554559 0.194140
0.660912 0.558417 0.197863
0.682477 0.562275 0.201587
0.777198 0.618947 0.204902
0.798982 0.619334 0.222460
0.806205 0.618097 0.241183
0.813237 0.618009 0.260097
0.829921 0.621512 0.269359
0.849867 0.626068 0.275359
0.869671 0.630683 0.281501
0.889323 0.635363 0.287795
0.178594 0.502229 0.193271
0.180500 0.503962 0.178468
0.198995 0.505694 0.180092
0.217491 0.507427 0.181716
0.235987 0.509160 0.183340
0.254483 0.510893 0.184964
0.267626 0.512626 0.184741
0.297594 0.515490 0.187399
0.317092 0.517353 0.189128
0.336590 0.519217 0.190857
0.356088 0.521080 0.192586
0.375586 0.522944 0.194315
0.395084 0.524807 0.196045
0.414582 0.526670 0.197774
0.475425 0.552036 0.176001
0.497465 0.553909 0.177720
0.517850 0.555641 0.179311
0.537202 0.557286 0.180821
0.556554 0.558930 0.182330
0.577822 0.562491 0.185757
0.599387 0.566349 0.189480
0.620952 0.570207 0.193203
0.642517 0.574065 0.196926
0.664083 0.577923 0.200650
0.685648 0.581781 0.204373
0.707213 0.585639 0.208096
0.798720 0.639098 0.229156
0.805999 0.637132 0.247823
0.813085 0.636343 0.266683
0.833021 0.640738 0.272693
0.852941 0.645226 0.278719
0.872717 0.649771 0.284888
0.892338 0.654377 0.291213
0.184585 0.522731 0.200095
0.186225 0.524464 0.185029
0.204085 0.526197 0.186024
0.222581 0.527930 0.187648
0.236350 0.529663 0.187398
0.254483 0.531396 0.189006
0.272616 0.533129 0.190614
0.302585 0.535993 0.193272
0.322082 0.537856 0.195001
0.341580 0.539720 0.196730
0.361078 0.541583 0.198460
0.380576 0.543446 0.200189
0.400074 0.545310 0.201918
0.419572 0.547173 0.203647
0.480637 0.573584 0.180829
0.502677 0.575456 0.182549
0.523062 0.577189 0.184139
0.542414 0.578833 0.185649
0.561766 0.580478 0.187159
0.581118 0.582122 0.188669
0.602557 0.585855 0.192266
0.624123 0.589713 0.195990
0.645688 0.593571 0.199713
0.667253 0.597429 0.203436
0.688818 0.601287 0.207159
0.710383 0.605144 0.210883
0.741448 0.610702 0.216246
0.805832 0.655744 0.254423
0.816087 0.655557 0.270114
0.836116 0.659927 0.276031
0.856010 0.664346 0.282083
0.875758 0.668819 0.288281
0.895348 0.673349 0.294637
0.190576 0.543234 0.206919
0.192216 0.544967 0.191853
0.205074 0.546700 0.190055
0.223207 0.548433 0.191663
0.241340 0.550166 0.193272
0.259473 0.551899 0.194880
0.277606 0.553632 0.196488
0.307575 0.556496 0.199145
0.327073 0.558359 0.200875
0.346571 0.560222 0.202604
0.366069 0.562086 0.204333
0.385566 0.563949 0.206062
0.405064 0.565812 0.207791
0.424562 0.567676 0.209520
0.444060 0.569539 0.211249
0.507889 0.597004 0.187377
0.528275 0.598737 0.188967
0.547627 0.600381 0.190477
0.566978 0.602026 0.191987
0.586330 0.603670 0.193497
0.605728 0.605361 0.195053
0.627293 0.609219 0.198776
0.648858 0.613076 0.202499
0.670423 0.616934 0.206222
0.691989 0.620792 0.209946
0.713554 0.624650 0.213669
0.744618 0.630208 0.219032
0.765105 0.633873 0.222569
0.819203 0.674778 0.273432
0.839208 0.679080 0.279373
0.859075 0.683428 0.285451
0.878794 0.687826 0.291678
0.898353 0.692279 0.298066
0.192712 0.563737 0.211627
0.194320 0.565470 0.196710
0.210064 0.567203 0.195929
0.228197 0.568936 0.197537
0.246330 0.570669 0.199145
0.264463 0.572402 0.200753
0.282597 0.574134 0.202361
0.312565 0.576998 0.205019
0.332063 0.578862 0.206748
0.351561 0.580725 0.208477
0.371059 0.582589 0.210206
0.390557 0.584452 0.211935
0.410055 0.586315 0.213664
0.429553 0.588179 0.215394
0.449051 0.590042 0.217123
0.513102 0.618552 0.192205
0.533487 0.620284 0.193796
0.552839 0.621929 0.195306
0.572191 0.623573 0.196815
0.591543 0.625218 0.198325
0.610894 0.626862 0.199835
0.630463 0.628724 0.201562
0.652029 0.632582 0.205286
0.673594 0.636440 0.209009
0.695159 0.640298 0.212732
0.716724 0.644156 0.216455
0.747789 0.649713 0.221819
0.768275 0.653378 0.225356
0.788762 0.657043 0.228893
0.842295 0.698195 0.282719
0.862135 0.702470 0.288824
0.881825 0.706792 0.295081
0.901351 0.711165 0.301500
0.198586 0.584240 0.218383
0.200194 0.585973 0.203466
0.215054 0.587706 0.201802
0.233187 0.589439 0.203410
0.251321 0.591171 0.205018
0.269454 0.592904 0.206626
0.287587 0.594637 0.208234
0.317555 0.597501 0.210892
0.337053 0.599365 0.212621
0.356551 0.601228 0.214350
0.376049 0.603091 0.216079
0.395547 0.604955 0.217809
0.415045 0.606818 0.219538
0.434543 0.608681 0.221267
0.454041 0.610545 0.222996
0.473539 0.612408 0.224725
0.538700 0.641832 0.198624
0.558051 0.643477 0.200134
0.577403 0.645121 0.201644
0.596755 0.646766 0.203154
0.616107 0.648410 0.204663
0.635458 0.650055 0.206173
0.655199 0.652088 0.208072
0.676764 0.655946 0.211795
0.698330 0.659804 0.215519
0.719895 0.663662 0.219242
0.750959 0.669219 0.224605
0.771446 0.672884 0.228142
0.791933 0.676549 0.231679
0.812420 0.680214 0.235216
0.865190 0.721472 0.292203
0.884850 0.725716 0.298489
0.904344 0.730006 0.304941
0.204459 0.604743 0.225139
0.206067 0.606475 0.210223
0.220045 0.608208 0.207675
0.238178 0.609941 0.209283
0.256311 0.611674 0.210891
0.274444 0.613407 0.212499
0.292577 0.615140 0.214108
0.322545 0.618004 0.216765
0.342043 0.619867 0.218494
0.361541 0.621731 0.220224
0.381039 0.623594 0.221953
0.400537 0.625457 0.223682
0.420035 0.627321 0.225411
0.439533 0.629184 0.227140
0.459031 0.631047 0.228869
0.478529 0.632911 0.230598
0.496564 0.634634 0.232198
0.563264 0.665024 0.204962
0.582615 0.666669 0.206472
0.601967 0.668313 0.207982
0.621319 0.669958 0.209492
0.640671 0.671602 0.211002
0.660023 0.673247 0.212511
0.679935 0.675452 0.214582
0.701500 0.679310 0.218305
0.723065 0.683168 0.222028
0.754129 0.688725 0.227391
0.774616 0.692390 0.230929
0.795103 0.696055 0.234466
0.815590 0.699720 0.238003
0.836077 0.703385 0.241540
0.856564 0.707050 0.245077
0.907330 0.748801 0.308388
0.212919 0.634276 0.234872
0.214527 0.636009 0.219955
0.227233 0.637742 0.216135
0.245366 0.639475 0.217744
0.263499 0.641208 0.219352
0.281632 0.642941 0.220960
0.299765 0.644674 0.222568
0.329734 0.647538 0.225226
0.349232 0.649401 0.226955
0.368730 0.651265 0.228684
0.388227 0.653128 0.230413
0.407725 0.654991 0.232142
0.427223 0.656855 0.233871
0.446721 0.658718 0.235600
0.466219 0.660581 0.237330
0.485717 0.662445 0.239059
0.503752 0.664168 0.240658
0.520872 0.665804 0.242176
0.590124 0.697708 0.213427
0.609476 0.699353 0.214937
0.628827 0.700997 0.216447
0.648179 0.702642 0.217957
